assets/luts/fuji_eternal.cube
TITLE "Fujifilm Eternal Style"
LUT_3D_SIZE 16
0.000000 0.050000 0.030000
0.080000 0.049150 0.029490
0.160000 0.048299 0.028980
0.240000 0.047449 0.028469
0.320000 0.046598 0.027959
0.400000 0.045748 0.027449
0.480000 0.044898 0.026939
0.560000 0.044047 0.026428
0.640000 0.043197 0.025918
0.720000 0.042346 0.025408
0.800000 0.041496 0.024898
0.880000 0.040646 0.024387
0.960000 0.039795 0.023877
1.000000 0.038945 0.023367
1.000000 0.038094 0.022857
1.000000 0.037244 0.022346
0.000000 0.092823 0.029047
0.080000 0.091973 0.028537
0.160000 0.091123 0.028027
0.240000 0.090272 0.027516
0.320000 0.089422 0.027006
0.400000 0.088571 0.026496
0.480000 0.087721 0.025986
0.560000 0.086871 0.025475
0.640000 0.086020 0.024965
0.720000 0.085170 0.024455
0.800000 0.084319 0.023945
0.880000 0.083469 0.023434
0.960000 0.082619 0.022924
1.000000 0.081768 0.022414
1.000000 0.080918 0.021904
1.000000 0.080067 0.021394
0.000000 0.145031 0.027885
0.080000 0.144180 0.027375
0.160000 0.143330 0.026865
0.240000 0.142480 0.026355
0.320000 0.141629 0.025844
0.400000 0.140779 0.025334
0.480000 0.139928 0.024824
0.560000 0.139078 0.024314
0.640000 0.138228 0.023803
0.720000 0.137377 0.023293
0.800000 0.136527 0.022783
0.880000 0.135676 0.022273
0.960000 0.134826 0.021763
1.000000 0.133976 0.021252
1.000000 0.133125 0.020742
1.000000 0.132275 0.020232
0.000000 0.201485 0.026629
0.080000 0.200635 0.026119
0.160000 0.199784 0.025609
0.240000 0.198934 0.025098
0.320000 0.198083 0.024588
0.400000 0.197233 0.024078
0.480000 0.196383 0.023568
0.560000 0.195532 0.023058
0.640000 0.194682 0.022547
0.720000 0.193831 0.022037
0.800000 0.192981 0.021527
0.880000 0.192131 0.021017
0.960000 0.191280 0.020506
1.000000 0.190430 0.019996
1.000000 0.189579 0.019486
1.000000 0.188729 0.018976
0.000000 0.260887 0.025307
0.080000 0.260036 0.024797
0.160000 0.259186 0.024287
0.240000 0.258335 0.023777
0.320000 0.257485 0.023266
0.400000 0.256635 0.022756
0.480000 0.255784 0.022246
0.560000 0.254934 0.021736
0.640000 0.254083 0.021225
0.720000 0.253233 0.020715
0.800000 0.252383 0.020205
0.880000 0.251532 0.019695
0.960000 0.250682 0.019185
1.000000 0.249831 0.018674
1.000000 0.248981 0.018164
1.000000 0.248131 0.017654
0.000000 0.322581 0.023935
0.080000 0.321731 0.023424
0.160000 0.320880 0.022914
0.240000 0.320030 0.022404
0.320000 0.319179 0.021894
0.400000 0.318329 0.021383
0.480000 0.317479 0.020873
0.560000 0.316628 0.020363
0.640000 0.315778 0.019853
0.720000 0.314927 0.019342
0.800000 0.314077 0.018832
0.880000 0.313227 0.018322
0.960000 0.312376 0.017812
1.000000 0.311526 0.017301
1.000000 0.310675 0.016791
1.000000 0.309825 0.016281
0.000000 0.386166 0.022520
0.080000 0.385316 0.022009
0.160000 0.384465 0.021499
0.240000 0.383615 0.020989
0.320000 0.382765 0.020479
0.400000 0.381914 0.019969
0.480000 0.381064 0.019458
0.560000 0.380213 0.018948
0.640000 0.379363 0.018438
0.720000 0.378513 0.017928
0.800000 0.377662 0.017417
0.880000 0.376812 0.016907
0.960000 0.375961 0.016397
1.000000 0.375111 0.015887
1.000000 0.374261 0.015376
1.000000 0.373410 0.014866
0.000000 0.451368 0.021069
0.080000 0.450518 0.020559
0.160000 0.449667 0.020048
0.240000 0.448817 0.019538
0.320000 0.447967 0.019028
0.400000 0.447116 0.018518
0.480000 0.446266 0.018007
0.560000 0.445415 0.017497
0.640000 0.444565 0.016987
0.720000 0.443715 0.016477
0.800000 0.442864 0.015966
0.880000 0.442014 0.015456
0.960000 0.441163 0.014946
1.000000 0.440313 0.014436
1.000000 0.439463 0.013926
1.000000 0.438612 0.013415
0.000000 0.517987 0.019586
0.080000 0.517136 0.019076
0.160000 0.516286 0.018566
0.240000 0.515436 0.018056
0.320000 0.514585 0.017546
0.400000 0.513735 0.017035
0.480000 0.512884 0.016525
0.560000 0.512034 0.016015
0.640000 0.511184 0.015505
0.720000 0.510333 0.014994
0.800000 0.509483 0.014484
0.880000 0.508632 0.013974
0.960000 0.507782 0.013464
1.000000 0.506932 0.012953
1.000000 0.506081 0.012443
1.000000 0.505231 0.011933
0.000000 0.585870 0.018076
0.080000 0.585019 0.017566
0.160000 0.584169 0.017055
0.240000 0.583318 0.016545
0.320000 0.582468 0.016035
0.400000 0.581618 0.015525
0.480000 0.580767 0.015015
0.560000 0.579917 0.014504
0.640000 0.579066 0.013994
0.720000 0.578216 0.013484
0.800000 0.577366 0.012974
0.880000 0.576515 0.012463
0.960000 0.575665 0.011953
1.000000 0.574814 0.011443
1.000000 0.573964 0.010933
1.000000 0.573114 0.010422
0.000000 0.654895 0.016540
0.080000 0.654045 0.016030
0.160000 0.653194 0.015520
0.240000 0.652344 0.015009
0.320000 0.651494 0.014499
0.400000 0.650643 0.013989
0.480000 0.649793 0.013479
0.560000 0.648942 0.012968
0.640000 0.648092 0.012458
0.720000 0.647242 0.011948
0.800000 0.646391 0.011438
0.880000 0.645541 0.010927
0.960000 0.644690 0.010417
1.000000 0.643840 0.009907
1.000000 0.642990 0.009397
1.000000 0.642139 0.008886
0.000000 0.724966 0.014981
0.080000 0.724115 0.014471
0.160000 0.723265 0.013960
0.240000 0.722415 0.013450
0.320000 0.721564 0.012940
0.400000 0.720714 0.012430
0.480000 0.719863 0.011919
0.560000 0.719013 0.011409
0.640000 0.718163 0.010899
0.720000 0.717312 0.010389
0.800000 0.716462 0.009878
0.880000 0.715611 0.009368
0.960000 0.714761 0.008858
1.000000 0.713911 0.008348
1.000000 0.713060 0.007837
1.000000 0.712210 0.007327
0.000000 0.796000 0.013400
0.080000 0.795149 0.012890
0.160000 0.794299 0.012380
0.240000 0.793448 0.011870
0.320000 0.792598 0.011359
0.400000 0.791748 0.010849
0.480000 0.790897 0.010339
0.560000 0.790047 0.009829
0.640000 0.789196 0.009318
0.720000 0.788346 0.008808
0.800000 0.787496 0.008298
0.880000 0.786645 0.007788
0.960000 0.785795 0.007277
1.000000 0.784944 0.006767
1.000000 0.784094 0.006257
1.000000 0.783244 0.005747
0.000000 0.867928 0.011800
0.080000 0.867078 0.011289
0.160000 0.866227 0.010779
0.240000 0.865377 0.010269
0.320000 0.864526 0.009759
0.400000 0.863676 0.009248
0.480000 0.862826 0.008738
0.560000 0.861975 0.008228
0.640000 0.861125 0.007718
0.720000 0.860274 0.007208
0.800000 0.859424 0.006697
0.880000 0.858574 0.006187
0.960000 0.857723 0.005677
1.000000 0.856873 0.005167
1.000000 0.856022 0.004656
1.000000 0.855172 0.004146
0.000000 0.940692 0.010181
0.080000 0.939841 0.009670
0.160000 0.938991 0.009160
0.240000 0.938141 0.008650
0.320000 0.937290 0.008140
0.400000 0.936440 0.007629
0.480000 0.935589 0.007119
0.560000 0.934739 0.006609
0.640000 0.933889 0.006099
0.720000 0.933038 0.005588
0.800000 0.932188 0.005078
0.880000 0.931337 0.004568
0.960000 0.930487 0.004058
1.000000 0.929637 0.003547
1.000000 0.928786 0.003037
1.000000 0.927936 0.002527
0.000000 1.000000 0.008544
0.080000 1.000000 0.008034
0.160000 1.000000 0.007524
0.240000 1.000000 0.007013
0.320000 1.000000 0.006503
0.400000 1.000000 0.005993
0.480000 1.000000 0.005483
0.560000 1.000000 0.004972
0.640000 1.000000 0.004462
0.720000 1.000000 0.003952
0.800000 1.000000 0.003442
0.880000 1.000000 0.002931
0.960000 1.000000 0.002421
1.000000 1.000000 0.001911
1.000000 1.000000 0.001401
1.000000 1.000000 0.000890
0.000000 0.049807 0.083278
0.080000 0.048957 0.082768
0.160000 0.048106 0.082257
0.240000 0.047256 0.081747
0.320000 0.046406 0.081237
0.400000 0.045555 0.080727
0.480000 0.044705 0.080216
0.560000 0.043854 0.079706
0.640000 0.043004 0.079196
0.720000 0.042154 0.078686
0.800000 0.041303 0.078176
0.880000 0.040453 0.077665
0.960000 0.039602 0.077155
1.000000 0.038752 0.076645
1.000000 0.037902 0.076135
1.000000 0.037051 0.075624
0.000000 0.092631 0.082325
0.080000 0.091780 0.081815
0.160000 0.090930 0.081305
0.240000 0.090079 0.080794
0.320000 0.089229 0.080284
0.400000 0.088379 0.079774
0.480000 0.087528 0.079264
0.560000 0.086678 0.078753
0.640000 0.085827 0.078243
0.720000 0.084977 0.077733
0.800000 0.084127 0.077223
0.880000 0.083276 0.076712
0.960000 0.082426 0.076202
1.000000 0.081575 0.075692
1.000000 0.080725 0.075182
1.000000 0.079875 0.074671
0.000000 0.144838 0.081163
0.080000 0.143988 0.080653
0.160000 0.143137 0.080143
0.240000 0.142287 0.079633
0.320000 0.141437 0.079122
0.400000 0.140586 0.078612
0.480000 0.139736 0.078102
0.560000 0.138885 0.077592
0.640000 0.138035 0.077081
0.720000 0.137185 0.076571
0.800000 0.136334 0.076061
0.880000 0.135484 0.075551
0.960000 0.134633 0.075040
1.000000 0.133783 0.074530
1.000000 0.132933 0.074020
1.000000 0.132082 0.073510
0.000000 0.201292 0.079907
0.080000 0.200442 0.079397
0.160000 0.199591 0.078887
0.240000 0.198741 0.078376
0.320000 0.197891 0.077866
0.400000 0.197040 0.077356
0.480000 0.196190 0.076846
0.560000 0.195339 0.076335
0.640000 0.194489 0.075825
0.720000 0.193639 0.075315
0.800000 0.192788 0.074805
0.880000 0.191938 0.074294
0.960000 0.191087 0.073784
1.000000 0.190237 0.073274
1.000000 0.189387 0.072764
1.000000 0.188536 0.072254
0.000000 0.260694 0.078585
0.080000 0.259844 0.078075
0.160000 0.258993 0.077565
0.240000 0.258143 0.077055
0.320000 0.257292 0.076544
0.400000 0.256442 0.076034
0.480000 0.255592 0.075524
0.560000 0.254741 0.075014
0.640000 0.253891 0.074503
0.720000 0.253040 0.073993
0.800000 0.252190 0.073483
0.880000 0.251340 0.072973
0.960000 0.250489 0.072462
1.000000 0.249639 0.071952
1.000000 0.248788 0.071442
1.000000 0.247938 0.070932
0.000000 0.322388 0.077213
0.080000 0.321538 0.076702
0.160000 0.320688 0.076192
0.240000 0.319837 0.075682
0.320000 0.318987 0.075172
0.400000 0.318136 0.074661
0.480000 0.317286 0.074151
0.560000 0.316436 0.073641
0.640000 0.315585 0.073131
0.720000 0.314735 0.072620
0.800000 0.313884 0.072110
0.880000 0.313034 0.071600
0.960000 0.312184 0.071090
1.000000 0.311333 0.070579
1.000000 0.310483 0.070069
1.000000 0.309632 0.069559
0.000000 0.385974 0.075798
0.080000 0.385123 0.075287
0.160000 0.384273 0.074777
0.240000 0.383422 0.074267
0.320000 0.382572 0.073757
0.400000 0.381722 0.073246
0.480000 0.380871 0.072736
0.560000 0.380021 0.072226
0.640000 0.379170 0.071716
0.720000 0.378320 0.071205
0.800000 0.377470 0.070695
0.880000 0.376619 0.070185
0.960000 0.375769 0.069675
1.000000 0.374918 0.069165
1.000000 0.374068 0.068654
1.000000 0.373218 0.068144
0.000000 0.451175 0.074347
0.080000 0.450325 0.073837
0.160000 0.449475 0.073326
0.240000 0.448624 0.072816
0.320000 0.447774 0.072306
0.400000 0.446923 0.071796
0.480000 0.446073 0.071285
0.560000 0.445223 0.070775
0.640000 0.444372 0.070265
0.720000 0.443522 0.069755
0.800000 0.442671 0.069244
0.880000 0.441821 0.068734
0.960000 0.440971 0.068224
1.000000 0.440120 0.067714
1.000000 0.439270 0.067203
1.000000 0.438419 0.066693
0.000000 0.517794 0.072864
0.080000 0.516944 0.072354
0.160000 0.516093 0.071844
0.240000 0.515243 0.071334
0.320000 0.514393 0.070823
0.400000 0.513542 0.070313
0.480000 0.512692 0.069803
0.560000 0.511841 0.069293
0.640000 0.510991 0.068782
0.720000 0.510141 0.068272
0.800000 0.509290 0.067762
0.880000 0.508440 0.067252
0.960000 0.507589 0.066742
1.000000 0.506739 0.066231
1.000000 0.505889 0.065721
1.000000 0.505038 0.065211
0.000000 0.585677 0.071354
0.080000 0.584826 0.070844
0.160000 0.583976 0.070333
0.240000 0.583126 0.069823
0.320000 0.582275 0.069313
0.400000 0.581425 0.068803
0.480000 0.580574 0.068292
0.560000 0.579724 0.067782
0.640000 0.578874 0.067272
0.720000 0.578023 0.066762
0.800000 0.577173 0.066251
0.880000 0.576322 0.065741
0.960000 0.575472 0.065231
1.000000 0.574622 0.064721
1.000000 0.573771 0.064211
1.000000 0.572921 0.063700
0.000000 0.654703 0.069818
0.080000 0.653852 0.069308
0.160000 0.653002 0.068797
0.240000 0.652151 0.068287
0.320000 0.651301 0.067777
0.400000 0.650451 0.067267
0.480000 0.649600 0.066757
0.560000 0.648750 0.066246
0.640000 0.647899 0.065736
0.720000 0.647049 0.065226
0.800000 0.646199 0.064716
0.880000 0.645348 0.064205
0.960000 0.644498 0.063695
1.000000 0.643647 0.063185
1.000000 0.642797 0.062675
1.000000 0.641947 0.062164
0.000000 0.724773 0.068259
0.080000 0.723923 0.067749
0.160000 0.723072 0.067238
0.240000 0.722222 0.066728
0.320000 0.721371 0.066218
0.400000 0.720521 0.065708
0.480000 0.719671 0.065197
0.560000 0.718820 0.064687
0.640000 0.717970 0.064177
0.720000 0.717119 0.063667
0.800000 0.716269 0.063156
0.880000 0.715419 0.062646
0.960000 0.714568 0.062136
1.000000 0.713718 0.061626
1.000000 0.712867 0.061115
1.000000 0.712017 0.060605
0.000000 0.795807 0.066678
0.080000 0.794957 0.066168
0.160000 0.794106 0.065658
0.240000 0.793256 0.065147
0.320000 0.792405 0.064637
0.400000 0.791555 0.064127
0.480000 0.790705 0.063617
0.560000 0.789854 0.063106
0.640000 0.789004 0.062596
0.720000 0.788153 0.062086
0.800000 0.787303 0.061576
0.880000 0.786453 0.061065
0.960000 0.785602 0.060555
1.000000 0.784752 0.060045
1.000000 0.783901 0.059535
1.000000 0.783051 0.059025
0.000000 0.867735 0.065078
0.080000 0.866885 0.064567
0.160000 0.866034 0.064057
0.240000 0.865184 0.063547
0.320000 0.864334 0.063037
0.400000 0.863483 0.062526
0.480000 0.862633 0.062016
0.560000 0.861782 0.061506
0.640000 0.860932 0.060996
0.720000 0.860082 0.060485
0.800000 0.859231 0.059975
0.880000 0.858381 0.059465
0.960000 0.857530 0.058955
1.000000 0.856680 0.058444
1.000000 0.855830 0.057934
1.000000 0.854979 0.057424
0.000000 0.940499 0.063458
0.080000 0.939649 0.062948
0.160000 0.938798 0.062438
0.240000 0.937948 0.061928
0.320000 0.937097 0.061418
0.400000 0.936247 0.060907
0.480000 0.935397 0.060397
0.560000 0.934546 0.059887
0.640000 0.933696 0.059377
0.720000 0.932845 0.058866
0.800000 0.931995 0.058356
0.880000 0.931145 0.057846
0.960000 0.930294 0.057336
1.000000 0.929444 0.056825
1.000000 0.928593 0.056315
1.000000 0.927743 0.055805
0.000000 1.000000 0.061822
0.080000 1.000000 0.061312
0.160000 1.000000 0.060801
0.240000 1.000000 0.060291
0.320000 1.000000 0.059781
0.400000 1.000000 0.059271
0.480000 1.000000 0.058760
0.560000 1.000000 0.058250
0.640000 1.000000 0.057740
0.720000 1.000000 0.057230
0.800000 1.000000 0.056720
0.880000 1.000000 0.056209
0.960000 1.000000 0.055699
1.000000 1.000000 0.055189
1.000000 1.000000 0.054679
1.000000 1.000000 0.054168
0.000000 0.049587 0.144204
0.080000 0.048736 0.143693
0.160000 0.047886 0.143183
0.240000 0.047036 0.142673
0.320000 0.046185 0.142163
0.400000 0.045335 0.141653
0.480000 0.044484 0.141142
0.560000 0.043634 0.140632
0.640000 0.042784 0.140122
0.720000 0.041933 0.139612
0.800000 0.041083 0.139101
0.880000 0.040232 0.138591
0.960000 0.039382 0.138081
1.000000 0.038532 0.137571
1.000000 0.037681 0.137060
1.000000 0.036831 0.136550
0.000000 0.092410 0.143251
0.080000 0.091560 0.142741
0.160000 0.090709 0.142230
0.240000 0.089859 0.141720
0.320000 0.089009 0.141210
0.400000 0.088158 0.140700
0.480000 0.087308 0.140189
0.560000 0.086457 0.139679
0.640000 0.085607 0.139169
0.720000 0.084757 0.138659
0.800000 0.083906 0.138148
0.880000 0.083056 0.137638
0.960000 0.082205 0.137128
1.000000 0.081355 0.136618
1.000000 0.080505 0.136107
1.000000 0.079654 0.135597
0.000000 0.144618 0.142089
0.080000 0.143767 0.141579
0.160000 0.142917 0.141069
0.240000 0.142066 0.140558
0.320000 0.141216 0.140048
0.400000 0.140366 0.139538
0.480000 0.139515 0.139028
0.560000 0.138665 0.138517
0.640000 0.137814 0.138007
0.720000 0.136964 0.137497
0.800000 0.136114 0.136987
0.880000 0.135263 0.136476
0.960000 0.134413 0.135966
1.000000 0.133562 0.135456
1.000000 0.132712 0.134946
1.000000 0.131862 0.134436
0.000000 0.201072 0.140833
0.080000 0.200221 0.140323
0.160000 0.199371 0.139812
0.240000 0.198521 0.139302
0.320000 0.197670 0.138792
0.400000 0.196820 0.138282
0.480000 0.195969 0.137771
0.560000 0.195119 0.137261
0.640000 0.194269 0.136751
0.720000 0.193418 0.136241
0.800000 0.192568 0.135731
0.880000 0.191717 0.135220
0.960000 0.190867 0.134710
1.000000 0.190017 0.134200
1.000000 0.189166 0.133690
1.000000 0.188316 0.133179
0.000000 0.260474 0.139511
0.080000 0.259623 0.139001
0.160000 0.258773 0.138491
0.240000 0.257922 0.137980
0.320000 0.257072 0.137470
0.400000 0.256222 0.136960
0.480000 0.255371 0.136450
0.560000 0.254521 0.135939
0.640000 0.253670 0.135429
0.720000 0.252820 0.134919
0.800000 0.251970 0.134409
0.880000 0.251119 0.133898
0.960000 0.250269 0.133388
1.000000 0.249418 0.132878
1.000000 0.248568 0.132368
1.000000 0.247718 0.131858
0.000000 0.322168 0.138138
0.080000 0.321318 0.137628
0.160000 0.320467 0.137118
0.240000 0.319617 0.136608
0.320000 0.318766 0.136097
0.400000 0.317916 0.135587
0.480000 0.317066 0.135077
0.560000 0.316215 0.134567
0.640000 0.315365 0.134056
0.720000 0.314514 0.133546
0.800000 0.313664 0.133036
0.880000 0.312814 0.132526
0.960000 0.311963 0.132015
1.000000 0.311113 0.131505
1.000000 0.310262 0.130995
1.000000 0.309412 0.130485
0.000000 0.385753 0.136723
0.080000 0.384903 0.136213
0.160000 0.384052 0.135703
0.240000 0.383202 0.135193
0.320000 0.382351 0.134682
0.400000 0.381501 0.134172
0.480000 0.380651 0.133662
0.560000 0.379800 0.133152
0.640000 0.378950 0.132642
0.720000 0.378099 0.132131
0.800000 0.377249 0.131621
0.880000 0.376399 0.131111
0.960000 0.375548 0.130601
1.000000 0.374698 0.130090
1.000000 0.373847 0.129580
1.000000 0.372997 0.129070
0.000000 0.450955 0.135273
0.080000 0.450105 0.134762
0.160000 0.449254 0.134252
0.240000 0.448404 0.133742
0.320000 0.447553 0.133232
0.400000 0.446703 0.132721
0.480000 0.445853 0.132211
0.560000 0.445002 0.131701
0.640000 0.444152 0.131191
0.720000 0.443301 0.130680
0.800000 0.442451 0.130170
0.880000 0.441601 0.129660
0.960000 0.440750 0.129150
1.000000 0.439900 0.128639
1.000000 0.439049 0.128129
1.000000 0.438199 0.127619
0.000000 0.517574 0.133790
0.080000 0.516723 0.133280
0.160000 0.515873 0.132770
0.240000 0.515023 0.132259
0.320000 0.514172 0.131749
0.400000 0.513322 0.131239
0.480000 0.512471 0.130729
0.560000 0.511621 0.130219
0.640000 0.510771 0.129708
0.720000 0.509920 0.129198
0.800000 0.509070 0.128688
0.880000 0.508219 0.128178
0.960000 0.507369 0.127667
1.000000 0.506519 0.127157
1.000000 0.505668 0.126647
1.000000 0.504818 0.126137
0.000000 0.585456 0.132280
0.080000 0.584606 0.131769
0.160000 0.583756 0.131259
0.240000 0.582905 0.130749
0.320000 0.582055 0.130239
0.400000 0.581204 0.129728
0.480000 0.580354 0.129218
0.560000 0.579504 0.128708
0.640000 0.578653 0.128198
0.720000 0.577803 0.127688
0.800000 0.576952 0.127177
0.880000 0.576102 0.126667
0.960000 0.575252 0.126157
1.000000 0.574401 0.125647
1.000000 0.573551 0.125136
1.000000 0.572700 0.124626
0.000000 0.654482 0.130744
0.080000 0.653632 0.130234
0.160000 0.652781 0.129723
0.240000 0.651931 0.129213
0.320000 0.651081 0.128703
0.400000 0.650230 0.128193
0.480000 0.649380 0.127682
0.560000 0.648529 0.127172
0.640000 0.647679 0.126662
0.720000 0.646829 0.126152
0.800000 0.645978 0.125641
0.880000 0.645128 0.125131
0.960000 0.644277 0.124621
1.000000 0.643427 0.124111
1.000000 0.642577 0.123600
1.000000 0.641726 0.123090
0.000000 0.724553 0.129185
0.080000 0.723702 0.128674
0.160000 0.722852 0.128164
0.240000 0.722001 0.127654
0.320000 0.721151 0.127144
0.400000 0.720301 0.126633
0.480000 0.719450 0.126123
0.560000 0.718600 0.125613
0.640000 0.717749 0.125103
0.720000 0.716899 0.124592
0.800000 0.716049 0.124082
0.880000 0.715198 0.123572
0.960000 0.714348 0.123062
1.000000 0.713497 0.122551
1.000000 0.712647 0.122041
1.000000 0.711797 0.121531
0.000000 0.795586 0.127604
0.080000 0.794736 0.127094
0.160000 0.793886 0.126583
0.240000 0.793035 0.126073
0.320000 0.792185 0.125563
0.400000 0.791334 0.125053
0.480000 0.790484 0.124542
0.560000 0.789634 0.124032
0.640000 0.788783 0.123522
0.720000 0.787933 0.123012
0.800000 0.787082 0.122502
0.880000 0.786232 0.121991
0.960000 0.785382 0.121481
1.000000 0.784531 0.120971
1.000000 0.783681 0.120461
1.000000 0.782830 0.119950
0.000000 0.867515 0.126003
0.080000 0.866664 0.125493
0.160000 0.865814 0.124983
0.240000 0.864964 0.124473
0.320000 0.864113 0.123962
0.400000 0.863263 0.123452
0.480000 0.862412 0.122942
0.560000 0.861562 0.122432
0.640000 0.860712 0.121921
0.720000 0.859861 0.121411
0.800000 0.859011 0.120901
0.880000 0.858160 0.120391
0.960000 0.857310 0.119881
1.000000 0.856460 0.119370
1.000000 0.855609 0.118860
1.000000 0.854759 0.118350
0.000000 0.940279 0.124384
0.080000 0.939428 0.123874
0.160000 0.938578 0.123364
0.240000 0.937727 0.122854
0.320000 0.936877 0.122343
0.400000 0.936027 0.121833
0.480000 0.935176 0.121323
0.560000 0.934326 0.120813
0.640000 0.933475 0.120302
0.720000 0.932625 0.119792
0.800000 0.931775 0.119282
0.880000 0.930924 0.118772
0.960000 0.930074 0.118261
1.000000 0.929223 0.117751
1.000000 0.928373 0.117241
1.000000 0.927523 0.116731
0.000000 1.000000 0.122748
0.080000 1.000000 0.122237
0.160000 1.000000 0.121727
0.240000 1.000000 0.121217
0.320000 1.000000 0.120707
0.400000 1.000000 0.120197
0.480000 1.000000 0.119686
0.560000 1.000000 0.119176
0.640000 1.000000 0.118666
0.720000 1.000000 0.118156
0.800000 1.000000 0.117645
0.880000 1.000000 0.117135
0.960000 1.000000 0.116625
1.000000 1.000000 0.116115
1.000000 1.000000 0.115604
1.000000 1.000000 0.115094
0.000000 0.049355 0.208394
0.080000 0.048504 0.207884
0.160000 0.047654 0.207374
0.240000 0.046803 0.206863
0.320000 0.045953 0.206353
0.400000 0.045103 0.205843
0.480000 0.044252 0.205333
0.560000 0.043402 0.204822
0.640000 0.042551 0.204312
0.720000 0.041701 0.203802
0.800000 0.040851 0.203292
0.880000 0.040000 0.202782
0.960000 0.039150 0.202271
1.000000 0.038299 0.201761
1.000000 0.037449 0.201251
1.000000 0.036599 0.200741
0.000000 0.092178 0.207441
0.080000 0.091328 0.206931
0.160000 0.090477 0.206421
0.240000 0.089627 0.205911
0.320000 0.088776 0.205400
0.400000 0.087926 0.204890
0.480000 0.087076 0.204380
0.560000 0.086225 0.203870
0.640000 0.085375 0.203359
0.720000 0.084524 0.202849
0.800000 0.083674 0.202339
0.880000 0.082824 0.201829
0.960000 0.081973 0.201318
1.000000 0.081123 0.200808
1.000000 0.080272 0.200298
1.000000 0.079422 0.199788
0.000000 0.144385 0.206280
0.080000 0.143535 0.205769
0.160000 0.142685 0.205259
0.240000 0.141834 0.204749
0.320000 0.140984 0.204239
0.400000 0.140133 0.203728
0.480000 0.139283 0.203218
0.560000 0.138433 0.202708
0.640000 0.137582 0.202198
0.720000 0.136732 0.201687
0.800000 0.135881 0.201177
0.880000 0.135031 0.200667
0.960000 0.134181 0.200157
1.000000 0.133330 0.199646
1.000000 0.132480 0.199136
1.000000 0.131629 0.198626
0.000000 0.200840 0.205023
0.080000 0.199989 0.204513
0.160000 0.199139 0.204003
0.240000 0.198288 0.203493
0.320000 0.197438 0.202982
0.400000 0.196588 0.202472
0.480000 0.195737 0.201962
0.560000 0.194887 0.201452
0.640000 0.194036 0.200941
0.720000 0.193186 0.200431
0.800000 0.192336 0.199921
0.880000 0.191485 0.199411
0.960000 0.190635 0.198900
1.000000 0.189784 0.198390
1.000000 0.188934 0.197880
1.000000 0.188084 0.197370
0.000000 0.260241 0.203702
0.080000 0.259391 0.203191
0.160000 0.258540 0.202681
0.240000 0.257690 0.202171
0.320000 0.256840 0.201661
0.400000 0.255989 0.201150
0.480000 0.255139 0.200640
0.560000 0.254288 0.200130
0.640000 0.253438 0.199620
0.720000 0.252588 0.199109
0.800000 0.251737 0.198599
0.880000 0.250887 0.198089
0.960000 0.250036 0.197579
1.000000 0.249186 0.197068
1.000000 0.248336 0.196558
1.000000 0.247485 0.196048
0.000000 0.321936 0.202329
0.080000 0.321085 0.201819
0.160000 0.320235 0.201308
0.240000 0.319384 0.200798
0.320000 0.318534 0.200288
0.400000 0.317684 0.199778
0.480000 0.316833 0.199267
0.560000 0.315983 0.198757
0.640000 0.315132 0.198247
0.720000 0.314282 0.197737
0.800000 0.313432 0.197226
0.880000 0.312581 0.196716
0.960000 0.311731 0.196206
1.000000 0.310880 0.195696
1.000000 0.310030 0.195185
1.000000 0.309180 0.194675
0.000000 0.385521 0.200914
0.080000 0.384670 0.200404
0.160000 0.383820 0.199893
0.240000 0.382970 0.199383
0.320000 0.382119 0.198873
0.400000 0.381269 0.198363
0.480000 0.380418 0.197852
0.560000 0.379568 0.197342
0.640000 0.378718 0.196832
0.720000 0.377867 0.196322
0.800000 0.377017 0.195811
0.880000 0.376166 0.195301
0.960000 0.375316 0.194791
1.000000 0.374466 0.194281
1.000000 0.373615 0.193771
1.000000 0.372765 0.193260
0.000000 0.450723 0.199463
0.080000 0.449872 0.198953
0.160000 0.449022 0.198443
0.240000 0.448172 0.197932
0.320000 0.447321 0.197422
0.400000 0.446471 0.196912
0.480000 0.445620 0.196402
