assets/luts/fuji_eternal.cube
TITLE "Fujifilm Eternal Style"
LUT_3D_SIZE 6
0.000000 0.050000 0.030000
0.240000 0.047449 0.028469
0.480000 0.044898 0.026939
0.720000 0.042346 0.025408
0.960000 0.039795 0.023877
1.000000 0.037244 0.022346
0.000000 0.201485 0.026629
0.240000 0.198934 0.025098
0.480000 0.196383 0.023568
0.720000 0.193831 0.022037
0.960000 0.191280 0.020506
1.000000 0.188729 0.018976
0.000000 0.386166 0.022520
0.240000 0.383615 0.020989
0.480000 0.381064 0.019458
0.720000 0.378513 0.017928
0.960000 0.375961 0.016397
1.000000 0.373410 0.014866
0.000000 0.585870 0.018076
0.240000 0.583318 0.016545
0.480000 0.580767 0.015015
0.720000 0.578216 0.013484
0.960000 0.575665 0.011953
1.000000 0.573114 0.010422
0.000000 0.796000 0.013400
0.240000 0.793448 0.011870
0.480000 0.790897 0.010339
0.720000 0.788346 0.008808
0.960000 0.785795 0.007277
1.000000 0.783244 0.005747
0.000000 1.000000 0.008544
0.240000 1.000000 0.007013
0.480000 1.000000 0.005483
0.720000 1.000000 0.003952
0.960000 1.000000 0.002421
1.000000 1.000000 0.000890
0.000000 0.049355 0.208394
0.240000 0.046803 0.206863
0.480000 0.044252 0.205333
0.720000 0.041701 0.203802
0.960000 0.039150 0.202271
1.000000 0.036599 0.200741
0.000000 0.200840 0.205023
0.240000 0.198288 0.203493
0.480000 0.195737 0.201962
0.720000 0.193186 0.200431
0.960000 0.190635 0.198900
1.000000 0.188084 0.197370
0.000000 0.385521 0.200914
0.240000 0.382970 0.199383
0.480000 0.380418 0.197852
0.720000 0.377867 0.196322
0.960000 0.375316 0.194791
1.000000 0.372765 0.193260
0.000000 0.585224 0.196470
0.240000 0.582673 0.194939
0.480000 0.580122 0.193409
0.720000 0.577571 0.191878
0.960000 0.575019 0.190347
1.000000 0.572468 0.188817
0.000000 0.795354 0.191794
0.240000 0.792803 0.190264
0.480000 0.790252 0.188733
0.720000 0.787701 0.187202
0.960000 0.785149 0.185671
1.000000 0.782598 0.184141
0.000000 1.000000 0.186938
0.240000 1.000000 0.185407
0.480000 1.000000 0.183877
0.720000 1.000000 0.182346
0.960000 1.000000 0.180815
1.000000 1.000000 0.179285
0.000000 0.048617 0.412396
0.240000 0.046065 0.410865
0.480000 0.043514 0.409335
0.720000 0.040963 0.407804
0.960000 0.038412 0.406273
1.000000 0.035861 0.404743
0.000000 0.200102 0.409025
0.240000 0.197550 0.407495
0.480000 0.194999 0.405964
0.720000 0.192448 0.404433
0.960000 0.189897 0.402903
1.000000 0.187346 0.401372
0.000000 0.384783 0.404916
0.240000 0.382232 0.403385
0.480000 0.379680 0.401854
0.720000 0.377129 0.400324
0.960000 0.374578 0.398793
1.000000 0.372027 0.397262
0.000000 0.584486 0.400472
0.240000 0.581935 0.398941
0.480000 0.579384 0.397411
0.720000 0.576833 0.395880
0.960000 0.574281 0.394349
1.000000 0.571730 0.392819
0.000000 0.794616 0.395796
0.240000 0.792065 0.394266
0.480000 0.789514 0.392735
0.720000 0.786963 0.391204
0.960000 0.784411 0.389674
1.000000 0.781860 0.388143
0.000000 1.000000 0.390940
0.240000 1.000000 0.389409
0.480000 1.000000 0.387879
0.720000 1.000000 0.386348
0.960000 1.000000 0.384817
1.000000 1.000000 0.383287
0.000000 0.047839 0.627330
0.240000 0.045288 0.625799
0.480000 0.042737 0.624268
0.720000 0.040185 0.622737
0.960000 0.037634 0.621207
1.000000 0.035083 0.619676
0.000000 0.199324 0.623959
0.240000 0.196773 0.622428
0.480000 0.194222 0.620897
0.720000 0.191670 0.619367
0.960000 0.189119 0.617836
1.000000 0.186568 0.616305
0.000000 0.384005 0.619849
0.240000 0.381454 0.618319
0.480000 0.378903 0.616788
0.720000 0.376352 0.615257
0.960000 0.373800 0.613726
1.000000 0.371249 0.612196
0.000000 0.583709 0.615405
0.240000 0.581157 0.613875
0.480000 0.578606 0.612344
0.720000 0.576055 0.610813
0.960000 0.573504 0.609283
1.000000 0.570953 0.607752
0.000000 0.793839 0.610730
0.240000 0.791287 0.609199
0.480000 0.788736 0.607668
0.720000 0.786185 0.606138
0.960000 0.783634 0.604607
1.000000 0.781083 0.603076
0.000000 1.000000 0.605874
0.240000 1.000000 0.604343
0.480000 1.000000 0.602812
0.720000 1.000000 0.601281
0.960000 1.000000 0.599751
1.000000 0.999323 0.598220
0.000000 0.047035 0.849684
0.240000 0.044483 0.848154
0.480000 0.041932 0.846623
0.720000 0.039381 0.845092
0.960000 0.036830 0.843561
1.000000 0.034279 0.842031
0.000000 0.198520 0.846313
0.240000 0.195968 0.844783
0.480000 0.193417 0.843252
0.720000 0.190866 0.841721
0.960000 0.188315 0.840191
1.000000 0.185764 0.838660
0.000000 0.383201 0.842204
0.240000 0.380650 0.840673
0.480000 0.378098 0.839143
0.720000 0.375547 0.837612
0.960000 0.372996 0.836081
1.000000 0.370445 0.834550
0.000000 0.582904 0.837760
0.240000 0.580353 0.836229
0.480000 0.577802 0.834699
0.720000 0.575250 0.833168
0.960000 0.572699 0.831637
1.000000 0.570148 0.830107
0.000000 0.793034 0.833084
0.240000 0.790483 0.831554
0.480000 0.787932 0.830023
0.720000 0.785381 0.828492
0.960000 0.782829 0.826962
1.000000 0.780278 0.825431
0.000000 1.000000 0.828228
0.240000 1.000000 0.826698
0.480000 1.000000 0.825167
0.720000 1.000000 0.823636
0.960000 1.000000 0.822105
1.000000 0.998519 0.820575
0.000000 0.046210 1.000000
0.240000 0.043658 1.000000
0.480000 0.041107 1.000000
0.720000 0.038556 1.000000
0.960000 0.036005 1.000000
1.000000 0.033454 1.000000
0.000000 0.197695 1.000000
0.240000 0.195143 1.000000
0.480000 0.192592 1.000000
0.720000 0.190041 1.000000
0.960000 0.187490 1.000000
1.000000 0.184939 1.000000
0.000000 0.382376 1.000000
0.240000 0.379825 1.000000
0.480000 0.377273 1.000000
0.720000 0.374722 1.000000
0.960000 0.372171 1.000000
1.000000 0.369620 1.000000
0.000000 0.582079 1.000000
0.240000 0.579528 1.000000
0.480000 0.576977 1.000000
0.720000 0.574425 1.000000
0.960000 0.571874 1.000000
1.000000 0.569323 1.000000
0.000000 0.792209 1.000000
0.240000 0.789658 1.000000
0.480000 0.787107 1.000000
0.720000 0.784556 1.000000
0.960000 0.782004 1.000000
1.000000 0.779453 1.000000
0.000000 1.000000 1.000000
0.240000 1.000000 1.000000
0.480000 1.000000 1.000000
0.720000 1.000000 1.000000
0.960000 1.000000 1.000000
1.000000 0.997694 1.000000
