assets/luts/kodak_vision3.cube
TITLE "Kodak Vision3 500T Style"
LUT_3D_SIZE 6
0.000000 0.020000 0.050000
0.172813 0.019265 0.048163
0.383497 0.018369 0.045923
0.611317 0.017401 0.043502
0.851033 0.016381 0.040954
1.000000 0.015323 0.038307
0.000000 0.187832 0.043911
0.172813 0.187098 0.042074
0.383497 0.186202 0.039835
0.611317 0.185233 0.037413
0.851033 0.184214 0.034865
1.000000 0.183155 0.032218
0.000000 0.379757 0.036948
0.172813 0.379022 0.035111
0.383497 0.378126 0.032872
0.611317 0.377157 0.030450
0.851033 0.376138 0.027902
1.000000 0.375080 0.025255
0.000000 0.581965 0.029613
0.172813 0.581230 0.027775
0.383497 0.580335 0.025536
0.611317 0.579366 0.023114
0.851033 0.578347 0.020566
1.000000 0.577288 0.017920
0.000000 0.791156 0.022023
0.172813 0.790421 0.020186
0.383497 0.789525 0.017947
0.611317 0.788556 0.015525
0.851033 0.787537 0.012977
1.000000 0.786478 0.010330
0.000000 1.000000 0.014240
0.172813 1.000000 0.012403
0.383497 1.000000 0.010163
0.611317 1.000000 0.007742
0.851033 1.000000 0.005194
1.000000 1.000000 0.002547
0.000000 0.019747 0.224676
0.172813 0.019012 0.222839
0.383497 0.018116 0.220600
0.611317 0.017148 0.218178
0.851033 0.016128 0.215630
1.000000 0.015070 0.212983
0.000000 0.187579 0.218588
0.172813 0.186845 0.216751
0.383497 0.185949 0.214511
0.611317 0.184980 0.212089
0.851033 0.183961 0.209541
1.000000 0.182902 0.206895
0.000000 0.379504 0.211625
0.172813 0.378769 0.209788
0.383497 0.377873 0.207548
0.611317 0.376904 0.205127
0.851033 0.375885 0.202578
1.000000 0.374826 0.199932
0.000000 0.581712 0.204289
0.172813 0.580977 0.202452
0.383497 0.580081 0.200212
0.611317 0.579113 0.197791
0.851033 0.578093 0.195243
1.000000 0.577035 0.192596
0.000000 0.790902 0.196700
0.172813 0.790168 0.194863
0.383497 0.789272 0.192623
0.611317 0.788303 0.190201
0.851033 0.787284 0.187653
1.000000 0.786225 0.185007
0.000000 1.000000 0.188916
0.172813 1.000000 0.187079
0.383497 1.000000 0.184840
0.611317 1.000000 0.182418
0.851033 1.000000 0.179870
1.000000 1.000000 0.177223
0.000000 0.019476 0.411673
0.172813 0.018741 0.409836
0.383497 0.017845 0.407596
0.611317 0.016877 0.405175
0.851033 0.015857 0.402626
1.000000 0.014799 0.399980
0.000000 0.187308 0.405584
0.172813 0.186574 0.403747
0.383497 0.185678 0.401508
0.611317 0.184709 0.399086
0.851033 0.183690 0.396538
1.000000 0.182631 0.393891
0.000000 0.379233 0.398621
0.172813 0.378498 0.396784
0.383497 0.377602 0.394545
0.611317 0.376633 0.392123
0.851033 0.375614 0.389575
1.000000 0.374555 0.386928
0.000000 0.581441 0.391285
0.172813 0.580706 0.389448
0.383497 0.579810 0.387209
0.611317 0.578842 0.384787
0.851033 0.577822 0.382239
1.000000 0.576764 0.379592
0.000000 0.790631 0.383696
0.172813 0.789897 0.381859
0.383497 0.789001 0.379620
0.611317 0.788032 0.377198
0.851033 0.787013 0.374650
1.000000 0.785954 0.372003
0.000000 1.000000 0.375913
0.172813 1.000000 0.374076
0.383497 1.000000 0.371836
0.611317 1.000000 0.369415
0.851033 1.000000 0.366866
1.000000 1.000000 0.364220
0.000000 0.019198 0.603620
0.172813 0.018463 0.601783
0.383497 0.017567 0.599543
0.611317 0.016598 0.597122
0.851033 0.015579 0.594574
1.000000 0.014520 0.591927
0.000000 0.187030 0.597531
0.172813 0.186295 0.595694
0.383497 0.185400 0.593455
0.611317 0.184431 0.591033
0.851033 0.183412 0.588485
1.000000 0.182353 0.585838
0.000000 0.378954 0.590568
0.172813 0.378220 0.588731
0.383497 0.377324 0.586492
0.611317 0.376355 0.584070
0.851033 0.375336 0.581522
1.000000 0.374277 0.578875
0.000000 0.581163 0.583233
0.172813 0.580428 0.581396
0.383497 0.579532 0.579156
0.611317 0.578563 0.576734
0.851033 0.577544 0.574186
1.000000 0.576486 0.571540
0.000000 0.790353 0.575643
0.172813 0.789618 0.573806
0.383497 0.788723 0.571567
0.611317 0.787754 0.569145
0.851033 0.786735 0.566597
1.000000 0.785676 0.563950
0.000000 1.000000 0.567860
0.172813 1.000000 0.566023
0.383497 1.000000 0.563783
0.611317 1.000000 0.561362
0.851033 1.000000 0.558814
1.000000 1.000000 0.556167
0.000000 0.018915 0.798855
0.172813 0.018180 0.797018
0.383497 0.017284 0.794778
0.611317 0.016315 0.792356
0.851033 0.015296 0.789808
1.000000 0.014238 0.787162
0.000000 0.186747 0.792766
0.172813 0.186012 0.790929
0.383497 0.185117 0.788689
0.611317 0.184148 0.786267
0.851033 0.183129 0.783719
1.000000 0.182070 0.781073
0.000000 0.378672 0.785803
0.172813 0.377937 0.783966
0.383497 0.377041 0.781726
0.611317 0.376072 0.779305
0.851033 0.375053 0.776756
1.000000 0.373994 0.774110
0.000000 0.580880 0.778467
0.172813 0.580145 0.776630
0.383497 0.579249 0.774390
0.611317 0.578281 0.771969
0.851033 0.577261 0.769421
1.000000 0.576203 0.766774
0.000000 0.790070 0.770878
0.172813 0.789335 0.769041
0.383497 0.788440 0.766801
0.611317 0.787471 0.764380
0.851033 0.786452 0.761831
1.000000 0.785393 0.759185
0.000000 1.000000 0.763095
0.172813 1.000000 0.761258
0.383497 1.000000 0.759018
0.611317 1.000000 0.756596
0.851033 1.000000 0.754048
1.000000 0.999934 0.751402
0.000000 0.018628 0.996570
0.172813 0.017893 0.994733
0.383497 0.016998 0.992494
0.611317 0.016029 0.990072
0.851033 0.015010 0.987524
1.000000 0.013951 0.984877
0.000000 0.186461 0.990482
0.172813 0.185726 0.988645
0.383497 0.184830 0.986405
0.611317 0.183861 0.983983
0.851033 0.182842 0.981435
1.000000 0.181783 0.978789
0.000000 0.378385 0.983519
0.172813 0.377650 0.981682
0.383497 0.376754 0.979442
0.611317 0.375786 0.977021
0.851033 0.374766 0.974472
1.000000 0.373708 0.971826
0.000000 0.580593 0.976183
0.172813 0.579859 0.974346
0.383497 0.578963 0.972106
0.611317 0.577994 0.969685
0.851033 0.576975 0.967137
1.000000 0.575916 0.964490
0.000000 0.789784 0.968594
0.172813 0.789049 0.966757
0.383497 0.788153 0.964517
0.611317 0.787184 0.962095
0.851033 0.786165 0.959547
1.000000 0.785107 0.956901
0.000000 1.000000 0.960811
0.172813 1.000000 0.958973
0.383497 1.000000 0.956734
0.611317 1.000000 0.954312
0.851033 1.000000 0.951764
1.000000 0.999647 0.949117
