assets/luts/kodak_vision3.cube
TITLE "Kodak Vision3 500T Style"
LUT_3D_SIZE 16
0.000000 0.020000 0.050000
0.048853 0.019792 0.049481
0.108411 0.019539 0.048848
0.172813 0.019265 0.048163
0.240578 0.018977 0.047443
0.310959 0.018678 0.046695
0.383497 0.018369 0.045923
0.457879 0.018053 0.045133
0.533877 0.017730 0.044325
0.611317 0.017401 0.043502
0.690061 0.017066 0.042665
0.769998 0.016726 0.041815
0.851033 0.016381 0.040954
0.933088 0.016033 0.040081
1.000000 0.015680 0.039199
1.000000 0.015323 0.038307
0.000000 0.070124 0.048182
0.048853 0.069916 0.047662
0.108411 0.069663 0.047029
0.172813 0.069389 0.046345
0.240578 0.069101 0.045624
0.310959 0.068801 0.044876
0.383497 0.068493 0.044105
0.457879 0.068177 0.043314
0.533877 0.067854 0.042506
0.611317 0.067524 0.041683
0.690061 0.067189 0.040846
0.769998 0.066850 0.039996
0.851033 0.066505 0.039135
0.933088 0.066156 0.038263
1.000000 0.065803 0.037380
1.000000 0.065446 0.036489
0.000000 0.127442 0.046102
0.048853 0.127235 0.045583
0.108411 0.126981 0.044950
0.172813 0.126708 0.044265
0.240578 0.126419 0.043545
0.310959 0.126120 0.042797
0.383497 0.125812 0.042026
0.457879 0.125495 0.041235
0.533877 0.125172 0.040427
0.611317 0.124843 0.039604
0.690061 0.124508 0.038767
0.769998 0.124168 0.037917
0.851033 0.123824 0.037056
0.933088 0.123475 0.036183
1.000000 0.123122 0.035301
1.000000 0.122765 0.034409
0.000000 0.187832 0.043911
0.048853 0.187625 0.043392
0.108411 0.187372 0.042759
0.172813 0.187098 0.042074
0.240578 0.186810 0.041354
0.310959 0.186510 0.040606
0.383497 0.186202 0.039835
0.457879 0.185886 0.039044
0.533877 0.185562 0.038236
0.611317 0.185233 0.037413
0.690061 0.184898 0.036576
0.769998 0.184558 0.035726
0.851033 0.184214 0.034865
0.933088 0.183865 0.033992
1.000000 0.183512 0.033110
1.000000 0.183155 0.032218
0.000000 0.250308 0.041645
0.048853 0.250100 0.041125
0.108411 0.249847 0.040492
0.172813 0.249573 0.039808
0.240578 0.249285 0.039087
0.310959 0.248986 0.038339
0.383497 0.248677 0.037568
0.457879 0.248361 0.036777
0.533877 0.248038 0.035970
0.611317 0.247708 0.035146
0.690061 0.247374 0.034309
0.769998 0.247034 0.033460
0.851033 0.246689 0.032598
0.933088 0.246340 0.031726
1.000000 0.245987 0.030844
1.000000 0.245631 0.029952
0.000000 0.314381 0.039320
0.048853 0.314173 0.038801
0.108411 0.313920 0.038168
0.172813 0.313646 0.037483
0.240578 0.313358 0.036763
0.310959 0.313059 0.036015
0.383497 0.312750 0.035244
0.457879 0.312434 0.034453
0.533877 0.312111 0.033645
0.611317 0.311782 0.032822
0.690061 0.311447 0.031985
0.769998 0.311107 0.031135
0.851033 0.310762 0.030274
0.933088 0.310413 0.029401
1.000000 0.310060 0.028519
1.000000 0.309704 0.027627
0.000000 0.379757 0.036948
0.048853 0.379549 0.036429
0.108411 0.379296 0.035796
0.172813 0.379022 0.035111
0.240578 0.378734 0.034391
0.310959 0.378435 0.033643
0.383497 0.378126 0.032872
0.457879 0.377810 0.032081
0.533877 0.377487 0.031273
0.611317 0.377157 0.030450
0.690061 0.376823 0.029613
0.769998 0.376483 0.028763
0.851033 0.376138 0.027902
0.933088 0.375789 0.027030
1.000000 0.375436 0.026147
1.000000 0.375080 0.025255
0.000000 0.446236 0.034537
0.048853 0.446029 0.034017
0.108411 0.445775 0.033384
0.172813 0.445502 0.032700
0.240578 0.445213 0.031979
0.310959 0.444914 0.031231
0.383497 0.444606 0.030460
0.457879 0.444289 0.029669
0.533877 0.443966 0.028861
0.611317 0.443637 0.028038
0.690061 0.443302 0.027201
0.769998 0.442962 0.026352
0.851033 0.442618 0.025490
0.933088 0.442269 0.024618
1.000000 0.441916 0.023735
1.000000 0.441559 0.022844
0.000000 0.513676 0.032090
0.048853 0.513468 0.031571
0.108411 0.513215 0.030938
0.172813 0.512941 0.030253
0.240578 0.512653 0.029533
0.310959 0.512353 0.028784
0.383497 0.512045 0.028013
0.457879 0.511729 0.027223
0.533877 0.511405 0.026415
0.611317 0.511076 0.025592
0.690061 0.510741 0.024755
0.769998 0.510401 0.023905
0.851033 0.510057 0.023044
0.933088 0.509708 0.022171
1.000000 0.509355 0.021289
1.000000 0.508998 0.020397
0.000000 0.581965 0.029613
0.048853 0.581757 0.029093
0.108411 0.581504 0.028460
0.172813 0.581230 0.027775
0.240578 0.580942 0.027055
0.310959 0.580643 0.026307
0.383497 0.580335 0.025536
0.457879 0.580018 0.024745
0.533877 0.579695 0.023937
0.611317 0.579366 0.023114
0.690061 0.579031 0.022277
0.769998 0.578691 0.021427
0.851033 0.578347 0.020566
0.933088 0.577998 0.019694
1.000000 0.577645 0.018811
1.000000 0.577288 0.017920
0.000000 0.651019 0.027107
0.048853 0.650812 0.026588
0.108411 0.650558 0.025955
0.172813 0.650284 0.025270
0.240578 0.649996 0.024550
0.310959 0.649697 0.023802
0.383497 0.649389 0.023031
0.457879 0.649072 0.022240
0.533877 0.648749 0.021432
0.611317 0.648420 0.020609
0.690061 0.648085 0.019772
0.769998 0.647745 0.018922
0.851033 0.647401 0.018061
0.933088 0.647052 0.017189
1.000000 0.646699 0.016306
1.000000 0.646342 0.015414
0.000000 0.720768 0.024577
0.048853 0.720561 0.024058
0.108411 0.720308 0.023424
0.172813 0.720034 0.022740
0.240578 0.719746 0.022020
0.310959 0.719446 0.021271
0.383497 0.719138 0.020500
0.457879 0.718822 0.019710
0.533877 0.718498 0.018902
0.611317 0.718169 0.018079
0.690061 0.717834 0.017242
0.769998 0.717494 0.016392
0.851033 0.717150 0.015530
0.933088 0.716801 0.014658
1.000000 0.716448 0.013776
1.000000 0.716091 0.012884
0.000000 0.791156 0.022023
0.048853 0.790948 0.021504
0.108411 0.790695 0.020871
0.172813 0.790421 0.020186
0.240578 0.790133 0.019466
0.310959 0.789833 0.018718
0.383497 0.789525 0.017947
0.457879 0.789209 0.017156
0.533877 0.788885 0.016348
0.611317 0.788556 0.015525
0.690061 0.788221 0.014688
0.769998 0.787882 0.013838
0.851033 0.787537 0.012977
0.933088 0.787188 0.012105
1.000000 0.786835 0.011222
1.000000 0.786478 0.010330
0.000000 0.862132 0.019448
0.048853 0.861925 0.018929
0.108411 0.861671 0.018296
0.172813 0.861397 0.017611
0.240578 0.861109 0.016891
0.310959 0.860810 0.016143
0.383497 0.860502 0.015372
0.457879 0.860185 0.014581
0.533877 0.859862 0.013773
0.611317 0.859533 0.012950
0.690061 0.859198 0.012113
0.769998 0.858858 0.011263
0.851033 0.858514 0.010402
0.933088 0.858165 0.009530
1.000000 0.857812 0.008647
1.000000 0.857455 0.007755
0.000000 0.933658 0.016853
0.048853 0.933450 0.016334
0.108411 0.933197 0.015701
0.172813 0.932923 0.015016
0.240578 0.932635 0.014296
0.310959 0.932335 0.013548
0.383497 0.932027 0.012777
0.457879 0.931711 0.011986
0.533877 0.931388 0.011178
0.611317 0.931058 0.010355
0.690061 0.930723 0.009518
0.769998 0.930384 0.008668
0.851033 0.930039 0.007807
0.933088 0.929690 0.006935
1.000000 0.929337 0.006052
1.000000 0.928980 0.005160
0.000000 1.000000 0.014240
0.048853 1.000000 0.013721
0.108411 1.000000 0.013088
0.172813 1.000000 0.012403
0.240578 1.000000 0.011683
0.310959 1.000000 0.010935
0.383497 1.000000 0.010163
0.457879 1.000000 0.009373
0.533877 1.000000 0.008565
0.611317 1.000000 0.007742
0.690061 1.000000 0.006905
0.769998 1.000000 0.006055
0.851033 1.000000 0.005194
0.933088 1.000000 0.004321
1.000000 1.000000 0.003439
1.000000 1.000000 0.002547
0.000000 0.019920 0.105113
0.048853 0.019712 0.104594
0.108411 0.019459 0.103961
0.172813 0.019185 0.103276
0.240578 0.018897 0.102556
0.310959 0.018598 0.101808
0.383497 0.018289 0.101037
0.457879 0.017973 0.100246
0.533877 0.017650 0.099438
0.611317 0.017321 0.098615
0.690061 0.016986 0.097778
0.769998 0.016646 0.096928
0.851033 0.016302 0.096067
0.933088 0.015953 0.095195
1.000000 0.015600 0.094312
1.000000 0.015243 0.093420
0.000000 0.070044 0.103295
0.048853 0.069836 0.102776
0.108411 0.069583 0.102143
0.172813 0.069309 0.101458
0.240578 0.069021 0.100738
0.310959 0.068722 0.099989
0.383497 0.068413 0.099218
0.457879 0.068097 0.098428
0.533877 0.067774 0.097620
0.611317 0.067444 0.096797
0.690061 0.067110 0.095960
0.769998 0.066770 0.095110
0.851033 0.066425 0.094248
0.933088 0.066076 0.093376
1.000000 0.065723 0.092494
1.000000 0.065367 0.091602
0.000000 0.127363 0.101215
0.048853 0.127155 0.100696
0.108411 0.126902 0.100063
0.172813 0.126628 0.099378
0.240578 0.126340 0.098658
0.310959 0.126040 0.097910
0.383497 0.125732 0.097139
0.457879 0.125416 0.096348
0.533877 0.125092 0.095540
0.611317 0.124763 0.094717
0.690061 0.124428 0.093880
0.769998 0.124088 0.093030
0.851033 0.123744 0.092169
0.933088 0.123395 0.091297
1.000000 0.123042 0.090414
1.000000 0.122685 0.089522
0.000000 0.187753 0.099025
0.048853 0.187545 0.098505
0.108411 0.187292 0.097872
0.172813 0.187018 0.097188
0.240578 0.186730 0.096467
0.310959 0.186430 0.095719
0.383497 0.186122 0.094948
0.457879 0.185806 0.094157
0.533877 0.185483 0.093349
0.611317 0.185153 0.092526
0.690061 0.184818 0.091689
0.769998 0.184479 0.090840
0.851033 0.184134 0.089978
0.933088 0.183785 0.089106
1.000000 0.183432 0.088224
1.000000 0.183075 0.087332
0.000000 0.250228 0.096758
0.048853 0.250020 0.096239
0.108411 0.249767 0.095606
0.172813 0.249493 0.094921
0.240578 0.249205 0.094201
0.310959 0.248906 0.093453
0.383497 0.248597 0.092682
0.457879 0.248281 0.091891
0.533877 0.247958 0.091083
0.611317 0.247629 0.090260
0.690061 0.247294 0.089423
0.769998 0.246954 0.088573
0.851033 0.246609 0.087712
0.933088 0.246260 0.086839
1.000000 0.245907 0.085957
1.000000 0.245551 0.085065
0.000000 0.314301 0.094434
0.048853 0.314093 0.093914
0.108411 0.313840 0.093281
0.172813 0.313566 0.092597
0.240578 0.313278 0.091876
0.310959 0.312979 0.091128
0.383497 0.312670 0.090357
0.457879 0.312354 0.089566
0.533877 0.312031 0.088758
0.611317 0.311702 0.087935
0.690061 0.311367 0.087098
0.769998 0.311027 0.086248
0.851033 0.310682 0.085387
0.933088 0.310334 0.084515
1.000000 0.309981 0.083632
1.000000 0.309624 0.082741
0.000000 0.379677 0.092062
0.048853 0.379469 0.091542
0.108411 0.379216 0.090909
0.172813 0.378942 0.090225
0.240578 0.378654 0.089504
0.310959 0.378355 0.088756
0.383497 0.378046 0.087985
0.457879 0.377730 0.087195
0.533877 0.377407 0.086387
0.611317 0.377078 0.085563
0.690061 0.376743 0.084726
0.769998 0.376403 0.083877
0.851033 0.376058 0.083015
0.933088 0.375709 0.082143
1.000000 0.375356 0.081261
1.000000 0.375000 0.080369
0.000000 0.446156 0.089650
0.048853 0.445949 0.089131
0.108411 0.445695 0.088498
0.172813 0.445422 0.087813
0.240578 0.445134 0.087093
0.310959 0.444834 0.086344
0.383497 0.444526 0.085573
0.457879 0.444210 0.084783
0.533877 0.443886 0.083975
0.611317 0.443557 0.083152
0.690061 0.443222 0.082315
0.769998 0.442882 0.081465
0.851033 0.442538 0.080604
0.933088 0.442189 0.079731
1.000000 0.441836 0.078849
1.000000 0.441479 0.077957
0.000000 0.513596 0.087203
0.048853 0.513388 0.086684
0.108411 0.513135 0.086051
0.172813 0.512861 0.085366
0.240578 0.512573 0.084646
0.310959 0.512273 0.083898
0.383497 0.511965 0.083127
0.457879 0.511649 0.082336
0.533877 0.511326 0.081528
0.611317 0.510996 0.080705
0.690061 0.510662 0.079868
0.769998 0.510322 0.079018
0.851033 0.509977 0.078157
0.933088 0.509628 0.077285
1.000000 0.509275 0.076402
1.000000 0.508918 0.075510
0.000000 0.581885 0.084726
0.048853 0.581678 0.084207
0.108411 0.581424 0.083573
0.172813 0.581150 0.082889
0.240578 0.580862 0.082169
0.310959 0.580563 0.081420
0.383497 0.580255 0.080649
0.457879 0.579938 0.079859
0.533877 0.579615 0.079051
0.611317 0.579286 0.078228
0.690061 0.578951 0.077391
0.769998 0.578611 0.076541
0.851033 0.578267 0.075679
0.933088 0.577918 0.074807
1.000000 0.577565 0.073925
1.000000 0.577208 0.073033
0.000000 0.650939 0.082221
0.048853 0.650732 0.081701
0.108411 0.650478 0.081068
0.172813 0.650205 0.080384
0.240578 0.649916 0.079663
0.310959 0.649617 0.078915
0.383497 0.649309 0.078144
0.457879 0.648992 0.077353
0.533877 0.648669 0.076546
0.611317 0.648340 0.075722
0.690061 0.648005 0.074885
0.769998 0.647665 0.074036
0.851033 0.647321 0.073174
0.933088 0.646972 0.072302
1.000000 0.646619 0.071420
1.000000 0.646262 0.070528
0.000000 0.720689 0.079690
0.048853 0.720481 0.079171
0.108411 0.720228 0.078538
0.172813 0.719954 0.077853
0.240578 0.719666 0.077133
0.310959 0.719366 0.076385
0.383497 0.719058 0.075614
0.457879 0.718742 0.074823
0.533877 0.718419 0.074015
0.611317 0.718089 0.073192
0.690061 0.717754 0.072355
0.769998 0.717415 0.071505
0.851033 0.717070 0.070644
0.933088 0.716721 0.069772
1.000000 0.716368 0.068889
1.000000 0.716011 0.067997
0.000000 0.791076 0.077137
0.048853 0.790868 0.076617
0.108411 0.790615 0.075984
0.172813 0.790341 0.075300
0.240578 0.790053 0.074579
0.310959 0.789753 0.073831
0.383497 0.789445 0.073060
0.457879 0.789129 0.072269
0.533877 0.788806 0.071462
0.611317 0.788476 0.070638
0.690061 0.788142 0.069801
0.769998 0.787802 0.068952
0.851033 0.787457 0.068090
0.933088 0.787108 0.067218
1.000000 0.786755 0.066336
1.000000 0.786398 0.065444
0.000000 0.862052 0.074562
0.048853 0.861845 0.074042
0.108411 0.861591 0.073409
0.172813 0.861318 0.072725
0.240578 0.861029 0.072004
0.310959 0.860730 0.071256
0.383497 0.860422 0.070485
0.457879 0.860105 0.069694
0.533877 0.859782 0.068887
0.611317 0.859453 0.068063
0.690061 0.859118 0.067226
0.769998 0.858778 0.066377
0.851033 0.858434 0.065515
0.933088 0.858085 0.064643
1.000000 0.857732 0.063761
1.000000 0.857375 0.062869
0.000000 0.933578 0.071967
0.048853 0.933370 0.071448
0.108411 0.933117 0.070814
0.172813 0.932843 0.070130
0.240578 0.932555 0.069410
0.310959 0.932255 0.068661
0.383497 0.931947 0.067890
0.457879 0.931631 0.067100
0.533877 0.931308 0.066292
0.611317 0.930978 0.065469
0.690061 0.930644 0.064632
0.769998 0.930304 0.063782
0.851033 0.929959 0.062920
0.933088 0.929610 0.062048
1.000000 0.929257 0.061166
1.000000 0.928900 0.060274
0.000000 1.000000 0.069353
0.048853 1.000000 0.068834
0.108411 1.000000 0.068201
0.172813 1.000000 0.067516
0.240578 1.000000 0.066796
0.310959 1.000000 0.066048
0.383497 1.000000 0.065277
0.457879 1.000000 0.064486
0.533877 1.000000 0.063678
0.611317 1.000000 0.062855
0.690061 1.000000 0.062018
0.769998 1.000000 0.061168
0.851033 1.000000 0.060307
0.933088 1.000000 0.059435
1.000000 1.000000 0.058552
1.000000 1.000000 0.057660
0.000000 0.019835 0.164114
0.048853 0.019627 0.163595
0.108411 0.019374 0.162962
0.172813 0.019100 0.162277
0.240578 0.018812 0.161557
0.310959 0.018512 0.160808
0.383497 0.018204 0.160037
0.457879 0.017888 0.159247
0.533877 0.017565 0.158439
0.611317 0.017235 0.157616
0.690061 0.016900 0.156779
0.769998 0.016561 0.155929
0.851033 0.016216 0.155067
0.933088 0.015867 0.154195
1.000000 0.015514 0.153313
1.000000 0.015157 0.152421
0.000000 0.069958 0.162295
0.048853 0.069751 0.161776
0.108411 0.069497 0.161143
0.172813 0.069223 0.160458
0.240578 0.068935 0.159738
0.310959 0.068636 0.158990
0.383497 0.068328 0.158219
0.457879 0.068011 0.157428
0.533877 0.067688 0.156620
0.611317 0.067359 0.155797
0.690061 0.067024 0.154960
0.769998 0.066684 0.154110
0.851033 0.066340 0.153249
0.933088 0.065991 0.152377
1.000000 0.065638 0.151494
1.000000 0.065281 0.150602
0.000000 0.127277 0.160216
0.048853 0.127069 0.159697
0.108411 0.126816 0.159064
0.172813 0.126542 0.158379
0.240578 0.126254 0.157659
0.310959 0.125955 0.156911
0.383497 0.125646 0.156139
0.457879 0.125330 0.155349
0.533877 0.125007 0.154541
0.611317 0.124678 0.153718
0.690061 0.124343 0.152881
0.769998 0.124003 0.152031
0.851033 0.123658 0.151170
0.933088 0.123310 0.150297
1.000000 0.122957 0.149415
1.000000 0.122600 0.148523
0.000000 0.187667 0.158025
0.048853 0.187459 0.157506
0.108411 0.187206 0.156873
0.172813 0.186932 0.156188
0.240578 0.186644 0.155468
0.310959 0.186345 0.154720
0.383497 0.186036 0.153949
0.457879 0.185720 0.153158
0.533877 0.185397 0.152350
0.611317 0.185068 0.151527
0.690061 0.184733 0.150690
0.769998 0.184393 0.149840
0.851033 0.184049 0.148979
0.933088 0.183700 0.148106
1.000000 0.183347 0.147224
1.000000 0.182990 0.146332
0.000000 0.250142 0.155759
0.048853 0.249935 0.155239
0.108411 0.249681 0.154606
0.172813 0.249408 0.153922
0.240578 0.249119 0.153201
0.310959 0.248820 0.152453
0.383497 0.248512 0.151682
0.457879 0.248195 0.150891
0.533877 0.247872 0.150083
0.611317 0.247543 0.149260
0.690061 0.247208 0.148423
0.769998 0.246868 0.147574
0.851033 0.246524 0.146712
0.933088 0.246175 0.145840
1.000000 0.245822 0.144957
1.000000 0.245465 0.144066
0.000000 0.314216 0.153434
0.048853 0.314008 0.152915
0.108411 0.313755 0.152282
0.172813 0.313481 0.151597
0.240578 0.313193 0.150877
0.310959 0.312893 0.150129
0.383497 0.312585 0.149358
0.457879 0.312269 0.148567
0.533877 0.311945 0.147759
0.611317 0.311616 0.146936
0.690061 0.311281 0.146099
0.769998 0.310941 0.145249
0.851033 0.310597 0.144388
0.933088 0.310248 0.143515
1.000000 0.309895 0.142633
1.000000 0.309538 0.141741
0.000000 0.379591 0.151062
0.048853 0.379384 0.150543
0.108411 0.379130 0.149910
0.172813 0.378857 0.149225
0.240578 0.378568 0.148505
0.310959 0.378269 0.147757
0.383497 0.377961 0.146986
0.457879 0.377644 0.146195
0.533877 0.377321 0.145387
0.611317 0.376992 0.144564
0.690061 0.376657 0.143727
0.769998 0.376317 0.142877
0.851033 0.375973 0.142016
0.933088 0.375624 0.141144
1.000000 0.375271 0.140261
1.000000 0.374914 0.139369
0.000000 0.446071 0.148651
0.048853 0.445863 0.148131
0.108411 0.445610 0.147498
0.172813 0.445336 0.146814
0.240578 0.445048 0.146093
0.310959 0.444749 0.145345
0.383497 0.444440 0.144574
0.457879 0.444124 0.143783
0.533877 0.443801 0.142975
0.611317 0.443472 0.142152
0.690061 0.443137 0.141315
0.769998 0.442797 0.140465
0.851033 0.442452 0.139604
0.933088 0.442103 0.138732
1.000000 0.441750 0.137849
1.000000 0.441394 0.136958
0.000000 0.513510 0.146204
0.048853 0.513302 0.145685
0.108411 0.513049 0.145051
0.172813 0.512775 0.144367
0.240578 0.512487 0.143647
0.310959 0.512188 0.142898
0.383497 0.511880 0.142127
0.457879 0.511563 0.141337
0.533877 0.511240 0.140529
0.611317 0.510911 0.139706
0.690061 0.510576 0.138869
0.769998 0.510236 0.138019
0.851033 0.509892 0.137157
0.933088 0.509543 0.136285
1.000000 0.509190 0.135403
1.000000 0.508833 0.134511
0.000000 0.581800 0.143726
0.048853 0.581592 0.143207
0.108411 0.581339 0.142574
0.172813 0.581065 0.141889
0.240578 0.580777 0.141169
0.310959 0.580478 0.140421
0.383497 0.580169 0.139650
0.457879 0.579853 0.138859
0.533877 0.579530 0.138051
0.611317 0.579200 0.137228
0.690061 0.578866 0.136391
0.769998 0.578526 0.135541
0.851033 0.578181 0.134680
0.933088 0.577832 0.133808
1.000000 0.577479 0.132925
1.000000 0.577123 0.132033
0.000000 0.650854 0.141221
0.048853 0.650646 0.140702
0.108411 0.650393 0.140069
0.172813 0.650119 0.139384
0.240578 0.649831 0.138664
0.310959 0.649532 0.137916
0.383497 0.649223 0.137145
0.457879 0.648907 0.136354
0.533877 0.648584 0.135546
0.611317 0.648255 0.134723
0.690061 0.647920 0.133886
0.769998 0.647580 0.133036
0.851033 0.647235 0.132175
0.933088 0.646886 0.131302
1.000000 0.646533 0.130420
1.000000 0.646177 0.129528
0.000000 0.720603 0.138691
0.048853 0.720395 0.138171
0.108411 0.720142 0.137538
0.172813 0.719868 0.136854
0.240578 0.719580 0.136133
0.310959 0.719281 0.135385
0.383497 0.718972 0.134614
0.457879 0.718656 0.133824
0.533877 0.718333 0.133016
0.611317 0.718004 0.132192
0.690061 0.717669 0.131355
0.769998 0.717329 0.130506
0.851033 0.716985 0.129644
0.933088 0.716636 0.128772
1.000000 0.716283 0.127890
1.000000 0.715926 0.126998
0.000000 0.790990 0.136137
0.048853 0.790782 0.135618
0.108411 0.790529 0.134985
0.172813 0.790255 0.134300
0.240578 0.789967 0.133580
0.310959 0.789668 0.132832
0.383497 0.789360 0.132061
0.457879 0.789043 0.131270
0.533877 0.788720 0.130462
0.611317 0.788391 0.129639
0.690061 0.788056 0.128802
0.769998 0.787716 0.127952
0.851033 0.787372 0.127091
0.933088 0.787023 0.126218
1.000000 0.786670 0.125336
1.000000 0.786313 0.124444
0.000000 0.861967 0.133562
0.048853 0.861759 0.133043
0.108411 0.861506 0.132410
0.172813 0.861232 0.131725
0.240578 0.860944 0.131005
0.310959 0.860645 0.130257
0.383497 0.860336 0.129486
0.457879 0.860020 0.128695
0.533877 0.859697 0.127887
0.611317 0.859368 0.127064
0.690061 0.859033 0.126227
0.769998 0.858693 0.125377
0.851033 0.858348 0.124516
0.933088 0.857999 0.123644
1.000000 0.857646 0.122761
1.000000 0.857290 0.121869
0.000000 0.933492 0.130967
0.048853 0.933284 0.130448
0.108411 0.933031 0.129815
0.172813 0.932757 0.129130
0.240578 0.932469 0.128410
0.310959 0.932170 0.127662
0.383497 0.931862 0.126891
0.457879 0.931545 0.126100
0.533877 0.931222 0.125292
0.611317 0.930893 0.124469
0.690061 0.930558 0.123632
0.769998 0.930218 0.122782
0.851033 0.929874 0.121921
0.933088 0.929525 0.121049
1.000000 0.929172 0.120166
1.000000 0.928815 0.119274
0.000000 1.000000 0.128354
0.048853 1.000000 0.127835
0.108411 1.000000 0.127202
0.172813 1.000000 0.126517
0.240578 1.000000 0.125797
0.310959 1.000000 0.125048
0.383497 1.000000 0.124277
0.457879 1.000000 0.123487
0.533877 1.000000 0.122679
0.611317 1.000000 0.121856
0.690061 1.000000 0.121019
0.769998 1.000000 0.120169
0.851033 1.000000 0.119307
0.933088 1.000000 0.118435
1.000000 1.000000 0.117553
1.000000 1.000000 0.116661
0.000000 0.019747 0.224676
0.048853 0.019539 0.224157
0.108411 0.019286 0.223524
0.172813 0.019012 0.222839
0.240578 0.018724 0.222119
0.310959 0.018425 0.221371
0.383497 0.018116 0.220600
0.457879 0.017800 0.219809
0.533877 0.017477 0.219001
0.611317 0.017148 0.218178
0.690061 0.016813 0.217341
0.769998 0.016473 0.216491
0.851033 0.016128 0.215630
0.933088 0.015779 0.214758
1.000000 0.015426 0.213875
1.000000 0.015070 0.212983
0.000000 0.069870 0.222858
0.048853 0.069663 0.222339
0.108411 0.069410 0.221706
0.172813 0.069136 0.221021
0.240578 0.068848 0.220301
0.310959 0.068548 0.219553
0.383497 0.068240 0.218781
0.457879 0.067924 0.217991
0.533877 0.067600 0.217183
0.611317 0.067271 0.216360
0.690061 0.066936 0.215523
0.769998 0.066596 0.214673
0.851033 0.066252 0.213812
0.933088 0.065903 0.212939
1.000000 0.065550 0.212057
1.000000 0.065193 0.211165
0.000000 0.127189 0.220779
0.048853 0.126982 0.220259
0.108411 0.126728 0.219626
0.172813 0.126454 0.218942
0.240578 0.126166 0.218221
0.310959 0.125867 0.217473
0.383497 0.125559 0.216702
0.457879 0.125242 0.215911
0.533877 0.124919 0.215103
0.611317 0.124590 0.214280
0.690061 0.124255 0.213443
0.769998 0.123915 0.212594
0.851033 0.123571 0.211732
0.933088 0.123222 0.210860
1.000000 0.122869 0.209977
1.000000 0.122512 0.209086
0.000000 0.187579 0.218588
0.048853 0.187372 0.218068
0.108411 0.187118 0.217435
0.172813 0.186845 0.216751
0.240578 0.186556 0.216030
0.310959 0.186257 0.215282
0.383497 0.185949 0.214511
0.457879 0.185632 0.213720
0.533877 0.185309 0.212913
0.611317 0.184980 0.212089
0.690061 0.184645 0.211252
0.769998 0.184305 0.210403
0.851033 0.183961 0.209541
0.933088 0.183612 0.208669
1.000000 0.183259 0.207787
1.000000 0.182902 0.206895
0.000000 0.250055 0.216321
0.048853 0.249847 0.215802
0.108411 0.249594 0.215169
0.172813 0.249320 0.214484
0.240578 0.249032 0.213764
0.310959 0.248732 0.213016
0.383497 0.248424 0.212245
0.457879 0.248108 0.211454
0.533877 0.247785 0.210646
0.611317 0.247455 0.209823
0.690061 0.247120 0.208986
0.769998 0.246781 0.208136
0.851033 0.246436 0.207275
0.933088 0.246087 0.206402
1.000000 0.245734 0.205520
1.000000 0.245377 0.204628
0.000000 0.314128 0.213997
0.048853 0.313920 0.213477
0.108411 0.313667 0.212844
0.172813 0.313393 0.212160
0.240578 0.313105 0.211439
0.310959 0.312806 0.210691
0.383497 0.312497 0.209920
0.457879 0.312181 0.209129
0.533877 0.311858 0.208322
0.611317 0.311528 0.207498
0.690061 0.311194 0.206661
0.769998 0.310854 0.205812
0.851033 0.310509 0.204950
0.933088 0.310160 0.204078
1.000000 0.309807 0.203196
1.000000 0.309451 0.202304
0.000000 0.379504 0.211625
0.048853 0.379296 0.211106
0.108411 0.379043 0.210472
0.172813 0.378769 0.209788
0.240578 0.378481 0.209068
0.310959 0.378181 0.208319
0.383497 0.377873 0.207548
0.457879 0.377557 0.206758
0.533877 0.377234 0.205950
0.611317 0.376904 0.205127
0.690061 0.376569 0.204290
0.769998 0.376230 0.203440
0.851033 0.375885 0.202578
0.933088 0.375536 0.201706
1.000000 0.375183 0.200824
1.000000 0.374826 0.199932
0.000000 0.445983 0.209213
0.048853 0.445775 0.208694
0.108411 0.445522 0.208061
0.172813 0.445248 0.207376
0.240578 0.444960 0.206656
0.310959 0.444661 0.205908
0.383497 0.444353 0.205137
