assets/luts/sony_scinetone.cube
TITLE "Sony S-Cinetone Simulation"
LUT_3D_SIZE 16
0.000000 0.000000 0.000000
0.077860 0.000000 0.000000
0.150415 0.000000 0.000000
0.221095 0.000000 0.000000
0.290583 0.000000 0.000000
0.359199 0.000000 0.000000
0.427127 0.000000 0.000000
0.494489 0.000000 0.000000
0.561370 0.000000 0.000000
0.627833 0.000000 0.000000
0.693927 0.000000 0.000000
0.759690 0.000000 0.000000
0.825155 0.000000 0.000000
0.890348 0.000000 0.000000
0.955290 0.000000 0.000000
1.000000 0.000000 0.000000
0.000000 0.066667 0.000000
0.077860 0.066667 0.000000
0.150415 0.066667 0.000000
0.221095 0.066667 0.000000
0.290583 0.066667 0.000000
0.359199 0.066667 0.000000
0.427127 0.066667 0.000000
0.494489 0.066667 0.000000
0.561370 0.066667 0.000000
0.627833 0.066667 0.000000
0.693927 0.066667 0.000000
0.759690 0.066667 0.000000
0.825155 0.066667 0.000000
0.890348 0.066667 0.000000
0.955290 0.066667 0.000000
1.000000 0.066667 0.000000
0.000000 0.133333 0.000000
0.077860 0.133333 0.000000
0.150415 0.133333 0.000000
0.221095 0.133333 0.000000
0.290583 0.133333 0.000000
0.359199 0.133333 0.000000
0.427127 0.133333 0.000000
0.494489 0.133333 0.000000
0.561370 0.133333 0.000000
0.627833 0.133333 0.000000
0.693927 0.133333 0.000000
0.759690 0.133333 0.000000
0.825155 0.133333 0.000000
0.890348 0.133333 0.000000
0.955290 0.133333 0.000000
1.000000 0.133333 0.000000
0.000000 0.200000 0.000000
0.077860 0.200000 0.000000
0.150415 0.200000 0.000000
0.221095 0.200000 0.000000
0.290583 0.200000 0.000000
0.359199 0.200000 0.000000
0.427127 0.200000 0.000000
0.494489 0.200000 0.000000
0.561370 0.200000 0.000000
0.627833 0.200000 0.000000
0.693927 0.200000 0.000000
0.759690 0.200000 0.000000
0.825155 0.200000 0.000000
0.890348 0.200000 0.000000
0.955290 0.200000 0.000000
1.000000 0.200000 0.000000
0.000000 0.266667 0.000000
0.077860 0.266667 0.000000
0.150415 0.266667 0.000000
0.221095 0.266667 0.000000
0.290583 0.266667 0.000000
0.359199 0.266667 0.000000
0.427127 0.266667 0.000000
0.494489 0.266667 0.000000
0.561370 0.266667 0.000000
0.627833 0.266667 0.000000
0.693927 0.266667 0.000000
0.759690 0.266667 0.000000
0.825155 0.266667 0.000000
0.890348 0.266667 0.000000
0.955290 0.266667 0.000000
1.000000 0.266667 0.000000
0.000000 0.333333 0.000000
0.077860 0.333333 0.000000
0.150415 0.333333 0.000000
0.221095 0.333333 0.000000
0.290583 0.333333 0.000000
0.359199 0.333333 0.000000
0.427127 0.333333 0.000000
0.494489 0.333333 0.000000
0.561370 0.333333 0.000000
0.627833 0.333333 0.000000
0.693927 0.333333 0.000000
0.759690 0.333333 0.000000
0.825155 0.333333 0.000000
0.890348 0.333333 0.000000
0.955290 0.333333 0.000000
1.000000 0.333333 0.000000
0.000000 0.400000 0.000000
0.077860 0.400000 0.000000
0.150415 0.400000 0.000000
0.221095 0.400000 0.000000
0.290583 0.400000 0.000000
0.359199 0.400000 0.000000
0.427127 0.400000 0.000000
0.494489 0.400000 0.000000
0.561370 0.400000 0.000000
0.627833 0.400000 0.000000
0.693927 0.400000 0.000000
0.759690 0.400000 0.000000
0.825155 0.400000 0.000000
0.890348 0.400000 0.000000
0.955290 0.400000 0.000000
1.000000 0.400000 0.000000
0.000000 0.466667 0.000000
0.077860 0.466667 0.000000
0.150415 0.466667 0.000000
0.221095 0.466667 0.000000
0.290583 0.466667 0.000000
0.359199 0.466667 0.000000
0.427127 0.466667 0.000000
0.494489 0.466667 0.000000
0.561370 0.466667 0.000000
0.627833 0.466667 0.000000
0.693927 0.466667 0.000000
0.759690 0.466667 0.000000
0.825155 0.466667 0.000000
0.890348 0.466667 0.000000
0.955290 0.466667 0.000000
1.000000 0.466667 0.000000
0.000000 0.533333 0.000000
0.077860 0.533333 0.000000
0.150415 0.533333 0.000000
0.221095 0.533333 0.000000
0.290583 0.533333 0.000000
0.359199 0.533333 0.000000
0.427127 0.533333 0.000000
0.494489 0.533333 0.000000
0.561370 0.533333 0.000000
0.627833 0.533333 0.000000
0.693927 0.533333 0.000000
0.759690 0.533333 0.000000
0.825155 0.533333 0.000000
0.890348 0.533333 0.000000
0.955290 0.533333 0.000000
1.000000 0.533333 0.000000
0.000000 0.600000 0.000000
0.077860 0.600000 0.000000
0.150415 0.600000 0.000000
0.221095 0.600000 0.000000
0.290583 0.600000 0.000000
0.359199 0.600000 0.000000
0.427127 0.600000 0.000000
0.494489 0.600000 0.000000
0.561370 0.600000 0.000000
0.627833 0.600000 0.000000
0.693927 0.600000 0.000000
0.759690 0.600000 0.000000
0.825155 0.600000 0.000000
0.890348 0.600000 0.000000
0.955290 0.600000 0.000000
1.000000 0.600000 0.000000
0.000000 0.666667 0.000000
0.077860 0.666667 0.000000
0.150415 0.666667 0.000000
0.221095 0.666667 0.000000
0.290583 0.666667 0.000000
0.359199 0.666667 0.000000
0.427127 0.666667 0.000000
0.494489 0.666667 0.000000
0.561370 0.666667 0.000000
0.627833 0.666667 0.000000
0.693927 0.666667 0.000000
0.759690 0.666667 0.000000
0.825155 0.666667 0.000000
0.890348 0.666667 0.000000
0.955290 0.666667 0.000000
1.000000 0.666667 0.000000
0.000000 0.733333 0.000000
0.077860 0.733333 0.000000
0.150415 0.733333 0.000000
0.221095 0.733333 0.000000
0.290583 0.733333 0.000000
0.359199 0.733333 0.000000
0.427127 0.733333 0.000000
0.494489 0.733333 0.000000
0.561370 0.733333 0.000000
0.627833 0.733333 0.000000
0.693927 0.733333 0.000000
0.759690 0.733333 0.000000
0.825155 0.733333 0.000000
0.890348 0.733333 0.000000
0.955290 0.733333 0.000000
1.000000 0.733333 0.000000
0.000000 0.800000 0.000000
0.077860 0.800000 0.000000
0.150415 0.800000 0.000000
0.221095 0.800000 0.000000
0.290583 0.800000 0.000000
0.359199 0.800000 0.000000
0.427127 0.800000 0.000000
0.494489 0.800000 0.000000
0.561370 0.800000 0.000000
0.627833 0.800000 0.000000
0.693927 0.800000 0.000000
0.759690 0.800000 0.000000
0.825155 0.800000 0.000000
0.890348 0.800000 0.000000
0.955290 0.800000 0.000000
1.000000 0.800000 0.000000
0.000000 0.866667 0.000000
0.077860 0.866667 0.000000
0.150415 0.866667 0.000000
0.221095 0.866667 0.000000
0.290583 0.866667 0.000000
0.359199 0.866667 0.000000
0.427127 0.866667 0.000000
0.494489 0.866667 0.000000
0.561370 0.866667 0.000000
0.627833 0.866667 0.000000
0.693927 0.866667 0.000000
0.759690 0.866667 0.000000
0.825155 0.866667 0.000000
0.890348 0.866667 0.000000
0.955290 0.866667 0.000000
1.000000 0.866667 0.000000
0.000000 0.933333 0.000000
0.077860 0.933333 0.000000
0.150415 0.933333 0.000000
0.221095 0.933333 0.000000
0.290583 0.933333 0.000000
0.359199 0.933333 0.000000
0.427127 0.933333 0.000000
0.494489 0.933333 0.000000
0.561370 0.933333 0.000000
0.627833 0.933333 0.000000
0.693927 0.933333 0.000000
0.759690 0.933333 0.000000
0.825155 0.933333 0.000000
0.890348 0.933333 0.000000
0.955290 0.933333 0.000000
1.000000 0.933333 0.000000
0.000000 1.000000 0.000000
0.077860 1.000000 0.000000
0.150415 1.000000 0.000000
0.221095 1.000000 0.000000
0.290583 1.000000 0.000000
0.359199 1.000000 0.000000
0.427127 1.000000 0.000000
0.494489 1.000000 0.000000
0.561370 1.000000 0.000000
0.627833 1.000000 0.000000
0.693927 1.000000 0.000000
0.759690 1.000000 0.000000
0.825155 1.000000 0.000000
0.890348 1.000000 0.000000
0.955290 1.000000 0.000000
1.000000 1.000000 0.000000
0.000000 0.000000 0.057060
0.077860 0.000000 0.057060
0.150415 0.000000 0.057060
0.221095 0.000000 0.057060
0.290583 0.000000 0.057060
0.359199 0.000000 0.057060
0.427127 0.000000 0.057060
0.494489 0.000000 0.057060
0.561370 0.000000 0.057060
0.627833 0.000000 0.057060
0.693927 0.000000 0.057060
0.759690 0.000000 0.057060
0.825155 0.000000 0.057060
0.890348 0.000000 0.057060
0.955290 0.000000 0.057060
1.000000 0.000000 0.057060
0.000000 0.066667 0.057060
0.077860 0.066667 0.057060
0.150415 0.066667 0.057060
0.221095 0.066667 0.057060
0.290583 0.066667 0.057060
0.359199 0.066667 0.057060
0.427127 0.066667 0.057060
0.494489 0.066667 0.057060
0.561370 0.066667 0.057060
0.627833 0.066667 0.057060
0.693927 0.066667 0.057060
0.759690 0.066667 0.057060
0.825155 0.066667 0.057060
0.890348 0.066667 0.057060
0.955290 0.066667 0.057060
1.000000 0.066667 0.057060
0.000000 0.133333 0.057060
0.077860 0.133333 0.057060
0.150415 0.133333 0.057060
0.221095 0.133333 0.057060
0.290583 0.133333 0.057060
0.359199 0.133333 0.057060
0.427127 0.133333 0.057060
0.494489 0.133333 0.057060
0.561370 0.133333 0.057060
0.627833 0.133333 0.057060
0.693927 0.133333 0.057060
0.759690 0.133333 0.057060
0.825155 0.133333 0.057060
0.890348 0.133333 0.057060
0.955290 0.133333 0.057060
1.000000 0.133333 0.057060
0.000000 0.200000 0.057060
0.077860 0.200000 0.057060
0.150415 0.200000 0.057060
0.221095 0.200000 0.057060
0.290583 0.200000 0.057060
0.359199 0.200000 0.057060
0.427127 0.200000 0.057060
0.494489 0.200000 0.057060
0.561370 0.200000 0.057060
0.627833 0.200000 0.057060
0.693927 0.200000 0.057060
0.759690 0.200000 0.057060
0.825155 0.200000 0.057060
0.890348 0.200000 0.057060
0.955290 0.200000 0.057060
1.000000 0.200000 0.057060
0.000000 0.266667 0.057060
0.077860 0.266667 0.057060
0.150415 0.266667 0.057060
0.221095 0.266667 0.057060
0.290583 0.266667 0.057060
0.359199 0.266667 0.057060
0.427127 0.266667 0.057060
0.494489 0.266667 0.057060
0.561370 0.266667 0.057060
0.627833 0.266667 0.057060
0.693927 0.266667 0.057060
0.759690 0.266667 0.057060
0.825155 0.266667 0.057060
0.890348 0.266667 0.057060
0.955290 0.266667 0.057060
1.000000 0.266667 0.057060
0.000000 0.333333 0.057060
0.077860 0.333333 0.057060
0.150415 0.333333 0.057060
0.221095 0.333333 0.057060
0.290583 0.333333 0.057060
0.359199 0.333333 0.057060
0.427127 0.333333 0.057060
0.494489 0.333333 0.057060
0.561370 0.333333 0.057060
0.627833 0.333333 0.057060
0.693927 0.333333 0.057060
0.759690 0.333333 0.057060
0.825155 0.333333 0.057060
0.890348 0.333333 0.057060
0.955290 0.333333 0.057060
1.000000 0.333333 0.057060
0.000000 0.400000 0.057060
0.077860 0.400000 0.057060
0.150415 0.400000 0.057060
0.221095 0.400000 0.057060
0.290583 0.400000 0.057060
0.359199 0.400000 0.057060
0.427127 0.400000 0.057060
0.494489 0.400000 0.057060
0.561370 0.400000 0.057060
0.627833 0.400000 0.057060
0.693927 0.400000 0.057060
0.759690 0.400000 0.057060
0.825155 0.400000 0.057060
0.890348 0.400000 0.057060
0.955290 0.400000 0.057060
1.000000 0.400000 0.057060
0.000000 0.466667 0.057060
0.077860 0.466667 0.057060
0.150415 0.466667 0.057060
0.221095 0.466667 0.057060
0.290583 0.466667 0.057060
0.359199 0.466667 0.057060
0.427127 0.466667 0.057060
0.494489 0.466667 0.057060
0.561370 0.466667 0.057060
0.627833 0.466667 0.057060
0.693927 0.466667 0.057060
0.759690 0.466667 0.057060
0.825155 0.466667 0.057060
0.890348 0.466667 0.057060
0.955290 0.466667 0.057060
1.000000 0.466667 0.057060
0.000000 0.533333 0.057060
0.077860 0.533333 0.057060
0.150415 0.533333 0.057060
0.221095 0.533333 0.057060
0.290583 0.533333 0.057060
0.359199 0.533333 0.057060
0.427127 0.533333 0.057060
0.494489 0.533333 0.057060
0.561370 0.533333 0.057060
0.627833 0.533333 0.057060
0.693927 0.533333 0.057060
0.759690 0.533333 0.057060
0.825155 0.533333 0.057060
0.890348 0.533333 0.057060
0.955290 0.533333 0.057060
1.000000 0.533333 0.057060
0.000000 0.600000 0.057060
0.077860 0.600000 0.057060
0.150415 0.600000 0.057060
0.221095 0.600000 0.057060
0.290583 0.600000 0.057060
0.359199 0.600000 0.057060
0.427127 0.600000 0.057060
0.494489 0.600000 0.057060
0.561370 0.600000 0.057060
0.627833 0.600000 0.057060
0.693927 0.600000 0.057060
0.759690 0.600000 0.057060
0.825155 0.600000 0.057060
0.890348 0.600000 0.057060
0.955290 0.600000 0.057060
1.000000 0.600000 0.057060
0.000000 0.666667 0.057060
0.077860 0.666667 0.057060
0.150415 0.666667 0.057060
0.221095 0.666667 0.057060
0.290583 0.666667 0.057060
0.359199 0.666667 0.057060
0.427127 0.666667 0.057060
0.494489 0.666667 0.057060
0.561370 0.666667 0.057060
0.627833 0.666667 0.057060
0.693927 0.666667 0.057060
0.759690 0.666667 0.057060
0.825155 0.666667 0.057060
0.890348 0.666667 0.057060
0.955290 0.666667 0.057060
1.000000 0.666667 0.057060
0.000000 0.733333 0.057060
0.077860 0.733333 0.057060
0.150415 0.733333 0.057060
0.221095 0.733333 0.057060
0.290583 0.733333 0.057060
0.359199 0.733333 0.057060
0.427127 0.733333 0.057060
0.494489 0.733333 0.057060
0.561370 0.733333 0.057060
0.627833 0.733333 0.057060
0.693927 0.733333 0.057060
0.759690 0.733333 0.057060
0.825155 0.733333 0.057060
0.890348 0.733333 0.057060
0.955290 0.733333 0.057060
1.000000 0.733333 0.057060
0.000000 0.800000 0.057060
0.077860 0.800000 0.057060
0.150415 0.800000 0.057060
0.221095 0.800000 0.057060
0.290583 0.800000 0.057060
0.359199 0.800000 0.057060
0.427127 0.800000 0.057060
0.494489 0.800000 0.057060
0.561370 0.800000 0.057060
0.627833 0.800000 0.057060
0.693927 0.800000 0.057060
0.759690 0.800000 0.057060
0.825155 0.800000 0.057060
0.890348 0.800000 0.057060
0.955290 0.800000 0.057060
1.000000 0.800000 0.057060
0.000000 0.866667 0.057060
0.077860 0.866667 0.057060
0.150415 0.866667 0.057060
0.221095 0.866667 0.057060
0.290583 0.866667 0.057060
0.359199 0.866667 0.057060
0.427127 0.866667 0.057060
0.494489 0.866667 0.057060
0.561370 0.866667 0.057060
0.627833 0.866667 0.057060
0.693927 0.866667 0.057060
0.759690 0.866667 0.057060
0.825155 0.866667 0.057060
0.890348 0.866667 0.057060
0.955290 0.866667 0.057060
1.000000 0.866667 0.057060
0.000000 0.933333 0.057060
0.077860 0.933333 0.057060
0.150415 0.933333 0.057060
0.221095 0.933333 0.057060
0.290583 0.933333 0.057060
0.359199 0.933333 0.057060
0.427127 0.933333 0.057060
0.494489 0.933333 0.057060
0.561370 0.933333 0.057060
0.627833 0.933333 0.057060
0.693927 0.933333 0.057060
0.759690 0.933333 0.057060
0.825155 0.933333 0.057060
0.890348 0.933333 0.057060
0.955290 0.933333 0.057060
1.000000 0.933333 0.057060
0.000000 1.000000 0.057060
0.077860 1.000000 0.057060
0.150415 1.000000 0.057060
0.221095 1.000000 0.057060
0.290583 1.000000 0.057060
0.359199 1.000000 0.057060
0.427127 1.000000 0.057060
0.494489 1.000000 0.057060
0.561370 1.000000 0.057060
0.627833 1.000000 0.057060
0.693927 1.000000 0.057060
0.759690 1.000000 0.057060
0.825155 1.000000 0.057060
0.890348 1.000000 0.057060
0.955290 1.000000 0.057060
1.000000 1.000000 0.057060
0.000000 0.000000 0.118144
0.077860 0.000000 0.118144
0.150415 0.000000 0.118144
0.221095 0.000000 0.118144
0.290583 0.000000 0.118144
0.359199 0.000000 0.118144
0.427127 0.000000 0.118144
0.494489 0.000000 0.118144
0.561370 0.000000 0.118144
0.627833 0.000000 0.118144
0.693927 0.000000 0.118144
0.759690 0.000000 0.118144
0.825155 0.000000 0.118144
0.890348 0.000000 0.118144
0.955290 0.000000 0.118144
1.000000 0.000000 0.118144
0.000000 0.066667 0.118144
0.077860 0.066667 0.118144
0.150415 0.066667 0.118144
0.221095 0.066667 0.118144
0.290583 0.066667 0.118144
0.359199 0.066667 0.118144
0.427127 0.066667 0.118144
0.494489 0.066667 0.118144
0.561370 0.066667 0.118144
0.627833 0.066667 0.118144
0.693927 0.066667 0.118144
0.759690 0.066667 0.118144
0.825155 0.066667 0.118144
0.890348 0.066667 0.118144
0.955290 0.066667 0.118144
1.000000 0.066667 0.118144
0.000000 0.133333 0.118144
0.077860 0.133333 0.118144
0.150415 0.133333 0.118144
0.221095 0.133333 0.118144
0.290583 0.133333 0.118144
0.359199 0.133333 0.118144
0.427127 0.133333 0.118144
0.494489 0.133333 0.118144
0.561370 0.133333 0.118144
0.627833 0.133333 0.118144
0.693927 0.133333 0.118144
0.759690 0.133333 0.118144
0.825155 0.133333 0.118144
0.890348 0.133333 0.118144
0.955290 0.133333 0.118144
1.000000 0.133333 0.118144
0.000000 0.200000 0.118144
0.077860 0.200000 0.118144
0.150415 0.200000 0.118144
0.221095 0.200000 0.118144
0.290583 0.200000 0.118144
0.359199 0.200000 0.118144
0.427127 0.200000 0.118144
0.494489 0.200000 0.118144
0.561370 0.200000 0.118144
0.627833 0.200000 0.118144
0.693927 0.200000 0.118144
0.759690 0.200000 0.118144
0.825155 0.200000 0.118144
0.890348 0.200000 0.118144
0.955290 0.200000 0.118144
1.000000 0.200000 0.118144
0.000000 0.266667 0.118144
0.077860 0.266667 0.118144
0.150415 0.266667 0.118144
0.221095 0.266667 0.118144
0.290583 0.266667 0.118144
0.359199 0.266667 0.118144
0.427127 0.266667 0.118144
0.494489 0.266667 0.118144
0.561370 0.266667 0.118144
0.627833 0.266667 0.118144
0.693927 0.266667 0.118144
0.759690 0.266667 0.118144
0.825155 0.266667 0.118144
0.890348 0.266667 0.118144
0.955290 0.266667 0.118144
1.000000 0.266667 0.118144
0.000000 0.333333 0.118144
0.077860 0.333333 0.118144
0.150415 0.333333 0.118144
0.221095 0.333333 0.118144
0.290583 0.333333 0.118144
0.359199 0.333333 0.118144
0.427127 0.333333 0.118144
0.494489 0.333333 0.118144
0.561370 0.333333 0.118144
0.627833 0.333333 0.118144
0.693927 0.333333 0.118144
0.759690 0.333333 0.118144
0.825155 0.333333 0.118144
0.890348 0.333333 0.118144
0.955290 0.333333 0.118144
1.000000 0.333333 0.118144
0.000000 0.400000 0.118144
0.077860 0.400000 0.118144
0.150415 0.400000 0.118144
0.221095 0.400000 0.118144
0.290583 0.400000 0.118144
0.359199 0.400000 0.118144
0.427127 0.400000 0.118144
0.494489 0.400000 0.118144
0.561370 0.400000 0.118144
0.627833 0.400000 0.118144
0.693927 0.400000 0.118144
0.759690 0.400000 0.118144
0.825155 0.400000 0.118144
0.890348 0.400000 0.118144
0.955290 0.400000 0.118144
1.000000 0.400000 0.118144
0.000000 0.466667 0.118144
0.077860 0.466667 0.118144
0.150415 0.466667 0.118144
0.221095 0.466667 0.118144
0.290583 0.466667 0.118144
0.359199 0.466667 0.118144
0.427127 0.466667 0.118144
0.494489 0.466667 0.118144
0.561370 0.466667 0.118144
0.627833 0.466667 0.118144
0.693927 0.466667 0.118144
0.759690 0.466667 0.118144
0.825155 0.466667 0.118144
0.890348 0.466667 0.118144
0.955290 0.466667 0.118144
1.000000 0.466667 0.118144
0.000000 0.533333 0.118144
0.077860 0.533333 0.118144
0.150415 0.533333 0.118144
0.221095 0.533333 0.118144
0.290583 0.533333 0.118144
0.359199 0.533333 0.118144
0.427127 0.533333 0.118144
0.494489 0.533333 0.118144
0.561370 0.533333 0.118144
0.627833 0.533333 0.118144
0.693927 0.533333 0.118144
0.759690 0.533333 0.118144
0.825155 0.533333 0.118144
0.890348 0.533333 0.118144
0.955290 0.533333 0.118144
1.000000 0.533333 0.118144
0.000000 0.600000 0.118144
0.077860 0.600000 0.118144
0.150415 0.600000 0.118144
0.221095 0.600000 0.118144
0.290583 0.600000 0.118144
0.359199 0.600000 0.118144
0.427127 0.600000 0.118144
0.494489 0.600000 0.118144
0.561370 0.600000 0.118144
0.627833 0.600000 0.118144
0.693927 0.600000 0.118144
0.759690 0.600000 0.118144
0.825155 0.600000 0.118144
0.890348 0.600000 0.118144
0.955290 0.600000 0.118144
1.000000 0.600000 0.118144
0.000000 0.666667 0.118144
0.077860 0.666667 0.118144
0.150415 0.666667 0.118144
0.221095 0.666667 0.118144
0.290583 0.666667 0.118144
0.359199 0.666667 0.118144
0.427127 0.666667 0.118144
0.494489 0.666667 0.118144
0.561370 0.666667 0.118144
0.627833 0.666667 0.118144
0.693927 0.666667 0.118144
0.759690 0.666667 0.118144
0.825155 0.666667 0.118144
0.890348 0.666667 0.118144
0.955290 0.666667 0.118144
1.000000 0.666667 0.118144
0.000000 0.733333 0.118144
0.077860 0.733333 0.118144
0.150415 0.733333 0.118144
0.221095 0.733333 0.118144
0.290583 0.733333 0.118144
0.359199 0.733333 0.118144
0.427127 0.733333 0.118144
0.494489 0.733333 0.118144
0.561370 0.733333 0.118144
0.627833 0.733333 0.118144
0.693927 0.733333 0.118144
0.759690 0.733333 0.118144
0.825155 0.733333 0.118144
0.890348 0.733333 0.118144
0.955290 0.733333 0.118144
1.000000 0.733333 0.118144
0.000000 0.800000 0.118144
0.077860 0.800000 0.118144
0.150415 0.800000 0.118144
0.221095 0.800000 0.118144
0.290583 0.800000 0.118144
0.359199 0.800000 0.118144
0.427127 0.800000 0.118144
0.494489 0.800000 0.118144
0.561370 0.800000 0.118144
0.627833 0.800000 0.118144
0.693927 0.800000 0.118144
0.759690 0.800000 0.118144
0.825155 0.800000 0.118144
0.890348 0.800000 0.118144
0.955290 0.800000 0.118144
1.000000 0.800000 0.118144
0.000000 0.866667 0.118144
0.077860 0.866667 0.118144
0.150415 0.866667 0.118144
0.221095 0.866667 0.118144
0.290583 0.866667 0.118144
0.359199 0.866667 0.118144
0.427127 0.866667 0.118144
0.494489 0.866667 0.118144
0.561370 0.866667 0.118144
0.627833 0.866667 0.118144
0.693927 0.866667 0.118144
0.759690 0.866667 0.118144
0.825155 0.866667 0.118144
0.890348 0.866667 0.118144
0.955290 0.866667 0.118144
1.000000 0.866667 0.118144
0.000000 0.933333 0.118144
0.077860 0.933333 0.118144
0.150415 0.933333 0.118144
0.221095 0.933333 0.118144
0.290583 0.933333 0.118144
0.359199 0.933333 0.118144
0.427127 0.933333 0.118144
0.494489 0.933333 0.118144
0.561370 0.933333 0.118144
0.627833 0.933333 0.118144
0.693927 0.933333 0.118144
0.759690 0.933333 0.118144
0.825155 0.933333 0.118144
0.890348 0.933333 0.118144
0.955290 0.933333 0.118144
1.000000 0.933333 0.118144
0.000000 1.000000 0.118144
0.077860 1.000000 0.118144
0.150415 1.000000 0.118144
0.221095 1.000000 0.118144
0.290583 1.000000 0.118144
0.359199 1.000000 0.118144
0.427127 1.000000 0.118144
0.494489 1.000000 0.118144
0.561370 1.000000 0.118144
0.627833 1.000000 0.118144
0.693927 1.000000 0.118144
0.759690 1.000000 0.118144
0.825155 1.000000 0.118144
0.890348 1.000000 0.118144
0.955290 1.000000 0.118144
1.000000 1.000000 0.118144
0.000000 0.000000 0.180845
0.077860 0.000000 0.180845
0.150415 0.000000 0.180845
0.221095 0.000000 0.180845
0.290583 0.000000 0.180845
0.359199 0.000000 0.180845
0.427127 0.000000 0.180845
0.494489 0.000000 0.180845
0.561370 0.000000 0.180845
0.627833 0.000000 0.180845
0.693927 0.000000 0.180845
0.759690 0.000000 0.180845
0.825155 0.000000 0.180845
0.890348 0.000000 0.180845
0.955290 0.000000 0.180845
1.000000 0.000000 0.180845
0.000000 0.066667 0.180845
0.077860 0.066667 0.180845
0.150415 0.066667 0.180845
0.221095 0.066667 0.180845
0.290583 0.066667 0.180845
0.359199 0.066667 0.180845
0.427127 0.066667 0.180845
0.494489 0.066667 0.180845
0.561370 0.066667 0.180845
0.627833 0.066667 0.180845
0.693927 0.066667 0.180845
0.759690 0.066667 0.180845
0.825155 0.066667 0.180845
0.890348 0.066667 0.180845
0.955290 0.066667 0.180845
1.000000 0.066667 0.180845
0.000000 0.133333 0.180845
0.077860 0.133333 0.180845
0.150415 0.133333 0.180845
0.221095 0.133333 0.180845
0.290583 0.133333 0.180845
0.359199 0.133333 0.180845
0.427127 0.133333 0.180845
0.494489 0.133333 0.180845
0.561370 0.133333 0.180845
0.627833 0.133333 0.180845
0.693927 0.133333 0.180845
0.759690 0.133333 0.180845
0.825155 0.133333 0.180845
0.890348 0.133333 0.180845
0.955290 0.133333 0.180845
1.000000 0.133333 0.180845
0.000000 0.200000 0.180845
0.077860 0.200000 0.180845
0.150415 0.200000 0.180845
0.221095 0.200000 0.180845
0.290583 0.200000 0.180845
0.359199 0.200000 0.180845
0.427127 0.200000 0.180845
0.494489 0.200000 0.180845
0.561370 0.200000 0.180845
0.627833 0.200000 0.180845
0.693927 0.200000 0.180845
0.759690 0.200000 0.180845
0.825155 0.200000 0.180845
0.890348 0.200000 0.180845
0.955290 0.200000 0.180845
1.000000 0.200000 0.180845
0.000000 0.266667 0.180845
0.077860 0.266667 0.180845
0.150415 0.266667 0.180845
0.221095 0.266667 0.180845
0.290583 0.266667 0.180845
0.359199 0.266667 0.180845
0.427127 0.266667 0.180845
0.494489 0.266667 0.180845
0.561370 0.266667 0.180845
0.627833 0.266667 0.180845
0.693927 0.266667 0.180845
0.759690 0.266667 0.180845
0.825155 0.266667 0.180845
0.890348 0.266667 0.180845
0.955290 0.266667 0.180845
1.000000 0.266667 0.180845
0.000000 0.333333 0.180845
0.077860 0.333333 0.180845
0.150415 0.333333 0.180845
0.221095 0.333333 0.180845
0.290583 0.333333 0.180845
0.359199 0.333333 0.180845
0.427127 0.333333 0.180845
0.494489 0.333333 0.180845
0.561370 0.333333 0.180845
0.627833 0.333333 0.180845
0.693927 0.333333 0.180845
0.759690 0.333333 0.180845
0.825155 0.333333 0.180845
0.890348 0.333333 0.180845
0.955290 0.333333 0.180845
1.000000 0.333333 0.180845
0.000000 0.400000 0.180845
0.077860 0.400000 0.180845
0.150415 0.400000 0.180845
0.221095 0.400000 0.180845
0.290583 0.400000 0.180845
0.359199 0.400000 0.180845
0.427127 0.400000 0.180845
0.494489 0.400000 0.180845
0.561370 0.400000 0.180845
0.627833 0.400000 0.180845
0.693927 0.400000 0.180845
0.759690 0.400000 0.180845
0.825155 0.400000 0.180845
0.890348 0.400000 0.180845
0.955290 0.400000 0.180845
1.000000 0.400000 0.180845
0.000000 0.466667 0.180845
0.077860 0.466667 0.180845
0.150415 0.466667 0.180845
0.221095 0.466667 0.180845
0.290583 0.466667 0.180845
0.359199 0.466667 0.180845
0.427127 0.466667 0.180845
