assets/luts/sony_venice.cube
TITLE "Sony Venice s709 Simulation"
LUT_3D_SIZE 16
0.000000 0.000000 0.000000
0.053424 0.000000 0.000000
0.114591 0.000000 0.000000
0.179121 0.000000 0.000000
0.245972 0.000000 0.000000
0.314631 0.000000 0.000000
0.384787 0.000000 0.000000
0.456234 0.000000 0.000000
0.528821 0.000000 0.000000
0.602435 0.000000 0.000000
0.676988 0.000000 0.000000
0.752408 0.000000 0.000000
0.828637 0.000000 0.000000
0.905625 0.000000 0.000000
0.983331 0.000000 0.000000
1.000000 0.000000 0.000000
0.000000 0.051868 0.000000
0.053523 0.051868 0.000000
0.114803 0.051868 0.000000
0.179453 0.051868 0.000000
0.246427 0.051868 0.000000
0.315212 0.051868 0.000000
0.385498 0.051868 0.000000
0.457076 0.051868 0.000000
0.529797 0.051868 0.000000
0.603546 0.051868 0.000000
0.678235 0.051868 0.000000
0.753793 0.051868 0.000000
0.830160 0.051868 0.000000
0.907289 0.051868 0.000000
0.985136 0.051868 0.000000
1.000000 0.051868 0.000000
0.000000 0.111182 0.000000
0.053636 0.111182 0.000000
0.115046 0.111182 0.000000
0.179832 0.111182 0.000000
0.246948 0.111182 0.000000
0.315878 0.111182 0.000000
0.386311 0.111182 0.000000
0.458039 0.111182 0.000000
0.530912 0.111182 0.000000
0.604815 0.111182 0.000000
0.679661 0.111182 0.000000
0.755376 0.111182 0.000000
0.831903 0.111182 0.000000
0.909192 0.111182 0.000000
0.987201 0.111182 0.000000
1.000000 0.111182 0.000000
0.000000 0.173673 0.000000
0.053755 0.173673 0.000000
0.115302 0.173673 0.000000
0.180231 0.173673 0.000000
0.247496 0.173673 0.000000
0.316578 0.173673 0.000000
0.387167 0.173673 0.000000
0.459054 0.173673 0.000000
0.532087 0.173673 0.000000
0.606153 0.173673 0.000000
0.681163 0.173673 0.000000
0.757044 0.173673 0.000000
0.833738 0.173673 0.000000
0.911196 0.173673 0.000000
0.989376 0.173673 0.000000
1.000000 0.173673 0.000000
0.000000 0.238323 0.000000
0.053879 0.238323 0.000000
0.115566 0.238323 0.000000
0.180645 0.238323 0.000000
0.248063 0.238323 0.000000
0.317303 0.238323 0.000000
0.388053 0.238323 0.000000
0.460104 0.238323 0.000000
0.533303 0.238323 0.000000
0.607537 0.238323 0.000000
0.682717 0.238323 0.000000
0.758770 0.238323 0.000000
0.835638 0.238323 0.000000
0.913270 0.238323 0.000000
0.991626 0.238323 0.000000
1.000000 0.238323 0.000000
0.000000 0.304626 0.000000
0.054006 0.304626 0.000000
0.115838 0.304626 0.000000
0.181069 0.304626 0.000000
0.248645 0.304626 0.000000
0.318047 0.304626 0.000000
0.388962 0.304626 0.000000
0.461180 0.304626 0.000000
0.534550 0.304626 0.000000
0.608957 0.304626 0.000000
0.684311 0.304626 0.000000
0.760540 0.304626 0.000000
0.837585 0.304626 0.000000
0.915397 0.304626 0.000000
0.993933 0.304626 0.000000
1.000000 0.304626 0.000000
0.000000 0.372277 0.000000
0.054135 0.372277 0.000000
0.116115 0.372277 0.000000
0.181501 0.372277 0.000000
0.249238 0.372277 0.000000
0.318805 0.372277 0.000000
0.389889 0.372277 0.000000
0.462279 0.372277 0.000000
0.535822 0.372277 0.000000
0.610405 0.372277 0.000000
0.685937 0.372277 0.000000
0.762346 0.372277 0.000000
0.839573 0.372277 0.000000
0.917567 0.372277 0.000000
0.996288 0.372277 0.000000
1.000000 0.372277 0.000000
0.000000 0.441070 0.000000
0.054266 0.441070 0.000000
0.116396 0.441070 0.000000
0.181941 0.441070 0.000000
0.249842 0.441070 0.000000
0.319577 0.441070 0.000000
0.390832 0.441070 0.000000
0.463396 0.441070 0.000000
0.537116 0.441070 0.000000
0.611877 0.441070 0.000000
0.687590 0.441070 0.000000
0.764182 0.441070 0.000000
0.841593 0.441070 0.000000
0.919774 0.441070 0.000000
0.998682 0.441070 0.000000
1.000000 0.441070 0.000000
0.000000 0.510856 0.000000
0.054399 0.510856 0.000000
0.116682 0.510856 0.000000
0.182387 0.510856 0.000000
0.250454 0.510856 0.000000
0.320359 0.510856 0.000000
0.391788 0.510856 0.000000
0.464529 0.510856 0.000000
0.538428 0.510856 0.000000
0.613371 0.510856 0.000000
0.689268 0.510856 0.000000
0.766045 0.510856 0.000000
0.843643 0.510856 0.000000
0.922013 0.510856 0.000000
1.000000 0.510856 0.000000
1.000000 0.510856 0.000000
0.000000 0.581523 0.000000
0.054534 0.581523 0.000000
0.116971 0.581523 0.000000
0.182839 0.581523 0.000000
0.251074 0.581523 0.000000
0.321152 0.581523 0.000000
0.392757 0.581523 0.000000
0.465676 0.581523 0.000000
0.539757 0.581523 0.000000
0.614884 0.581523 0.000000
0.690966 0.581523 0.000000
0.767931 0.581523 0.000000
0.845719 0.581523 0.000000
0.924280 0.581523 0.000000
1.000000 0.581523 0.000000
1.000000 0.581523 0.000000
0.000000 0.652980 0.000000
0.054671 0.652980 0.000000
0.117263 0.652980 0.000000
0.183296 0.652980 0.000000
0.251701 0.652980 0.000000
0.321953 0.652980 0.000000
0.393736 0.652980 0.000000
0.466836 0.652980 0.000000
0.541101 0.652980 0.000000
0.616414 0.652980 0.000000
0.692684 0.652980 0.000000
0.769839 0.652980 0.000000
0.847818 0.652980 0.000000
0.926572 0.652980 0.000000
1.000000 0.652980 0.000000
1.000000 0.652980 0.000000
0.000000 0.725156 0.000000
0.054808 0.725156 0.000000
0.117559 0.725156 0.000000
0.183757 0.725156 0.000000
0.252334 0.725156 0.000000
0.322763 0.725156 0.000000
0.394725 0.725156 0.000000
0.468008 0.725156 0.000000
0.542458 0.725156 0.000000
0.617959 0.725156 0.000000
0.694419 0.725156 0.000000
0.771766 0.725156 0.000000
0.849939 0.725156 0.000000
0.928887 0.725156 0.000000
1.000000 0.725156 0.000000
1.000000 0.725156 0.000000
0.000000 0.797993 0.000000
0.054948 0.797993 0.000000
0.117857 0.797993 0.000000
0.184223 0.797993 0.000000
0.252973 0.797993 0.000000
0.323579 0.797993 0.000000
0.395723 0.797993 0.000000
0.469191 0.797993 0.000000
0.543828 0.797993 0.000000
0.619518 0.797993 0.000000
0.696170 0.797993 0.000000
0.773710 0.797993 0.000000
0.852078 0.797993 0.000000
0.931224 0.797993 0.000000
1.000000 0.797993 0.000000
1.000000 0.797993 0.000000
0.000000 0.871440 0.000000
0.055088 0.871440 0.000000
0.118157 0.871440 0.000000
0.184692 0.871440 0.000000
0.253617 0.871440 0.000000
0.324403 0.871440 0.000000
0.396730 0.871440 0.000000
0.470383 0.871440 0.000000
0.545209 0.871440 0.000000
0.621090 0.871440 0.000000
0.697935 0.871440 0.000000
0.775671 0.871440 0.000000
0.854236 0.871440 0.000000
0.933580 0.871440 0.000000
1.000000 0.871440 0.000000
1.000000 0.871440 0.000000
0.000000 0.945454 0.000000
0.055229 0.945454 0.000000
0.118460 0.945454 0.000000
0.185166 0.945454 0.000000
0.254267 0.945454 0.000000
0.325233 0.945454 0.000000
0.397744 0.945454 0.000000
0.471585 0.945454 0.000000
0.546601 0.945454 0.000000
0.622675 0.945454 0.000000
0.699714 0.945454 0.000000
0.777646 0.945454 0.000000
0.856410 0.945454 0.000000
0.935954 0.945454 0.000000
1.000000 0.945454 0.000000
1.000000 0.945454 0.000000
0.000000 1.000000 0.000000
0.055371 1.000000 0.000000
0.118766 1.000000 0.000000
0.185642 1.000000 0.000000
0.254921 1.000000 0.000000
0.326069 1.000000 0.000000
0.398766 1.000000 0.000000
0.472795 1.000000 0.000000
0.548003 1.000000 0.000000
0.624270 1.000000 0.000000
0.701506 1.000000 0.000000
0.779636 1.000000 0.000000
0.858600 1.000000 0.000000
0.938346 1.000000 0.000000
1.000000 1.000000 0.000000
1.000000 1.000000 0.000000
0.000000 0.000000 0.050842
0.053434 0.000000 0.050813
0.114612 0.000000 0.050780
0.179154 0.000000 0.050745
0.246017 0.000000 0.050709
0.314688 0.000000 0.050672
0.384858 0.000000 0.050635
0.456318 0.000000 0.050596
0.528918 0.000000 0.050557
0.602545 0.000000 0.050518
0.677112 0.000000 0.050478
0.752545 0.000000 0.050438
0.828787 0.000000 0.050398
0.905790 0.000000 0.050357
0.983510 0.000000 0.050316
1.000000 0.000000 0.050274
0.000000 0.051868 0.050747
0.053533 0.051868 0.050718
0.114824 0.051868 0.050685
0.179486 0.051868 0.050651
0.246472 0.051868 0.050615
0.315270 0.051868 0.050578
0.385569 0.051868 0.050540
0.457160 0.051868 0.050502
0.529893 0.051868 0.050463
0.603656 0.051868 0.050424
0.678358 0.051868 0.050384
0.753930 0.051868 0.050344
0.830311 0.051868 0.050303
0.907453 0.051868 0.050262
0.985315 0.051868 0.050221
1.000000 0.051868 0.050180
0.000000 0.111182 0.050640
0.053646 0.111182 0.050611
0.115067 0.111182 0.050578
0.179865 0.111182 0.050543
0.246993 0.111182 0.050507
0.315935 0.111182 0.050470
0.386381 0.111182 0.050432
0.458123 0.111182 0.050394
0.531009 0.111182 0.050355
0.604925 0.111182 0.050316
0.679784 0.111182 0.050276
0.755513 0.111182 0.050236
0.832053 0.111182 0.050195
0.909356 0.111182 0.050155
0.987379 0.111182 0.050113
1.000000 0.111182 0.050072
0.000000 0.173673 0.050526
0.053765 0.173673 0.050497
0.115323 0.173673 0.050464
0.180264 0.173673 0.050429
0.247541 0.173673 0.050393
0.316636 0.173673 0.050356
0.387238 0.173673 0.050319
0.459137 0.173673 0.050280
0.532184 0.173673 0.050242
0.606263 0.173673 0.050202
0.681286 0.173673 0.050163
0.757181 0.173673 0.050122
0.833889 0.173673 0.050082
0.911361 0.173673 0.050041
0.989554 0.173673 0.050000
1.000000 0.173673 0.049958
0.000000 0.238323 0.050408
0.053889 0.238323 0.050379
0.115587 0.238323 0.050346
0.180678 0.238323 0.050312
0.248108 0.238323 0.050276
0.317361 0.238323 0.050239
0.388124 0.238323 0.050201
0.460187 0.238323 0.050163
0.533400 0.238323 0.050124
0.607647 0.238323 0.050085
0.682840 0.238323 0.050045
0.758907 0.238323 0.050005
0.835788 0.238323 0.049964
0.913435 0.238323 0.049923
0.991804 0.238323 0.049882
1.000000 0.238323 0.049841
0.000000 0.304626 0.050288
0.054015 0.304626 0.050259
0.115859 0.304626 0.050226
0.181102 0.304626 0.050191
0.248690 0.304626 0.050155
0.318104 0.304626 0.050118
0.389032 0.304626 0.050081
0.461264 0.304626 0.050042
0.534646 0.304626 0.050003
0.609066 0.304626 0.049964
0.684434 0.304626 0.049924
0.760677 0.304626 0.049884
0.837736 0.304626 0.049844
0.915562 0.304626 0.049803
0.994112 0.304626 0.049762
1.000000 0.304626 0.049720
0.000000 0.372277 0.050165
0.054144 0.372277 0.050136
0.116136 0.372277 0.050103
0.181534 0.372277 0.050068
0.249283 0.372277 0.050032
0.318863 0.372277 0.049995
0.389960 0.372277 0.049958
0.462362 0.372277 0.049919
0.535919 0.372277 0.049880
0.610515 0.372277 0.049841
0.686060 0.372277 0.049801
0.762483 0.372277 0.049761
0.839723 0.372277 0.049721
0.917732 0.372277 0.049680
0.996466 0.372277 0.049639
1.000000 0.372277 0.049597
0.000000 0.441070 0.050040
0.054276 0.441070 0.050011
0.116417 0.441070 0.049978
0.181974 0.441070 0.049943
0.249887 0.441070 0.049907
0.319634 0.441070 0.049870
0.390902 0.441070 0.049832
0.463479 0.441070 0.049794
0.537212 0.441070 0.049755
0.611987 0.441070 0.049716
0.687714 0.441070 0.049676
0.764319 0.441070 0.049636
0.841744 0.441070 0.049596
0.919939 0.441070 0.049555
0.998861 0.441070 0.049514
1.000000 0.441070 0.049472
0.000000 0.510856 0.049913
0.054409 0.510856 0.049884
0.116703 0.510856 0.049851
0.182420 0.510856 0.049816
0.250499 0.510856 0.049780
0.320417 0.510856 0.049743
0.391859 0.510856 0.049706
0.464612 0.510856 0.049667
0.538525 0.510856 0.049628
0.613481 0.510856 0.049589
0.689391 0.510856 0.049549
0.766182 0.510856 0.049509
0.843794 0.510856 0.049469
0.922177 0.510856 0.049428
1.000000 0.510856 0.049387
1.000000 0.510856 0.049345
0.000000 0.581523 0.049784
0.054544 0.581523 0.049755
0.116992 0.581523 0.049722
0.182872 0.581523 0.049688
0.251119 0.581523 0.049652
0.321209 0.581523 0.049615
0.392827 0.581523 0.049577
0.465759 0.581523 0.049539
0.539854 0.581523 0.049500
0.614994 0.581523 0.049461
0.691090 0.581523 0.049421
0.768068 0.581523 0.049381
0.845870 0.581523 0.049340
0.924444 0.581523 0.049299
1.000000 0.581523 0.049258
1.000000 0.581523 0.049217
0.000000 0.652980 0.049654
0.054680 0.652980 0.049625
0.117284 0.652980 0.049592
0.183329 0.652980 0.049558
0.251746 0.652980 0.049522
0.322011 0.652980 0.049485
0.393806 0.652980 0.049447
0.466920 0.652980 0.049409
0.541197 0.652980 0.049370
0.616524 0.652980 0.049331
0.692807 0.652980 0.049291
0.769976 0.652980 0.049251
0.847969 0.652980 0.049210
0.926737 0.652980 0.049169
1.000000 0.652980 0.049128
1.000000 0.652980 0.049087
0.000000 0.725156 0.049523
0.054818 0.725156 0.049494
0.117580 0.725156 0.049461
0.183790 0.725156 0.049426
0.252379 0.725156 0.049390
0.322820 0.725156 0.049354
0.394795 0.725156 0.049316
0.468092 0.725156 0.049278
0.542555 0.725156 0.049239
0.618069 0.725156 0.049199
0.694542 0.725156 0.049160
0.771903 0.725156 0.049120
0.850089 0.725156 0.049079
0.929052 0.725156 0.049038
1.000000 0.725156 0.048997
1.000000 0.725156 0.048955
0.000000 0.797993 0.049391
0.054957 0.797993 0.049362
0.117878 0.797993 0.049329
0.184256 0.797993 0.049294
0.253018 0.797993 0.049258
0.323637 0.797993 0.049221
0.395794 0.797993 0.049183
0.469274 0.797993 0.049145
0.543924 0.797993 0.049106
0.619628 0.797993 0.049067
0.696293 0.797993 0.049027
0.773847 0.797993 0.048987
0.852229 0.797993 0.048947
0.931389 0.797993 0.048906
1.000000 0.797993 0.048864
1.000000 0.797993 0.048823
0.000000 0.871440 0.049257
0.055098 0.871440 0.049228
0.118178 0.871440 0.049195
0.184725 0.871440 0.049160
0.253662 0.871440 0.049124
0.324461 0.871440 0.049088
0.396800 0.871440 0.049050
0.470467 0.871440 0.049012
0.545306 0.871440 0.048973
0.621200 0.871440 0.048933
0.698059 0.871440 0.048894
0.775808 0.871440 0.048854
0.854386 0.871440 0.048813
0.933745 0.871440 0.048772
1.000000 0.871440 0.048731
1.000000 0.871440 0.048689
0.000000 0.945454 0.049122
0.055239 0.945454 0.049094
0.118481 0.945454 0.049061
0.185198 0.945454 0.049026
0.254312 0.945454 0.048990
0.325290 0.945454 0.048953
0.397814 0.945454 0.048915
0.471668 0.945454 0.048877
0.546698 0.945454 0.048838
0.622785 0.945454 0.048799
0.699838 0.945454 0.048759
0.777783 0.945454 0.048719
0.856561 0.945454 0.048678
0.936119 0.945454 0.048638
1.000000 0.945454 0.048596
1.000000 0.945454 0.048555
0.000000 1.000000 0.048987
0.055381 1.000000 0.048958
0.118787 1.000000 0.048925
0.185675 1.000000 0.048890
0.254966 1.000000 0.048854
0.326126 1.000000 0.048817
0.398836 1.000000 0.048780
0.472879 1.000000 0.048741
0.548099 1.000000 0.048703
0.624380 1.000000 0.048663
0.701630 1.000000 0.048624
0.779773 1.000000 0.048583
0.858751 1.000000 0.048543
0.938510 1.000000 0.048502
1.000000 1.000000 0.048461
1.000000 1.000000 0.048419
0.000000 0.000000 0.108959
0.053445 0.000000 0.108897
0.114636 0.000000 0.108826
0.179191 0.000000 0.108751
0.246069 0.000000 0.108674
0.314754 0.000000 0.108595
0.384938 0.000000 0.108515
0.456413 0.000000 0.108433
0.529028 0.000000 0.108349
0.602671 0.000000 0.108265
0.677253 0.000000 0.108180
0.752702 0.000000 0.108094
0.828960 0.000000 0.108007
0.905978 0.000000 0.107919
0.983714 0.000000 0.107831
1.000000 0.000000 0.107742
0.000000 0.051868 0.108756
0.053544 0.051868 0.108695
0.114848 0.051868 0.108624
0.179523 0.051868 0.108549
0.246524 0.051868 0.108472
0.315336 0.051868 0.108393
0.385649 0.051868 0.108312
0.457255 0.051868 0.108230
0.530004 0.051868 0.108147
0.603781 0.051868 0.108063
0.678499 0.051868 0.107978
0.754086 0.051868 0.107892
0.830484 0.051868 0.107805
0.907642 0.051868 0.107717
0.985519 0.051868 0.107629
1.000000 0.051868 0.107540
0.000000 0.111182 0.108525
0.053657 0.111182 0.108463
0.115091 0.111182 0.108393
0.179902 0.111182 0.108318
0.247044 0.111182 0.108241
0.316001 0.111182 0.108162
0.386462 0.111182 0.108081
0.458218 0.111182 0.107999
0.531119 0.111182 0.107916
0.605051 0.111182 0.107832
0.679925 0.111182 0.107746
0.755670 0.111182 0.107660
0.832226 0.111182 0.107573
0.909545 0.111182 0.107486
0.987584 0.111182 0.107398
1.000000 0.111182 0.107309
0.000000 0.173673 0.108282
0.053776 0.173673 0.108220
0.115347 0.173673 0.108149
0.180302 0.173673 0.108075
0.247592 0.173673 0.107997
0.316702 0.173673 0.107918
0.387318 0.173673 0.107838
0.459233 0.173673 0.107756
0.532294 0.173673 0.107672
0.606389 0.173673 0.107588
0.681427 0.173673 0.107503
0.757338 0.173673 0.107417
0.834062 0.173673 0.107330
0.911549 0.173673 0.107242
0.989759 0.173673 0.107154
1.000000 0.173673 0.107065
0.000000 0.238323 0.108030
0.053900 0.238323 0.107968
0.115611 0.238323 0.107897
0.180715 0.238323 0.107823
0.248160 0.238323 0.107745
0.317427 0.238323 0.107666
0.388204 0.238323 0.107586
0.460282 0.238323 0.107504
0.533510 0.238323 0.107420
0.607773 0.238323 0.107336
0.682981 0.238323 0.107251
0.759064 0.238323 0.107165
0.835961 0.238323 0.107078
0.913623 0.238323 0.106990
0.992009 0.238323 0.106902
1.000000 0.238323 0.106813
0.000000 0.304626 0.107771
0.054027 0.304626 0.107709
0.115883 0.304626 0.107639
0.181139 0.304626 0.107564
0.248741 0.304626 0.107487
0.318170 0.304626 0.107408
0.389113 0.304626 0.107327
0.461359 0.304626 0.107245
0.534757 0.304626 0.107162
0.609192 0.304626 0.107078
0.684575 0.304626 0.106992
0.760834 0.304626 0.106906
0.837908 0.304626 0.106819
0.915750 0.304626 0.106732
0.994316 0.304626 0.106644
1.000000 0.304626 0.106555
0.000000 0.372277 0.107508
0.054156 0.372277 0.107446
0.116160 0.372277 0.107375
0.181572 0.372277 0.107300
0.249335 0.372277 0.107223
0.318929 0.372277 0.107144
0.390040 0.372277 0.107064
0.462457 0.372277 0.106981
0.536029 0.372277 0.106898
0.610640 0.372277 0.106814
0.686201 0.372277 0.106729
0.762639 0.372277 0.106643
0.839896 0.372277 0.106556
0.917920 0.372277 0.106468
0.996671 0.372277 0.106380
1.000000 0.372277 0.106291
0.000000 0.441070 0.107239
0.054287 0.441070 0.107178
0.116441 0.441070 0.107107
0.182011 0.441070 0.107032
0.249938 0.441070 0.106955
0.319700 0.441070 0.106876
0.390983 0.441070 0.106795
0.463574 0.441070 0.106713
0.537323 0.441070 0.106630
0.612113 0.441070 0.106546
0.687855 0.441070 0.106461
0.764476 0.441070 0.106374
0.841917 0.441070 0.106288
0.920127 0.441070 0.106200
0.999065 0.441070 0.106112
1.000000 0.441070 0.106023
0.000000 0.510856 0.106967
0.054420 0.510856 0.106906
0.116727 0.510856 0.106835
0.182458 0.510856 0.106760
0.250551 0.510856 0.106683
0.320483 0.510856 0.106604
0.391939 0.510856 0.106523
0.464707 0.510856 0.106441
0.538635 0.510856 0.106358
0.613607 0.510856 0.106274
0.689532 0.510856 0.106189
0.766339 0.510856 0.106102
0.843967 0.510856 0.106016
0.922366 0.510856 0.105928
1.000000 0.510856 0.105840
1.000000 0.510856 0.105751
0.000000 0.581523 0.106692
0.054555 0.581523 0.106630
0.117016 0.581523 0.106559
0.182909 0.581523 0.106485
0.251170 0.581523 0.106408
0.321275 0.581523 0.106329
0.392908 0.581523 0.106248
0.465855 0.581523 0.106166
0.539964 0.581523 0.106083
0.615120 0.581523 0.105998
0.691231 0.581523 0.105913
0.768225 0.581523 0.105827
0.846042 0.581523 0.105740
0.924633 0.581523 0.105653
1.000000 0.581523 0.105564
1.000000 0.581523 0.105475
0.000000 0.652980 0.106413
0.054692 0.652980 0.106352
0.117308 0.652980 0.106281
0.183366 0.652980 0.106206
0.251797 0.652980 0.106129
0.322077 0.652980 0.106050
0.393887 0.652980 0.105969
0.467015 0.652980 0.105887
0.541308 0.652980 0.105804
0.616649 0.652980 0.105720
0.692949 0.652980 0.105635
0.770133 0.652980 0.105548
0.848142 0.652980 0.105462
0.926925 0.652980 0.105374
1.000000 0.652980 0.105286
1.000000 0.652980 0.105197
0.000000 0.725156 0.106132
0.054829 0.725156 0.106070
0.117604 0.725156 0.105999
0.183828 0.725156 0.105925
0.252431 0.725156 0.105848
0.322886 0.725156 0.105769
0.394876 0.725156 0.105688
0.468187 0.725156 0.105606
0.542665 0.725156 0.105523
0.618194 0.725156 0.105438
0.694683 0.725156 0.105353
0.772059 0.725156 0.105267
0.850262 0.725156 0.105180
0.929240 0.725156 0.105093
1.000000 0.725156 0.105004
1.000000 0.725156 0.104915
0.000000 0.797993 0.105848
0.054969 0.797993 0.105786
0.117902 0.797993 0.105716
0.184293 0.797993 0.105641
0.253070 0.797993 0.105564
0.323703 0.797993 0.105485
0.395874 0.797993 0.105404
0.469370 0.797993 0.105322
0.544035 0.797993 0.105239
0.619754 0.797993 0.105155
0.696434 0.797993 0.105069
0.774004 0.797993 0.104983
0.852401 0.797993 0.104896
0.931577 0.797993 0.104809
1.000000 0.797993 0.104720
1.000000 0.797993 0.104632
0.000000 0.871440 0.105562
0.055109 0.871440 0.105500
0.118203 0.871440 0.105429
0.184763 0.871440 0.105355
0.253714 0.871440 0.105278
0.324526 0.871440 0.105199
0.396881 0.871440 0.105118
0.470562 0.871440 0.105036
0.545416 0.871440 0.104953
0.621326 0.871440 0.104868
0.698200 0.871440 0.104783
0.775964 0.871440 0.104697
0.854559 0.871440 0.104610
0.933933 0.871440 0.104522
1.000000 0.871440 0.104434
1.000000 0.871440 0.104345
0.000000 0.945454 0.105273
0.055250 0.945454 0.105211
0.118505 0.945454 0.105141
0.185236 0.945454 0.105066
0.254363 0.945454 0.104989
0.325356 0.945454 0.104910
0.397895 0.945454 0.104829
0.471764 0.945454 0.104747
0.546808 0.945454 0.104664
0.622910 0.945454 0.104580
0.699979 0.945454 0.104495
0.777940 0.945454 0.104408
0.856733 0.945454 0.104322
0.936307 0.945454 0.104234
1.000000 0.945454 0.104146
1.000000 0.945454 0.104057
0.000000 1.000000 0.104983
0.055392 1.000000 0.104921
0.118811 1.000000 0.104850
0.185713 1.000000 0.104776
0.255017 1.000000 0.104699
0.326192 1.000000 0.104619
0.398916 1.000000 0.104539
0.472974 1.000000 0.104457
0.548210 1.000000 0.104373
0.624506 1.000000 0.104289
0.701771 1.000000 0.104204
0.779930 1.000000 0.104118
0.858923 1.000000 0.104031
0.938699 1.000000 0.103943
1.000000 1.000000 0.103855
1.000000 1.000000 0.103766
0.000000 0.000000 0.170163
0.053457 0.000000 0.170067
0.114661 0.000000 0.169956
0.179231 0.000000 0.169840
0.246123 0.000000 0.169719
0.314824 0.000000 0.169596
0.385023 0.000000 0.169470
0.456513 0.000000 0.169342
0.529144 0.000000 0.169212
0.602803 0.000000 0.169080
0.677401 0.000000 0.168947
0.752867 0.000000 0.168812
0.829142 0.000000 0.168677
0.906176 0.000000 0.168540
0.983929 0.000000 0.168402
1.000000 0.000000 0.168263
0.000000 0.051868 0.169848
0.053556 0.051868 0.169751
0.114873 0.051868 0.169640
0.179563 0.051868 0.169524
0.246578 0.051868 0.169403
0.315405 0.051868 0.169280
0.385734 0.051868 0.169154
0.457355 0.051868 0.169026
0.530120 0.051868 0.168896
0.603914 0.051868 0.168764
0.678648 0.051868 0.168631
0.754251 0.051868 0.168496
0.830665 0.051868 0.168361
0.907840 0.051868 0.168224
0.985735 0.051868 0.168086
1.000000 0.051868 0.167947
0.000000 0.111182 0.169486
0.053669 0.111182 0.169390
0.115116 0.111182 0.169279
0.179942 0.111182 0.169163
0.247098 0.111182 0.169042
0.316070 0.111182 0.168919
0.386547 0.111182 0.168793
0.458318 0.111182 0.168665
0.531235 0.111182 0.168535
0.605183 0.111182 0.168403
0.680074 0.111182 0.168270
0.755835 0.111182 0.168135
0.832408 0.111182 0.168000
0.909743 0.111182 0.167863
0.987799 0.111182 0.167725
1.000000 0.111182 0.167586
0.000000 0.173673 0.169106
0.053788 0.173673 0.169009
0.115372 0.173673 0.168899
0.180341 0.173673 0.168782
0.247647 0.173673 0.168662
0.316771 0.173673 0.168538
0.387403 0.173673 0.168412
0.459333 0.173673 0.168284
0.532411 0.173673 0.168154
0.606521 0.173673 0.168022
0.681576 0.173673 0.167889
0.757503 0.173673 0.167755
0.834243 0.173673 0.167619
0.911748 0.173673 0.167482
0.989974 0.173673 0.167344
1.000000 0.173673 0.167205
0.000000 0.238323 0.168712
0.053912 0.238323 0.168616
0.115637 0.238323 0.168505
0.180755 0.238323 0.168389
0.248214 0.238323 0.168268
0.317496 0.238323 0.168145
0.388289 0.238323 0.168019
0.460383 0.238323 0.167890
0.533626 0.238323 0.167760
0.607905 0.238323 0.167629
0.683130 0.238323 0.167496
0.759229 0.238323 0.167361
0.836142 0.238323 0.167225
0.913822 0.238323 0.167089
0.992224 0.238323 0.166951
1.000000 0.238323 0.166812
0.000000 0.304626 0.168309
0.054038 0.304626 0.168212
0.115908 0.304626 0.168101
0.181179 0.304626 0.167985
0.248796 0.304626 0.167864
0.318240 0.304626 0.167741
0.389198 0.304626 0.167615
0.461459 0.304626 0.167487
0.534873 0.304626 0.167357
0.609324 0.304626 0.167225
0.684724 0.304626 0.167092
0.760999 0.304626 0.166957
0.838090 0.304626 0.166822
0.915948 0.304626 0.166685
0.994532 0.304626 0.166547
1.000000 0.304626 0.166408
0.000000 0.372277 0.167897
0.054167 0.372277 0.167800
0.116185 0.372277 0.167689
0.181611 0.372277 0.167573
0.249389 0.372277 0.167453
0.318998 0.372277 0.167329
0.390125 0.372277 0.167203
0.462558 0.372277 0.167075
0.536145 0.372277 0.166945
0.610773 0.372277 0.166813
0.686350 0.372277 0.166680
0.762805 0.372277 0.166546
0.840077 0.372277 0.166410
0.918119 0.372277 0.166273
0.996886 0.372277 0.166135
1.000000 0.372277 0.165996
0.000000 0.441070 0.167478
0.054299 0.441070 0.167381
0.116466 0.441070 0.167271
0.182051 0.441070 0.167154
0.249993 0.441070 0.167034
0.319770 0.441070 0.166910
0.391067 0.441070 0.166784
