assets/luts/sony_venice.cube
TITLE "Sony Venice s709 Simulation"
LUT_3D_SIZE 6
0.000000 0.000000 0.000000
0.179121 0.000000 0.000000
0.384787 0.000000 0.000000
0.602435 0.000000 0.000000
0.828637 0.000000 0.000000
1.000000 0.000000 0.000000
0.000000 0.173673 0.000000
0.180231 0.173673 0.000000
0.387167 0.173673 0.000000
0.606153 0.173673 0.000000
0.833738 0.173673 0.000000
1.000000 0.173673 0.000000
0.000000 0.372277 0.000000
0.181501 0.372277 0.000000
0.389889 0.372277 0.000000
0.610405 0.372277 0.000000
0.839573 0.372277 0.000000
1.000000 0.372277 0.000000
0.000000 0.581523 0.000000
0.182839 0.581523 0.000000
0.392757 0.581523 0.000000
0.614884 0.581523 0.000000
0.845719 0.581523 0.000000
1.000000 0.581523 0.000000
0.000000 0.797993 0.000000
0.184223 0.797993 0.000000
0.395723 0.797993 0.000000
0.619518 0.797993 0.000000
0.852078 0.797993 0.000000
1.000000 0.797993 0.000000
0.000000 1.000000 0.000000
0.185642 1.000000 0.000000
0.398766 1.000000 0.000000
0.624270 1.000000 0.000000
0.858600 1.000000 0.000000
1.000000 1.000000 0.000000
0.000000 0.000000 0.170163
0.179231 0.000000 0.169840
0.385023 0.000000 0.169470
0.602803 0.000000 0.169080
0.829142 0.000000 0.168677
1.000000 0.000000 0.168263
0.000000 0.173673 0.169106
0.180341 0.173673 0.168782
0.387403 0.173673 0.168412
0.606521 0.173673 0.168022
0.834243 0.173673 0.167619
1.000000 0.173673 0.167205
0.000000 0.372277 0.167897
0.181611 0.372277 0.167573
0.390125 0.372277 0.167203
0.610773 0.372277 0.166813
0.840077 0.372277 0.166410
1.000000 0.372277 0.165996
0.000000 0.581523 0.166623
0.182949 0.581523 0.166299
0.392992 0.581523 0.165929
0.615252 0.581523 0.165539
0.846224 0.581523 0.165136
1.000000 0.581523 0.164722
0.000000 0.797993 0.165305
0.184333 0.797993 0.164981
0.395959 0.797993 0.164611
0.619886 0.797993 0.164221
0.852583 0.797993 0.163818
1.000000 0.797993 0.163404
0.000000 1.000000 0.163953
0.185752 1.000000 0.163629
0.399001 1.000000 0.163259
0.624638 1.000000 0.162869
0.859105 1.000000 0.162466
1.000000 1.000000 0.162052
0.000000 0.000000 0.364497
0.179357 0.000000 0.363803
0.385292 0.000000 0.363010
0.603224 0.000000 0.362174
0.829719 0.000000 0.361309
1.000000 0.000000 0.360423
0.000000 0.173673 0.362230
0.180467 0.173673 0.361536
0.387672 0.173673 0.360743
0.606942 0.173673 0.359907
0.834821 0.173673 0.359043
1.000000 0.173673 0.358156
0.000000 0.372277 0.359638
0.181737 0.372277 0.358944
0.390394 0.372277 0.358151
0.611193 0.372277 0.357315
0.840655 0.372277 0.356451
1.000000 0.372277 0.355564
0.000000 0.581523 0.356907
0.183075 0.581523 0.356213
0.393262 0.581523 0.355420
0.615673 0.581523 0.354584
0.846802 0.581523 0.353720
1.000000 0.581523 0.352833
0.000000 0.797993 0.354081
0.184458 0.797993 0.353388
0.396228 0.797993 0.352595
0.620307 0.797993 0.351759
0.853160 0.797993 0.350894
1.000000 0.797993 0.350008
0.000000 1.000000 0.351184
0.185878 1.000000 0.350490
0.399271 1.000000 0.349697
0.625059 1.000000 0.348861
0.859682 1.000000 0.347997
1.000000 1.000000 0.347110
0.000000 0.000000 0.568947
0.179489 0.000000 0.567863
0.385576 0.000000 0.566624
0.603667 0.000000 0.565319
0.830327 0.000000 0.563968
1.000000 0.000000 0.562583
0.000000 0.173673 0.565406
0.180599 0.173673 0.564322
0.387956 0.173673 0.563083
0.607385 0.173673 0.561778
0.835429 0.173673 0.560428
1.000000 0.173673 0.559043
0.000000 0.372277 0.561357
0.181869 0.372277 0.560273
0.390678 0.372277 0.559034
0.611637 0.372277 0.557729
0.841263 0.372277 0.556379
1.000000 0.372277 0.554994
0.000000 0.581523 0.557091
0.183207 0.581523 0.556007
0.393545 0.581523 0.554768
0.616116 0.581523 0.553463
0.847410 0.581523 0.552113
1.000000 0.581523 0.550728
0.000000 0.797993 0.552678
0.184591 0.797993 0.551594
0.396512 0.797993 0.550355
0.620750 0.797993 0.549050
0.853769 0.797993 0.547699
1.000000 0.797993 0.546314
0.000000 1.000000 0.548152
0.186010 1.000000 0.547068
0.399554 1.000000 0.545829
0.625502 1.000000 0.544524
0.860290 1.000000 0.543173
1.000000 1.000000 0.541788
0.000000 0.000000 0.780137
0.179626 0.000000 0.778650
0.385870 0.000000 0.776950
0.604126 0.000000 0.775158
0.830957 0.000000 0.773305
1.000000 0.000000 0.771405
0.000000 0.173673 0.775278
0.180736 0.173673 0.773791
0.388250 0.173673 0.772091
0.607844 0.173673 0.770299
0.836058 0.173673 0.768446
1.000000 0.173673 0.766546
0.000000 0.372277 0.769722
0.182006 0.372277 0.768235
0.390972 0.372277 0.766535
0.612095 0.372277 0.764743
0.841893 0.372277 0.762890
1.000000 0.372277 0.760989
0.000000 0.581523 0.763868
0.183344 0.581523 0.762381
0.393839 0.581523 0.760681
0.616575 0.581523 0.758889
0.848039 0.581523 0.757036
1.000000 0.581523 0.755135
0.000000 0.797993 0.757811
0.184728 0.797993 0.756325
0.396806 0.797993 0.754624
0.621209 0.797993 0.752833
0.854398 0.797993 0.750980
1.000000 0.797993 0.749079
0.000000 1.000000 0.751600
0.186147 1.000000 0.750114
0.399848 1.000000 0.748413
0.625961 1.000000 0.746622
0.860920 1.000000 0.744769
1.000000 1.000000 0.742868
0.000000 0.000000 0.996390
0.179767 0.000000 0.994490
0.386171 0.000000 0.992316
0.604596 0.000000 0.990027
0.831602 0.000000 0.987658
1.000000 0.000000 0.985228
0.000000 0.173673 0.990179
0.180877 0.173673 0.988279
0.388551 0.173673 0.986106
0.608314 0.173673 0.983816
0.836704 0.173673 0.981447
1.000000 0.173673 0.979018
0.000000 0.372277 0.983077
0.182147 0.372277 0.981177
0.391273 0.372277 0.979004
0.612566 0.372277 0.976714
0.842538 0.372277 0.974345
1.000000 0.372277 0.971916
0.000000 0.581523 0.975595
0.183484 0.581523 0.973694
0.394140 0.581523 0.971521
0.617045 0.581523 0.969231
0.848685 0.581523 0.966863
1.000000 0.581523 0.964433
0.000000 0.797993 0.967854
0.184868 0.797993 0.965953
0.397107 0.797993 0.963780
0.621679 0.797993 0.961490
0.855044 0.797993 0.959122
1.000000 0.797993 0.956692
0.000000 1.000000 0.959915
0.186288 1.000000 0.958014
0.400149 1.000000 0.955841
0.626431 1.000000 0.953551
0.861565 1.000000 0.951183
1.000000 1.000000 0.948753
