assets/luts/sony_scinetone.cube
TITLE "Sony S-Cinetone Simulation"
LUT_3D_SIZE 6
0.000000 0.000000 0.000000
0.221095 0.000000 0.000000
0.427127 0.000000 0.000000
0.627833 0.000000 0.000000
0.825155 0.000000 0.000000
1.000000 0.000000 0.000000
0.000000 0.200000 0.000000
0.221095 0.200000 0.000000
0.427127 0.200000 0.000000
0.627833 0.200000 0.000000
0.825155 0.200000 0.000000
1.000000 0.200000 0.000000
0.000000 0.400000 0.000000
0.221095 0.400000 0.000000
0.427127 0.400000 0.000000
0.627833 0.400000 0.000000
0.825155 0.400000 0.000000
1.000000 0.400000 0.000000
0.000000 0.600000 0.000000
0.221095 0.600000 0.000000
0.427127 0.600000 0.000000
0.627833 0.600000 0.000000
0.825155 0.600000 0.000000
1.000000 0.600000 0.000000
0.000000 0.800000 0.000000
0.221095 0.800000 0.000000
0.427127 0.800000 0.000000
0.627833 0.800000 0.000000
0.825155 0.800000 0.000000
1.000000 0.800000 0.000000
0.000000 1.000000 0.000000
0.221095 1.000000 0.000000
0.427127 1.000000 0.000000
0.627833 1.000000 0.000000
0.825155 1.000000 0.000000
1.000000 1.000000 0.000000
0.000000 0.000000 0.180845
0.221095 0.000000 0.180845
0.427127 0.000000 0.180845
0.627833 0.000000 0.180845
0.825155 0.000000 0.180845
1.000000 0.000000 0.180845
0.000000 0.200000 0.180845
0.221095 0.200000 0.180845
0.427127 0.200000 0.180845
0.627833 0.200000 0.180845
0.825155 0.200000 0.180845
1.000000 0.200000 0.180845
0.000000 0.400000 0.180845
0.221095 0.400000 0.180845
0.427127 0.400000 0.180845
0.627833 0.400000 0.180845
0.825155 0.400000 0.180845
1.000000 0.400000 0.180845
0.000000 0.600000 0.180845
0.221095 0.600000 0.180845
0.427127 0.600000 0.180845
0.627833 0.600000 0.180845
0.825155 0.600000 0.180845
1.000000 0.600000 0.180845
0.000000 0.800000 0.180845
0.221095 0.800000 0.180845
0.427127 0.800000 0.180845
0.627833 0.800000 0.180845
0.825155 0.800000 0.180845
1.000000 0.800000 0.180845
0.000000 1.000000 0.180845
0.221095 1.000000 0.180845
0.427127 1.000000 0.180845
0.627833 1.000000 0.180845
0.825155 1.000000 0.180845
1.000000 1.000000 0.180845
0.000000 0.000000 0.374446
0.221095 0.000000 0.374446
0.427127 0.000000 0.374446
0.627833 0.000000 0.374446
0.825155 0.000000 0.374446
1.000000 0.000000 0.374446
0.000000 0.200000 0.374446
0.221095 0.200000 0.374446
0.427127 0.200000 0.374446
0.627833 0.200000 0.374446
0.825155 0.200000 0.374446
1.000000 0.200000 0.374446
0.000000 0.400000 0.374446
0.221095 0.400000 0.374446
0.427127 0.400000 0.374446
0.627833 0.400000 0.374446
0.825155 0.400000 0.374446
1.000000 0.400000 0.374446
0.000000 0.600000 0.374446
0.221095 0.600000 0.374446
0.427127 0.600000 0.374446
0.627833 0.600000 0.374446
0.825155 0.600000 0.374446
1.000000 0.600000 0.374446
0.000000 0.800000 0.374446
0.221095 0.800000 0.374446
0.427127 0.800000 0.374446
0.627833 0.800000 0.374446
0.825155 0.800000 0.374446
1.000000 0.800000 0.374446
0.000000 1.000000 0.374446
0.221095 1.000000 0.374446
0.427127 1.000000 0.374446
0.627833 1.000000 0.374446
0.825155 1.000000 0.374446
1.000000 1.000000 0.374446
0.000000 0.000000 0.573172
0.221095 0.000000 0.573172
0.427127 0.000000 0.573172
0.627833 0.000000 0.573172
0.825155 0.000000 0.573172
1.000000 0.000000 0.573172
0.000000 0.200000 0.573172
0.221095 0.200000 0.573172
0.427127 0.200000 0.573172
0.627833 0.200000 0.573172
0.825155 0.200000 0.573172
1.000000 0.200000 0.573172
0.000000 0.400000 0.573172
0.221095 0.400000 0.573172
0.427127 0.400000 0.573172
0.627833 0.400000 0.573172
0.825155 0.400000 0.573172
1.000000 0.400000 0.573172
0.000000 0.600000 0.573172
0.221095 0.600000 0.573172
0.427127 0.600000 0.573172
0.627833 0.600000 0.573172
0.825155 0.600000 0.573172
1.000000 0.600000 0.573172
0.000000 0.800000 0.573172
0.221095 0.800000 0.573172
0.427127 0.800000 0.573172
0.627833 0.800000 0.573172
0.825155 0.800000 0.573172
1.000000 0.800000 0.573172
0.000000 1.000000 0.573172
0.221095 1.000000 0.573172
0.427127 1.000000 0.573172
0.627833 1.000000 0.573172
0.825155 1.000000 0.573172
1.000000 1.000000 0.573172
0.000000 0.000000 0.775301
0.221095 0.000000 0.775301
0.427127 0.000000 0.775301
0.627833 0.000000 0.775301
0.825155 0.000000 0.775301
1.000000 0.000000 0.775301
0.000000 0.200000 0.775301
0.221095 0.200000 0.775301
0.427127 0.200000 0.775301
0.627833 0.200000 0.775301
0.825155 0.200000 0.775301
1.000000 0.200000 0.775301
0.000000 0.400000 0.775301
0.221095 0.400000 0.775301
0.427127 0.400000 0.775301
0.627833 0.400000 0.775301
0.825155 0.400000 0.775301
1.000000 0.400000 0.775301
0.000000 0.600000 0.775301
0.221095 0.600000 0.775301
0.427127 0.600000 0.775301
0.627833 0.600000 0.775301
0.825155 0.600000 0.775301
1.000000 0.600000 0.775301
0.000000 0.800000 0.775301
0.221095 0.800000 0.775301
0.427127 0.800000 0.775301
0.627833 0.800000 0.775301
0.825155 0.800000 0.775301
1.000000 0.800000 0.775301
0.000000 1.000000 0.775301
0.221095 1.000000 0.775301
0.427127 1.000000 0.775301
0.627833 1.000000 0.775301
0.825155 1.000000 0.775301
1.000000 1.000000 0.775301
0.000000 0.000000 0.980000
0.221095 0.000000 0.980000
0.427127 0.000000 0.980000
0.627833 0.000000 0.980000
0.825155 0.000000 0.980000
1.000000 0.000000 0.980000
0.000000 0.200000 0.980000
0.221095 0.200000 0.980000
0.427127 0.200000 0.980000
0.627833 0.200000 0.980000
0.825155 0.200000 0.980000
1.000000 0.200000 0.980000
0.000000 0.400000 0.980000
0.221095 0.400000 0.980000
0.427127 0.400000 0.980000
0.627833 0.400000 0.980000
0.825155 0.400000 0.980000
1.000000 0.400000 0.980000
0.000000 0.600000 0.980000
0.221095 0.600000 0.980000
0.427127 0.600000 0.980000
0.627833 0.600000 0.980000
0.825155 0.600000 0.980000
1.000000 0.600000 0.980000
0.000000 0.800000 0.980000
0.221095 0.800000 0.980000
0.427127 0.800000 0.980000
0.627833 0.800000 0.980000
0.825155 0.800000 0.980000
1.000000 0.800000 0.980000
0.000000 1.000000 0.980000
0.221095 1.000000 0.980000
0.427127 1.000000 0.980000
0.627833 1.000000 0.980000
0.825155 1.000000 0.980000
1.000000 1.000000 0.980000
