assets/luts/teal_orange.cube
TITLE "Cinematic Teal & Orange"
LUT_3D_SIZE 16
0.050000 0.000000 0.000000
0.116667 0.000000 0.000000
0.183333 0.000000 0.000000
0.250000 0.000000 0.000000
0.316667 0.000000 0.000000
0.383333 0.000000 0.000000
0.450000 0.000000 0.000000
0.516667 0.000000 0.000000
0.583333 0.000000 0.000000
0.650000 0.000000 0.000000
0.716667 0.000000 0.000000
0.783333 0.000000 0.000000
0.850000 0.000000 0.000000
0.916667 0.000000 0.000000
0.983333 0.000000 0.000000
1.000000 0.000000 0.000000
0.050000 0.066667 0.000000
0.116667 0.066667 0.000000
0.183333 0.066667 0.000000
0.250000 0.066667 0.000000
0.316667 0.066667 0.000000
0.383333 0.066667 0.000000
0.450000 0.066667 0.000000
0.516667 0.066667 0.000000
0.583333 0.066667 0.000000
0.650000 0.066667 0.000000
0.716667 0.066667 0.000000
0.783333 0.066667 0.000000
0.850000 0.066667 0.000000
0.916667 0.066667 0.000000
0.983333 0.066667 0.000000
1.000000 0.066667 0.000000
0.050000 0.133333 0.000000
0.116667 0.133333 0.000000
0.183333 0.133333 0.000000
0.250000 0.133333 0.000000
0.316667 0.133333 0.000000
0.383333 0.133333 0.000000
0.450000 0.133333 0.000000
0.516667 0.133333 0.000000
0.583333 0.133333 0.000000
0.650000 0.133333 0.000000
0.716667 0.133333 0.000000
0.783333 0.133333 0.000000
0.850000 0.133333 0.000000
0.916667 0.133333 0.000000
0.983333 0.133333 0.000000
1.000000 0.133333 0.000000
0.050000 0.200000 0.000000
0.116667 0.200000 0.000000
0.183333 0.200000 0.000000
0.250000 0.200000 0.000000
0.316667 0.200000 0.000000
0.383333 0.200000 0.000000
0.450000 0.200000 0.000000
0.516667 0.200000 0.000000
0.583333 0.200000 0.000000
0.650000 0.200000 0.000000
0.716667 0.200000 0.000000
0.783333 0.200000 0.000000
0.850000 0.200000 0.000000
0.916667 0.200000 0.000000
0.983333 0.200000 0.000000
1.000000 0.200000 0.000000
0.050000 0.266667 0.000000
0.116667 0.266667 0.000000
0.183333 0.266667 0.000000
0.250000 0.266667 0.000000
0.316667 0.266667 0.000000
0.383333 0.266667 0.000000
0.450000 0.266667 0.000000
0.516667 0.266667 0.000000
0.583333 0.266667 0.000000
0.650000 0.266667 0.000000
0.716667 0.266667 0.000000
0.783333 0.266667 0.000000
0.850000 0.266667 0.000000
0.916667 0.266667 0.000000
0.983333 0.266667 0.000000
1.000000 0.266667 0.000000
0.050000 0.333333 0.000000
0.116667 0.333333 0.000000
0.183333 0.333333 0.000000
0.250000 0.333333 0.000000
0.316667 0.333333 0.000000
0.383333 0.333333 0.000000
0.450000 0.333333 0.000000
0.516667 0.333333 0.000000
0.583333 0.333333 0.000000
0.650000 0.333333 0.000000
0.716667 0.333333 0.000000
0.783333 0.333333 0.000000
0.850000 0.333333 0.000000
0.916667 0.333333 0.000000
0.983333 0.333333 0.000000
1.000000 0.333333 0.000000
0.050000 0.400000 0.000000
0.116667 0.400000 0.000000
0.183333 0.400000 0.000000
0.250000 0.400000 0.000000
0.316667 0.400000 0.000000
0.383333 0.400000 0.000000
0.450000 0.400000 0.000000
0.516667 0.400000 0.000000
0.583333 0.400000 0.000000
0.650000 0.400000 0.000000
0.716667 0.400000 0.000000
0.783333 0.400000 0.000000
0.850000 0.400000 0.000000
0.916667 0.400000 0.000000
0.983333 0.400000 0.000000
1.000000 0.400000 0.000000
0.050000 0.466667 0.000000
0.116667 0.466667 0.000000
0.183333 0.466667 0.000000
0.250000 0.466667 0.000000
0.316667 0.466667 0.000000
0.383333 0.466667 0.000000
0.450000 0.466667 0.000000
0.516667 0.466667 0.000000
0.583333 0.466667 0.000000
0.650000 0.466667 0.000000
0.716667 0.466667 0.000000
0.783333 0.466667 0.000000
0.850000 0.466667 0.000000
0.916667 0.466667 0.000000
0.983333 0.466667 0.000000
1.000000 0.466667 0.000000
0.050000 0.533333 0.000000
0.116667 0.533333 0.000000
0.183333 0.533333 0.000000
0.250000 0.533333 0.000000
0.316667 0.533333 0.000000
0.383333 0.533333 0.000000
0.450000 0.533333 0.000000
0.516667 0.533333 0.000000
0.583333 0.533333 0.000000
0.650000 0.533333 0.000000
0.716667 0.533333 0.000000
0.783333 0.533333 0.000000
0.850000 0.533333 0.000000
0.916667 0.533333 0.000000
0.983333 0.533333 0.000000
1.000000 0.533333 0.000000
0.050000 0.600000 0.000000
0.116667 0.600000 0.000000
0.183333 0.600000 0.000000
0.250000 0.600000 0.000000
0.316667 0.600000 0.000000
0.383333 0.600000 0.000000
0.450000 0.600000 0.000000
0.516667 0.600000 0.000000
0.583333 0.600000 0.000000
0.650000 0.600000 0.000000
0.716667 0.600000 0.000000
0.783333 0.600000 0.000000
0.850000 0.600000 0.000000
0.916667 0.600000 0.000000
0.983333 0.600000 0.000000
1.000000 0.600000 0.000000
0.050000 0.666667 0.000000
0.116667 0.666667 0.000000
0.183333 0.666667 0.000000
0.250000 0.666667 0.000000
0.316667 0.666667 0.000000
0.383333 0.666667 0.000000
0.450000 0.666667 0.000000
0.516667 0.666667 0.000000
0.583333 0.666667 0.000000
0.650000 0.666667 0.000000
0.716667 0.666667 0.000000
0.783333 0.666667 0.000000
0.850000 0.666667 0.000000
0.916667 0.666667 0.000000
0.983333 0.666667 0.000000
1.000000 0.666667 0.000000
0.050000 0.733333 0.000000
0.116667 0.733333 0.000000
0.183333 0.733333 0.000000
0.250000 0.733333 0.000000
0.316667 0.733333 0.000000
0.383333 0.733333 0.000000
0.450000 0.733333 0.000000
0.516667 0.733333 0.000000
0.583333 0.733333 0.000000
0.650000 0.733333 0.000000
0.716667 0.733333 0.000000
0.783333 0.733333 0.000000
0.850000 0.733333 0.000000
0.916667 0.733333 0.000000
0.983333 0.733333 0.000000
1.000000 0.733333 0.000000
0.050000 0.800000 0.000000
0.116667 0.800000 0.000000
0.183333 0.800000 0.000000
0.250000 0.800000 0.000000
0.316667 0.800000 0.000000
0.383333 0.800000 0.000000
0.450000 0.800000 0.000000
0.516667 0.800000 0.000000
0.583333 0.800000 0.000000
0.650000 0.800000 0.000000
0.716667 0.800000 0.000000
0.783333 0.800000 0.000000
0.850000 0.800000 0.000000
0.916667 0.800000 0.000000
0.983333 0.800000 0.000000
1.000000 0.800000 0.000000
0.050000 0.866667 0.000000
0.116667 0.866667 0.000000
0.183333 0.866667 0.000000
0.250000 0.866667 0.000000
0.316667 0.866667 0.000000
0.383333 0.866667 0.000000
0.450000 0.866667 0.000000
0.516667 0.866667 0.000000
0.583333 0.866667 0.000000
0.650000 0.866667 0.000000
0.716667 0.866667 0.000000
0.783333 0.866667 0.000000
0.850000 0.866667 0.000000
0.916667 0.866667 0.000000
0.983333 0.866667 0.000000
1.000000 0.866667 0.000000
0.050000 0.933333 0.000000
0.116667 0.933333 0.000000
0.183333 0.933333 0.000000
0.250000 0.933333 0.000000
0.316667 0.933333 0.000000
0.383333 0.933333 0.000000
0.450000 0.933333 0.000000
0.516667 0.933333 0.000000
0.583333 0.933333 0.000000
0.650000 0.933333 0.000000
0.716667 0.933333 0.000000
0.783333 0.933333 0.000000
0.850000 0.933333 0.000000
0.916667 0.933333 0.000000
0.983333 0.933333 0.000000
1.000000 0.933333 0.000000
0.050000 1.000000 0.000000
0.116667 1.000000 0.000000
0.183333 1.000000 0.000000
0.250000 1.000000 0.000000
0.316667 1.000000 0.000000
0.383333 1.000000 0.000000
0.450000 1.000000 0.000000
0.516667 1.000000 0.000000
0.583333 1.000000 0.000000
0.650000 1.000000 0.000000
0.716667 1.000000 0.000000
0.783333 1.000000 0.000000
0.850000 1.000000 0.000000
0.916667 1.000000 0.000000
0.983333 1.000000 0.000000
1.000000 1.000000 0.000000
0.050000 0.000000 0.016667
0.116667 0.000000 0.016667
0.183333 0.000000 0.016667
0.250000 0.000000 0.016667
0.316667 0.000000 0.016667
0.383333 0.000000 0.016667
0.450000 0.000000 0.016667
0.516667 0.000000 0.016667
0.583333 0.000000 0.016667
0.650000 0.000000 0.016667
0.716667 0.000000 0.016667
0.783333 0.000000 0.016667
0.850000 0.000000 0.016667
0.916667 0.000000 0.016667
0.983333 0.000000 0.016667
1.000000 0.000000 0.016667
0.050000 0.066667 0.016667
0.116667 0.066667 0.016667
0.183333 0.066667 0.016667
0.250000 0.066667 0.016667
0.316667 0.066667 0.016667
0.383333 0.066667 0.016667
0.450000 0.066667 0.016667
0.516667 0.066667 0.016667
0.583333 0.066667 0.016667
0.650000 0.066667 0.016667
0.716667 0.066667 0.016667
0.783333 0.066667 0.016667
0.850000 0.066667 0.016667
0.916667 0.066667 0.016667
0.983333 0.066667 0.016667
1.000000 0.066667 0.016667
0.050000 0.133333 0.016667
0.116667 0.133333 0.016667
0.183333 0.133333 0.016667
0.250000 0.133333 0.016667
0.316667 0.133333 0.016667
0.383333 0.133333 0.016667
0.450000 0.133333 0.016667
0.516667 0.133333 0.016667
0.583333 0.133333 0.016667
0.650000 0.133333 0.016667
0.716667 0.133333 0.016667
0.783333 0.133333 0.016667
0.850000 0.133333 0.016667
0.916667 0.133333 0.016667
0.983333 0.133333 0.016667
1.000000 0.133333 0.016667
0.050000 0.200000 0.016667
0.116667 0.200000 0.016667
0.183333 0.200000 0.016667
0.250000 0.200000 0.016667
0.316667 0.200000 0.016667
0.383333 0.200000 0.016667
0.450000 0.200000 0.016667
0.516667 0.200000 0.016667
0.583333 0.200000 0.016667
0.650000 0.200000 0.016667
0.716667 0.200000 0.016667
0.783333 0.200000 0.016667
0.850000 0.200000 0.016667
0.916667 0.200000 0.016667
0.983333 0.200000 0.016667
1.000000 0.200000 0.016667
0.050000 0.266667 0.016667
0.116667 0.266667 0.016667
0.183333 0.266667 0.016667
0.250000 0.266667 0.016667
0.316667 0.266667 0.016667
0.383333 0.266667 0.016667
0.450000 0.266667 0.016667
0.516667 0.266667 0.016667
0.583333 0.266667 0.016667
0.650000 0.266667 0.016667
0.716667 0.266667 0.016667
0.783333 0.266667 0.016667
0.850000 0.266667 0.016667
0.916667 0.266667 0.016667
0.983333 0.266667 0.016667
1.000000 0.266667 0.016667
0.050000 0.333333 0.016667
0.116667 0.333333 0.016667
0.183333 0.333333 0.016667
0.250000 0.333333 0.016667
0.316667 0.333333 0.016667
0.383333 0.333333 0.016667
0.450000 0.333333 0.016667
0.516667 0.333333 0.016667
0.583333 0.333333 0.016667
0.650000 0.333333 0.016667
0.716667 0.333333 0.016667
0.783333 0.333333 0.016667
0.850000 0.333333 0.016667
0.916667 0.333333 0.016667
0.983333 0.333333 0.016667
1.000000 0.333333 0.016667
0.050000 0.400000 0.016667
0.116667 0.400000 0.016667
0.183333 0.400000 0.016667
0.250000 0.400000 0.016667
0.316667 0.400000 0.016667
0.383333 0.400000 0.016667
0.450000 0.400000 0.016667
0.516667 0.400000 0.016667
0.583333 0.400000 0.016667
0.650000 0.400000 0.016667
0.716667 0.400000 0.016667
0.783333 0.400000 0.016667
0.850000 0.400000 0.016667
0.916667 0.400000 0.016667
0.983333 0.400000 0.016667
1.000000 0.400000 0.016667
0.050000 0.466667 0.016667
0.116667 0.466667 0.016667
0.183333 0.466667 0.016667
0.250000 0.466667 0.016667
0.316667 0.466667 0.016667
0.383333 0.466667 0.016667
0.450000 0.466667 0.016667
0.516667 0.466667 0.016667
0.583333 0.466667 0.016667
0.650000 0.466667 0.016667
0.716667 0.466667 0.016667
0.783333 0.466667 0.016667
0.850000 0.466667 0.016667
0.916667 0.466667 0.016667
0.983333 0.466667 0.016667
1.000000 0.466667 0.016667
0.050000 0.533333 0.016667
0.116667 0.533333 0.016667
0.183333 0.533333 0.016667
0.250000 0.533333 0.016667
0.316667 0.533333 0.016667
0.383333 0.533333 0.016667
0.450000 0.533333 0.016667
0.516667 0.533333 0.016667
0.583333 0.533333 0.016667
0.650000 0.533333 0.016667
0.716667 0.533333 0.016667
0.783333 0.533333 0.016667
0.850000 0.533333 0.016667
0.916667 0.533333 0.016667
0.983333 0.533333 0.016667
1.000000 0.533333 0.016667
0.050000 0.600000 0.016667
0.116667 0.600000 0.016667
0.183333 0.600000 0.016667
0.250000 0.600000 0.016667
0.316667 0.600000 0.016667
0.383333 0.600000 0.016667
0.450000 0.600000 0.016667
0.516667 0.600000 0.016667
0.583333 0.600000 0.016667
0.650000 0.600000 0.016667
0.716667 0.600000 0.016667
0.783333 0.600000 0.016667
0.850000 0.600000 0.016667
0.916667 0.600000 0.016667
0.983333 0.600000 0.016667
1.000000 0.600000 0.016667
0.050000 0.666667 0.016667
0.116667 0.666667 0.016667
0.183333 0.666667 0.016667
0.250000 0.666667 0.016667
0.316667 0.666667 0.016667
0.383333 0.666667 0.016667
0.450000 0.666667 0.016667
0.516667 0.666667 0.016667
0.583333 0.666667 0.016667
0.650000 0.666667 0.016667
0.716667 0.666667 0.016667
0.783333 0.666667 0.016667
0.850000 0.666667 0.016667
0.916667 0.666667 0.016667
0.983333 0.666667 0.016667
1.000000 0.666667 0.016667
0.050000 0.733333 0.016667
0.116667 0.733333 0.016667
0.183333 0.733333 0.016667
0.250000 0.733333 0.016667
0.316667 0.733333 0.016667
0.383333 0.733333 0.016667
0.450000 0.733333 0.016667
0.516667 0.733333 0.016667
0.583333 0.733333 0.016667
0.650000 0.733333 0.016667
0.716667 0.733333 0.016667
0.783333 0.733333 0.016667
0.850000 0.733333 0.016667
0.916667 0.733333 0.016667
0.983333 0.733333 0.016667
1.000000 0.733333 0.016667
0.050000 0.800000 0.016667
0.116667 0.800000 0.016667
0.183333 0.800000 0.016667
0.250000 0.800000 0.016667
0.316667 0.800000 0.016667
0.383333 0.800000 0.016667
0.450000 0.800000 0.016667
0.516667 0.800000 0.016667
0.583333 0.800000 0.016667
0.650000 0.800000 0.016667
0.716667 0.800000 0.016667
0.783333 0.800000 0.016667
0.850000 0.800000 0.016667
0.916667 0.800000 0.016667
0.983333 0.800000 0.016667
1.000000 0.800000 0.016667
0.050000 0.866667 0.016667
0.116667 0.866667 0.016667
0.183333 0.866667 0.016667
0.250000 0.866667 0.016667
0.316667 0.866667 0.016667
0.383333 0.866667 0.016667
0.450000 0.866667 0.016667
0.516667 0.866667 0.016667
0.583333 0.866667 0.016667
0.650000 0.866667 0.016667
0.716667 0.866667 0.016667
0.783333 0.866667 0.016667
0.850000 0.866667 0.016667
0.916667 0.866667 0.016667
0.983333 0.866667 0.016667
1.000000 0.866667 0.016667
0.050000 0.933333 0.016667
0.116667 0.933333 0.016667
0.183333 0.933333 0.016667
0.250000 0.933333 0.016667
0.316667 0.933333 0.016667
0.383333 0.933333 0.016667
0.450000 0.933333 0.016667
0.516667 0.933333 0.016667
0.583333 0.933333 0.016667
0.650000 0.933333 0.016667
0.716667 0.933333 0.016667
0.783333 0.933333 0.016667
0.850000 0.933333 0.016667
0.916667 0.933333 0.016667
0.983333 0.933333 0.016667
1.000000 0.933333 0.016667
0.050000 1.000000 0.016667
0.116667 1.000000 0.016667
0.183333 1.000000 0.016667
0.250000 1.000000 0.016667
0.316667 1.000000 0.016667
0.383333 1.000000 0.016667
0.450000 1.000000 0.016667
0.516667 1.000000 0.016667
0.583333 1.000000 0.016667
0.650000 1.000000 0.016667
0.716667 1.000000 0.016667
0.783333 1.000000 0.016667
0.850000 1.000000 0.016667
0.916667 1.000000 0.016667
0.983333 1.000000 0.016667
1.000000 1.000000 0.016667
0.050000 0.000000 0.083333
0.116667 0.000000 0.083333
0.183333 0.000000 0.083333
0.250000 0.000000 0.083333
0.316667 0.000000 0.083333
0.383333 0.000000 0.083333
0.450000 0.000000 0.083333
0.516667 0.000000 0.083333
0.583333 0.000000 0.083333
0.650000 0.000000 0.083333
0.716667 0.000000 0.083333
0.783333 0.000000 0.083333
0.850000 0.000000 0.083333
0.916667 0.000000 0.083333
0.983333 0.000000 0.083333
1.000000 0.000000 0.083333
0.050000 0.066667 0.083333
0.116667 0.066667 0.083333
0.183333 0.066667 0.083333
0.250000 0.066667 0.083333
0.316667 0.066667 0.083333
0.383333 0.066667 0.083333
0.450000 0.066667 0.083333
0.516667 0.066667 0.083333
0.583333 0.066667 0.083333
0.650000 0.066667 0.083333
0.716667 0.066667 0.083333
0.783333 0.066667 0.083333
0.850000 0.066667 0.083333
0.916667 0.066667 0.083333
0.983333 0.066667 0.083333
1.000000 0.066667 0.083333
0.050000 0.133333 0.083333
0.116667 0.133333 0.083333
0.183333 0.133333 0.083333
0.250000 0.133333 0.083333
0.316667 0.133333 0.083333
0.383333 0.133333 0.083333
0.450000 0.133333 0.083333
0.516667 0.133333 0.083333
0.583333 0.133333 0.083333
0.650000 0.133333 0.083333
0.716667 0.133333 0.083333
0.783333 0.133333 0.083333
0.850000 0.133333 0.083333
0.916667 0.133333 0.083333
0.983333 0.133333 0.083333
1.000000 0.133333 0.083333
0.050000 0.200000 0.083333
0.116667 0.200000 0.083333
0.183333 0.200000 0.083333
0.250000 0.200000 0.083333
0.316667 0.200000 0.083333
0.383333 0.200000 0.083333
0.450000 0.200000 0.083333
0.516667 0.200000 0.083333
0.583333 0.200000 0.083333
0.650000 0.200000 0.083333
0.716667 0.200000 0.083333
0.783333 0.200000 0.083333
0.850000 0.200000 0.083333
0.916667 0.200000 0.083333
0.983333 0.200000 0.083333
1.000000 0.200000 0.083333
0.050000 0.266667 0.083333
0.116667 0.266667 0.083333
0.183333 0.266667 0.083333
0.250000 0.266667 0.083333
0.316667 0.266667 0.083333
0.383333 0.266667 0.083333
0.450000 0.266667 0.083333
0.516667 0.266667 0.083333
0.583333 0.266667 0.083333
0.650000 0.266667 0.083333
0.716667 0.266667 0.083333
0.783333 0.266667 0.083333
0.850000 0.266667 0.083333
0.916667 0.266667 0.083333
0.983333 0.266667 0.083333
1.000000 0.266667 0.083333
0.050000 0.333333 0.083333
0.116667 0.333333 0.083333
0.183333 0.333333 0.083333
0.250000 0.333333 0.083333
0.316667 0.333333 0.083333
0.383333 0.333333 0.083333
0.450000 0.333333 0.083333
0.516667 0.333333 0.083333
0.583333 0.333333 0.083333
0.650000 0.333333 0.083333
0.716667 0.333333 0.083333
0.783333 0.333333 0.083333
0.850000 0.333333 0.083333
0.916667 0.333333 0.083333
0.983333 0.333333 0.083333
1.000000 0.333333 0.083333
0.050000 0.400000 0.083333
0.116667 0.400000 0.083333
0.183333 0.400000 0.083333
0.250000 0.400000 0.083333
0.316667 0.400000 0.083333
0.383333 0.400000 0.083333
0.450000 0.400000 0.083333
0.516667 0.400000 0.083333
0.583333 0.400000 0.083333
0.650000 0.400000 0.083333
0.716667 0.400000 0.083333
0.783333 0.400000 0.083333
0.850000 0.400000 0.083333
0.916667 0.400000 0.083333
0.983333 0.400000 0.083333
1.000000 0.400000 0.083333
0.050000 0.466667 0.083333
0.116667 0.466667 0.083333
0.183333 0.466667 0.083333
0.250000 0.466667 0.083333
0.316667 0.466667 0.083333
0.383333 0.466667 0.083333
0.450000 0.466667 0.083333
0.516667 0.466667 0.083333
0.583333 0.466667 0.083333
0.650000 0.466667 0.083333
0.716667 0.466667 0.083333
0.783333 0.466667 0.083333
0.850000 0.466667 0.083333
0.916667 0.466667 0.083333
0.983333 0.466667 0.083333
1.000000 0.466667 0.083333
0.050000 0.533333 0.083333
0.116667 0.533333 0.083333
0.183333 0.533333 0.083333
0.250000 0.533333 0.083333
0.316667 0.533333 0.083333
0.383333 0.533333 0.083333
0.450000 0.533333 0.083333
0.516667 0.533333 0.083333
0.583333 0.533333 0.083333
0.650000 0.533333 0.083333
0.716667 0.533333 0.083333
0.783333 0.533333 0.083333
0.850000 0.533333 0.083333
0.916667 0.533333 0.083333
0.983333 0.533333 0.083333
1.000000 0.533333 0.083333
0.050000 0.600000 0.083333
0.116667 0.600000 0.083333
0.183333 0.600000 0.083333
0.250000 0.600000 0.083333
0.316667 0.600000 0.083333
0.383333 0.600000 0.083333
0.450000 0.600000 0.083333
0.516667 0.600000 0.083333
0.583333 0.600000 0.083333
0.650000 0.600000 0.083333
0.716667 0.600000 0.083333
0.783333 0.600000 0.083333
0.850000 0.600000 0.083333
0.916667 0.600000 0.083333
0.983333 0.600000 0.083333
1.000000 0.600000 0.083333
0.050000 0.666667 0.083333
0.116667 0.666667 0.083333
0.183333 0.666667 0.083333
0.250000 0.666667 0.083333
0.316667 0.666667 0.083333
0.383333 0.666667 0.083333
0.450000 0.666667 0.083333
0.516667 0.666667 0.083333
0.583333 0.666667 0.083333
0.650000 0.666667 0.083333
0.716667 0.666667 0.083333
0.783333 0.666667 0.083333
0.850000 0.666667 0.083333
0.916667 0.666667 0.083333
0.983333 0.666667 0.083333
1.000000 0.666667 0.083333
0.050000 0.733333 0.083333
0.116667 0.733333 0.083333
0.183333 0.733333 0.083333
0.250000 0.733333 0.083333
0.316667 0.733333 0.083333
0.383333 0.733333 0.083333
0.450000 0.733333 0.083333
0.516667 0.733333 0.083333
0.583333 0.733333 0.083333
0.650000 0.733333 0.083333
0.716667 0.733333 0.083333
0.783333 0.733333 0.083333
0.850000 0.733333 0.083333
0.916667 0.733333 0.083333
0.983333 0.733333 0.083333
1.000000 0.733333 0.083333
0.050000 0.800000 0.083333
0.116667 0.800000 0.083333
0.183333 0.800000 0.083333
0.250000 0.800000 0.083333
0.316667 0.800000 0.083333
0.383333 0.800000 0.083333
0.450000 0.800000 0.083333
0.516667 0.800000 0.083333
0.583333 0.800000 0.083333
0.650000 0.800000 0.083333
0.716667 0.800000 0.083333
0.783333 0.800000 0.083333
0.850000 0.800000 0.083333
0.916667 0.800000 0.083333
0.983333 0.800000 0.083333
1.000000 0.800000 0.083333
0.050000 0.866667 0.083333
0.116667 0.866667 0.083333
0.183333 0.866667 0.083333
0.250000 0.866667 0.083333
0.316667 0.866667 0.083333
0.383333 0.866667 0.083333
0.450000 0.866667 0.083333
0.516667 0.866667 0.083333
0.583333 0.866667 0.083333
0.650000 0.866667 0.083333
0.716667 0.866667 0.083333
0.783333 0.866667 0.083333
0.850000 0.866667 0.083333
0.916667 0.866667 0.083333
0.983333 0.866667 0.083333
1.000000 0.866667 0.083333
0.050000 0.933333 0.083333
0.116667 0.933333 0.083333
0.183333 0.933333 0.083333
0.250000 0.933333 0.083333
0.316667 0.933333 0.083333
0.383333 0.933333 0.083333
0.450000 0.933333 0.083333
0.516667 0.933333 0.083333
0.583333 0.933333 0.083333
0.650000 0.933333 0.083333
0.716667 0.933333 0.083333
0.783333 0.933333 0.083333
0.850000 0.933333 0.083333
0.916667 0.933333 0.083333
0.983333 0.933333 0.083333
1.000000 0.933333 0.083333
0.050000 1.000000 0.083333
0.116667 1.000000 0.083333
0.183333 1.000000 0.083333
0.250000 1.000000 0.083333
0.316667 1.000000 0.083333
0.383333 1.000000 0.083333
0.450000 1.000000 0.083333
0.516667 1.000000 0.083333
0.583333 1.000000 0.083333
0.650000 1.000000 0.083333
0.716667 1.000000 0.083333
0.783333 1.000000 0.083333
0.850000 1.000000 0.083333
0.916667 1.000000 0.083333
0.983333 1.000000 0.083333
1.000000 1.000000 0.083333
0.050000 0.000000 0.150000
0.116667 0.000000 0.150000
0.183333 0.000000 0.150000
0.250000 0.000000 0.150000
0.316667 0.000000 0.150000
0.383333 0.000000 0.150000
0.450000 0.000000 0.150000
0.516667 0.000000 0.150000
0.583333 0.000000 0.150000
0.650000 0.000000 0.150000
0.716667 0.000000 0.150000
0.783333 0.000000 0.150000
0.850000 0.000000 0.150000
0.916667 0.000000 0.150000
0.983333 0.000000 0.150000
1.000000 0.000000 0.150000
0.050000 0.066667 0.150000
0.116667 0.066667 0.150000
0.183333 0.066667 0.150000
0.250000 0.066667 0.150000
0.316667 0.066667 0.150000
0.383333 0.066667 0.150000
0.450000 0.066667 0.150000
0.516667 0.066667 0.150000
0.583333 0.066667 0.150000
0.650000 0.066667 0.150000
0.716667 0.066667 0.150000
0.783333 0.066667 0.150000
0.850000 0.066667 0.150000
0.916667 0.066667 0.150000
0.983333 0.066667 0.150000
1.000000 0.066667 0.150000
0.050000 0.133333 0.150000
0.116667 0.133333 0.150000
0.183333 0.133333 0.150000
0.250000 0.133333 0.150000
0.316667 0.133333 0.150000
0.383333 0.133333 0.150000
0.450000 0.133333 0.150000
0.516667 0.133333 0.150000
0.583333 0.133333 0.150000
0.650000 0.133333 0.150000
0.716667 0.133333 0.150000
0.783333 0.133333 0.150000
0.850000 0.133333 0.150000
0.916667 0.133333 0.150000
0.983333 0.133333 0.150000
1.000000 0.133333 0.150000
0.050000 0.200000 0.150000
0.116667 0.200000 0.150000
0.183333 0.200000 0.150000
0.250000 0.200000 0.150000
0.316667 0.200000 0.150000
0.383333 0.200000 0.150000
0.450000 0.200000 0.150000
0.516667 0.200000 0.150000
0.583333 0.200000 0.150000
0.650000 0.200000 0.150000
0.716667 0.200000 0.150000
0.783333 0.200000 0.150000
0.850000 0.200000 0.150000
0.916667 0.200000 0.150000
0.983333 0.200000 0.150000
1.000000 0.200000 0.150000
0.050000 0.266667 0.150000
0.116667 0.266667 0.150000
0.183333 0.266667 0.150000
0.250000 0.266667 0.150000
0.316667 0.266667 0.150000
0.383333 0.266667 0.150000
0.450000 0.266667 0.150000
0.516667 0.266667 0.150000
0.583333 0.266667 0.150000
0.650000 0.266667 0.150000
0.716667 0.266667 0.150000
0.783333 0.266667 0.150000
0.850000 0.266667 0.150000
0.916667 0.266667 0.150000
0.983333 0.266667 0.150000
1.000000 0.266667 0.150000
0.050000 0.333333 0.150000
0.116667 0.333333 0.150000
0.183333 0.333333 0.150000
0.250000 0.333333 0.150000
0.316667 0.333333 0.150000
0.383333 0.333333 0.150000
0.450000 0.333333 0.150000
0.516667 0.333333 0.150000
0.583333 0.333333 0.150000
0.650000 0.333333 0.150000
0.716667 0.333333 0.150000
0.783333 0.333333 0.150000
0.850000 0.333333 0.150000
0.916667 0.333333 0.150000
0.983333 0.333333 0.150000
1.000000 0.333333 0.150000
0.050000 0.400000 0.150000
0.116667 0.400000 0.150000
0.183333 0.400000 0.150000
0.250000 0.400000 0.150000
0.316667 0.400000 0.150000
0.383333 0.400000 0.150000
0.450000 0.400000 0.150000
0.516667 0.400000 0.150000
0.583333 0.400000 0.150000
0.650000 0.400000 0.150000
0.716667 0.400000 0.150000
0.783333 0.400000 0.150000
0.850000 0.400000 0.150000
0.916667 0.400000 0.150000
0.983333 0.400000 0.150000
1.000000 0.400000 0.150000
0.050000 0.466667 0.150000
0.116667 0.466667 0.150000
0.183333 0.466667 0.150000
0.250000 0.466667 0.150000
0.316667 0.466667 0.150000
0.383333 0.466667 0.150000
0.450000 0.466667 0.150000
