assets/luts/vintage.cube
TITLE "Vintage Film Style"
LUT_3D_SIZE 6
0.000000 0.000000 0.000000
0.124372 0.012756 0.012756
0.281938 0.025512 0.025512
0.455399 0.038268 0.038268
0.640137 0.051024 0.051024
0.833780 0.063780 0.063780
0.042912 0.144381 0.042912
0.167284 0.157137 0.055668
0.324850 0.169893 0.068424
0.498311 0.182649 0.081180
0.683049 0.195405 0.093936
0.876692 0.208161 0.106692
0.085824 0.318939 0.085824
0.210196 0.331695 0.098580
0.367762 0.344451 0.111336
0.541223 0.357207 0.124092
0.725961 0.369963 0.136848
0.919604 0.382719 0.149604
0.128736 0.507946 0.128736
0.253108 0.520702 0.141492
0.410674 0.533458 0.154248
0.584135 0.546214 0.167004
0.768873 0.558970 0.179760
0.962516 0.571726 0.192516
0.171648 0.707205 0.171648
0.296020 0.719961 0.184404
0.453586 0.732717 0.197160
0.627047 0.745473 0.209916
0.811785 0.758229 0.222672
1.000000 0.770985 0.235428
0.214560 0.914560 0.214560
0.338932 0.927316 0.227316
0.496498 0.940072 0.240072
0.669959 0.952828 0.252828
0.854697 0.965584 0.265584
1.000000 0.978340 0.278340
0.004332 0.004332 0.095654
0.128704 0.017088 0.108410
0.286270 0.029844 0.121166
0.459731 0.042600 0.133922
0.644469 0.055356 0.146678
0.838112 0.068112 0.159434
0.047244 0.148713 0.138566
0.171616 0.161469 0.151322
0.329182 0.174225 0.164078
0.502643 0.186981 0.176834
0.687381 0.199737 0.189590
0.881024 0.212493 0.202346
0.090156 0.323271 0.181478
0.214528 0.336027 0.194234
0.372094 0.348783 0.206990
0.545555 0.361539 0.219746
0.730293 0.374295 0.232502
0.923936 0.387051 0.245258
0.133068 0.512278 0.224390
0.257440 0.525034 0.237146
0.415006 0.537790 0.249902
0.588467 0.550546 0.262658
0.773205 0.563302 0.275414
0.966848 0.576058 0.288170
0.175980 0.711537 0.267302
0.300352 0.724293 0.280058
0.457918 0.737049 0.292814
0.631379 0.749805 0.305570
0.816117 0.762561 0.318326
1.000000 0.775317 0.331082
0.218892 0.918892 0.310214
0.343264 0.931648 0.322970
0.500830 0.944404 0.335726
0.674291 0.957160 0.348482
0.859029 0.969916 0.361238
1.000000 0.982672 0.373994
0.008664 0.008664 0.218467
0.133036 0.021420 0.231223
0.290602 0.034176 0.243979
0.464063 0.046932 0.256735
0.648801 0.059688 0.269491
0.842444 0.072444 0.282247
0.051576 0.153045 0.261379
0.175948 0.165801 0.274135
0.333514 0.178557 0.286891
0.506975 0.191313 0.299647
0.691713 0.204069 0.312403
0.885356 0.216825 0.325159
0.094488 0.327603 0.304291
0.218860 0.340359 0.317047
0.376426 0.353115 0.329803
0.549887 0.365871 0.342559
0.734625 0.378627 0.355315
0.928268 0.391383 0.368071
0.137400 0.516610 0.347203
0.261772 0.529366 0.359959
0.419338 0.542122 0.372715
0.592799 0.554878 0.385471
0.777537 0.567634 0.398227
0.971180 0.580390 0.410983
0.180312 0.715869 0.390115
0.304684 0.728625 0.402871
0.462250 0.741381 0.415627
0.635711 0.754137 0.428383
0.820449 0.766893 0.441139
1.000000 0.779649 0.453895
0.223224 0.923224 0.433027
0.347596 0.935980 0.445783
0.505162 0.948736 0.458539
0.678623 0.961492 0.471295
0.863361 0.974248 0.484051
1.000000 0.987004 0.496807
0.012996 0.012996 0.354285
0.137368 0.025752 0.367041
0.294934 0.038508 0.379797
0.468395 0.051264 0.392553
0.653133 0.064020 0.405309
0.846776 0.076776 0.418065
0.055908 0.157377 0.397197
0.180280 0.170133 0.409953
0.337846 0.182889 0.422709
0.511307 0.195645 0.435465
0.696045 0.208401 0.448221
0.889688 0.221157 0.460977
0.098820 0.331935 0.440109
0.223192 0.344691 0.452865
0.380758 0.357447 0.465621
0.554219 0.370203 0.478377
0.738957 0.382959 0.491133
0.932600 0.395715 0.503889
0.141732 0.520942 0.483021
0.266104 0.533698 0.495777
0.423670 0.546454 0.508533
0.597131 0.559210 0.521289
0.781869 0.571966 0.534045
0.975512 0.584722 0.546801
0.184644 0.720201 0.525933
0.309016 0.732957 0.538689
0.466582 0.745713 0.551445
0.640043 0.758469 0.564201
0.824781 0.771225 0.576957
1.000000 0.783981 0.589713
0.227556 0.927556 0.568845
0.351928 0.940312 0.581601
0.509494 0.953068 0.594357
0.682955 0.965824 0.607113
0.867693 0.978580 0.619869
1.000000 0.991336 0.632625
0.017328 0.017328 0.499330
0.141700 0.030084 0.512086
0.299266 0.042840 0.524842
0.472727 0.055596 0.537598
0.657465 0.068352 0.550354
0.851108 0.081108 0.563110
0.060240 0.161709 0.542242
0.184612 0.174465 0.554998
0.342178 0.187221 0.567754
0.515639 0.199977 0.580510
0.700377 0.212733 0.593266
0.894020 0.225489 0.606022
0.103152 0.336267 0.585154
0.227524 0.349023 0.597910
0.385090 0.361779 0.610666
0.558551 0.374535 0.623422
0.743289 0.387291 0.636178
0.936932 0.400047 0.648934
0.146064 0.525274 0.628066
0.270436 0.538030 0.640822
0.428002 0.550786 0.653578
0.601463 0.563542 0.666334
0.786201 0.576298 0.679090
0.979844 0.589054 0.691846
0.188976 0.724533 0.670978
0.313348 0.737289 0.683734
0.470914 0.750045 0.696490
0.644375 0.762801 0.709246
0.829113 0.775557 0.722002
1.000000 0.788313 0.734758
0.231888 0.931888 0.713890
0.356260 0.944644 0.726646
0.513826 0.957400 0.739402
0.687287 0.970156 0.752158
0.872025 0.982912 0.764914
1.000000 0.995668 0.777670
0.021660 0.021660 0.651660
0.146032 0.034416 0.664416
0.303598 0.047172 0.677172
0.477059 0.059928 0.689928
0.661797 0.072684 0.702684
0.855440 0.085440 0.715440
0.064572 0.166041 0.694572
0.188944 0.178797 0.707328
0.346510 0.191553 0.720084
0.519971 0.204309 0.732840
0.704709 0.217065 0.745596
0.898352 0.229821 0.758352
0.107484 0.340599 0.737484
0.231856 0.353355 0.750240
0.389422 0.366111 0.762996
0.562883 0.378867 0.775752
0.747621 0.391623 0.788508
0.941264 0.404379 0.801264
0.150396 0.529606 0.780396
0.274768 0.542362 0.793152
0.432334 0.555118 0.805908
0.605795 0.567874 0.818664
0.790533 0.580630 0.831420
0.984176 0.593386 0.844176
0.193308 0.728865 0.823308
0.317680 0.741621 0.836064
0.475246 0.754377 0.848820
0.648707 0.767133 0.861576
0.833445 0.779889 0.874332
1.000000 0.792645 0.887088
0.236220 0.936220 0.866220
0.360592 0.948976 0.878976
0.518158 0.961732 0.891732
0.691619 0.974488 0.904488
0.876357 0.987244 0.917244
1.000000 1.000000 0.930000
