assets/luts/vintage.cube
TITLE "Vintage Film Style"
LUT_3D_SIZE 16
0.000000 0.000000 0.000000
0.034118 0.004252 0.004252
0.077119 0.008504 0.008504
0.124372 0.012756 0.012756
0.174643 0.017008 0.017008
0.227297 0.021260 0.021260
0.281938 0.025512 0.025512
0.338295 0.029764 0.029764
0.396167 0.034016 0.034016
0.455399 0.038268 0.038268
0.515869 0.042520 0.042520
0.577476 0.046772 0.046772
0.640137 0.051024 0.051024
0.703781 0.055276 0.055276
0.768346 0.059528 0.059528
0.833780 0.063780 0.063780
0.014304 0.041455 0.014304
0.048422 0.045707 0.018556
0.091423 0.049959 0.022808
0.138676 0.054211 0.027060
0.188947 0.058463 0.031312
0.241601 0.062715 0.035564
0.296242 0.066967 0.039816
0.352599 0.071219 0.044068
0.410471 0.075471 0.048320
0.469703 0.079723 0.052572
0.530173 0.083975 0.056824
0.591780 0.088227 0.061076
0.654441 0.092479 0.065328
0.718085 0.096731 0.069580
0.782650 0.100983 0.073832
0.848084 0.105235 0.078084
0.028608 0.090985 0.028608
0.062726 0.095237 0.032860
0.105727 0.099489 0.037112
0.152980 0.103741 0.041364
0.203251 0.107993 0.045616
0.255905 0.112245 0.049868
0.310546 0.116497 0.054120
0.366903 0.120749 0.058372
0.424775 0.125001 0.062624
0.484007 0.129253 0.066876
0.544477 0.133505 0.071128
0.606084 0.137757 0.075380
0.668745 0.142009 0.079632
0.732389 0.146261 0.083884
0.796954 0.150513 0.088136
0.862388 0.154765 0.092388
0.042912 0.144381 0.042912
0.077030 0.148633 0.047164
0.120031 0.152885 0.051416
0.167284 0.157137 0.055668
0.217555 0.161389 0.059920
0.270209 0.165641 0.064172
0.324850 0.169893 0.068424
0.381207 0.174145 0.072676
0.439079 0.178397 0.076928
0.498311 0.182649 0.081180
0.558781 0.186901 0.085432
0.620388 0.191153 0.089684
0.683049 0.195405 0.093936
0.746693 0.199657 0.098188
0.811258 0.203909 0.102440
0.876692 0.208161 0.106692
0.057216 0.200521 0.057216
0.091334 0.204773 0.061468
0.134335 0.209025 0.065720
0.181588 0.213277 0.069972
0.231859 0.217529 0.074224
0.284513 0.221781 0.078476
0.339154 0.226033 0.082728
0.395511 0.230285 0.086980
0.453383 0.234537 0.091232
0.512615 0.238789 0.095484
0.573085 0.243041 0.099736
0.634692 0.247293 0.103988
0.697353 0.251545 0.108240
0.760997 0.255797 0.112492
0.825562 0.260049 0.116744
0.890996 0.264301 0.120996
0.071520 0.258826 0.071520
0.105638 0.263078 0.075772
0.148639 0.267330 0.080024
0.195892 0.271582 0.084276
0.246163 0.275834 0.088528
0.298817 0.280086 0.092780
0.353458 0.284338 0.097032
0.409815 0.288590 0.101284
0.467687 0.292842 0.105536
0.526919 0.297094 0.109788
0.587389 0.301346 0.114040
0.648996 0.305598 0.118292
0.711657 0.309850 0.122544
0.775301 0.314102 0.126796
0.839866 0.318354 0.131048
0.905300 0.322606 0.135300
0.085824 0.318939 0.085824
0.119942 0.323191 0.090076
0.162943 0.327443 0.094328
0.210196 0.331695 0.098580
0.260467 0.335947 0.102832
0.313121 0.340199 0.107084
0.367762 0.344451 0.111336
0.424119 0.348703 0.115588
0.481991 0.352955 0.119840
0.541223 0.357207 0.124092
0.601693 0.361459 0.128344
0.663300 0.365711 0.132596
0.725961 0.369963 0.136848
0.789605 0.374215 0.141100
0.854170 0.378467 0.145352
0.919604 0.382719 0.149604
0.100128 0.380611 0.100128
0.134246 0.384863 0.104380
0.177247 0.389115 0.108632
0.224500 0.393367 0.112884
0.274771 0.397619 0.117136
0.327425 0.401871 0.121388
0.382066 0.406123 0.125640
0.438423 0.410375 0.129892
0.496295 0.414627 0.134144
0.555527 0.418879 0.138396
0.615997 0.423131 0.142648
0.677604 0.427383 0.146900
0.740265 0.431635 0.151152
0.803909 0.435887 0.155404
0.868474 0.440139 0.159656
0.933908 0.444391 0.163908
0.114432 0.443660 0.114432
0.148550 0.447912 0.118684
0.191551 0.452164 0.122936
0.238804 0.456416 0.127188
0.289075 0.460668 0.131440
0.341729 0.464920 0.135692
0.396370 0.469172 0.139944
0.452727 0.473424 0.144196
0.510599 0.477676 0.148448
0.569831 0.481928 0.152700
0.630301 0.486180 0.156952
0.691908 0.490432 0.161204
0.754569 0.494684 0.165456
0.818213 0.498936 0.169708
0.882778 0.503188 0.173960
0.948212 0.507440 0.178212
0.128736 0.507946 0.128736
0.162854 0.512198 0.132988
0.205855 0.516450 0.137240
0.253108 0.520702 0.141492
0.303379 0.524954 0.145744
0.356033 0.529206 0.149996
0.410674 0.533458 0.154248
0.467031 0.537710 0.158500
0.524903 0.541962 0.162752
0.584135 0.546214 0.167004
0.644605 0.550466 0.171256
0.706212 0.554718 0.175508
0.768873 0.558970 0.179760
0.832517 0.563222 0.184012
0.897082 0.567474 0.188264
0.962516 0.571726 0.192516
0.143040 0.573357 0.143040
0.177158 0.577609 0.147292
0.220159 0.581861 0.151544
0.267412 0.586113 0.155796
0.317683 0.590365 0.160048
0.370337 0.594617 0.164300
0.424978 0.598869 0.168552
0.481335 0.603121 0.172804
0.539207 0.607373 0.177056
0.598439 0.611625 0.181308
0.658909 0.615877 0.185560
0.720516 0.620129 0.189812
0.783177 0.624381 0.194064
0.846821 0.628633 0.198316
0.911386 0.632885 0.202568
0.976820 0.637137 0.206820
0.157344 0.639802 0.157344
0.191462 0.644054 0.161596
0.234463 0.648306 0.165848
0.281716 0.652558 0.170100
0.331987 0.656810 0.174352
0.384641 0.661062 0.178604
0.439282 0.665314 0.182856
0.495639 0.669566 0.187108
0.553511 0.673818 0.191360
0.612743 0.678070 0.195612
0.673213 0.682322 0.199864
0.734820 0.686574 0.204116
0.797481 0.690826 0.208368
0.861125 0.695078 0.212620
0.925690 0.699330 0.216872
0.991124 0.703582 0.221124
0.171648 0.707205 0.171648
0.205766 0.711457 0.175900
0.248767 0.715709 0.180152
0.296020 0.719961 0.184404
0.346291 0.724213 0.188656
0.398945 0.728465 0.192908
0.453586 0.732717 0.197160
0.509943 0.736969 0.201412
0.567815 0.741221 0.205664
0.627047 0.745473 0.209916
0.687517 0.749725 0.214168
0.749124 0.753977 0.218420
0.811785 0.758229 0.222672
0.875429 0.762481 0.226924
0.939994 0.766733 0.231176
1.000000 0.770985 0.235428
0.185952 0.775502 0.185952
0.220070 0.779754 0.190204
0.263071 0.784006 0.194456
0.310324 0.788258 0.198708
0.360595 0.792510 0.202960
0.413249 0.796762 0.207212
0.467890 0.801014 0.211464
0.524247 0.805266 0.215716
0.582119 0.809518 0.219968
0.641351 0.813770 0.224220
0.701821 0.818022 0.228472
0.763428 0.822274 0.232724
0.826089 0.826526 0.236976
0.889733 0.830778 0.241228
0.954298 0.835030 0.245480
1.000000 0.839282 0.249732
0.200256 0.844636 0.200256
0.234374 0.848888 0.204508
0.277375 0.853140 0.208760
0.324628 0.857392 0.213012
0.374899 0.861644 0.217264
0.427553 0.865896 0.221516
0.482194 0.870148 0.225768
0.538551 0.874400 0.230020
0.596423 0.878652 0.234272
0.655655 0.882904 0.238524
0.716125 0.887156 0.242776
0.777732 0.891408 0.247028
0.840393 0.895660 0.251280
0.904037 0.899912 0.255532
0.968602 0.904164 0.259784
1.000000 0.908416 0.264036
0.214560 0.914560 0.214560
0.248678 0.918812 0.218812
0.291679 0.923064 0.223064
0.338932 0.927316 0.227316
0.389203 0.931568 0.231568
0.441857 0.935820 0.235820
0.496498 0.940072 0.240072
0.552855 0.944324 0.244324
0.610727 0.948576 0.248576
0.669959 0.952828 0.252828
0.730429 0.957080 0.257080
0.792036 0.961332 0.261332
0.854697 0.965584 0.265584
0.918341 0.969836 0.269836
0.982906 0.974088 0.274088
1.000000 0.978340 0.278340
0.001444 0.001444 0.025880
0.035562 0.005696 0.030132
0.078563 0.009948 0.034384
0.125816 0.014200 0.038636
0.176087 0.018452 0.042888
0.228741 0.022704 0.047140
0.283382 0.026956 0.051392
0.339739 0.031208 0.055644
0.397611 0.035460 0.059896
0.456843 0.039712 0.064148
0.517313 0.043964 0.068400
0.578920 0.048216 0.072652
0.641581 0.052468 0.076904
0.705225 0.056720 0.081156
0.769790 0.060972 0.085408
0.835224 0.065224 0.089660
0.015748 0.042899 0.040184
0.049866 0.047151 0.044436
0.092867 0.051403 0.048688
0.140120 0.055655 0.052940
0.190391 0.059907 0.057192
0.243045 0.064159 0.061444
0.297686 0.068411 0.065696
0.354043 0.072663 0.069948
0.411915 0.076915 0.074200
0.471147 0.081167 0.078452
0.531617 0.085419 0.082704
0.593224 0.089671 0.086956
0.655885 0.093923 0.091208
0.719529 0.098175 0.095460
0.784094 0.102427 0.099712
0.849528 0.106679 0.103964
0.030052 0.092429 0.054488
0.064170 0.096681 0.058740
0.107171 0.100933 0.062992
0.154424 0.105185 0.067244
0.204695 0.109437 0.071496
0.257349 0.113689 0.075748
0.311990 0.117941 0.080000
0.368347 0.122193 0.084252
0.426219 0.126445 0.088504
0.485451 0.130697 0.092756
0.545921 0.134949 0.097008
0.607528 0.139201 0.101260
0.670189 0.143453 0.105512
0.733833 0.147705 0.109764
0.798398 0.151957 0.114016
0.863832 0.156209 0.118268
0.044356 0.145825 0.068792
0.078474 0.150077 0.073044
0.121475 0.154329 0.077296
0.168728 0.158581 0.081548
0.218999 0.162833 0.085800
0.271653 0.167085 0.090052
0.326294 0.171337 0.094304
0.382651 0.175589 0.098556
0.440523 0.179841 0.102808
0.499755 0.184093 0.107060
0.560225 0.188345 0.111312
0.621832 0.192597 0.115564
0.684493 0.196849 0.119816
0.748137 0.201101 0.124068
0.812702 0.205353 0.128320
0.878136 0.209605 0.132572
0.058660 0.201965 0.083096
0.092778 0.206217 0.087348
0.135779 0.210469 0.091600
0.183032 0.214721 0.095852
0.233303 0.218973 0.100104
0.285957 0.223225 0.104356
0.340598 0.227477 0.108608
0.396955 0.231729 0.112860
0.454827 0.235981 0.117112
0.514059 0.240233 0.121364
0.574529 0.244485 0.125616
0.636136 0.248737 0.129868
0.698797 0.252989 0.134120
0.762441 0.257241 0.138372
0.827006 0.261493 0.142624
0.892440 0.265745 0.146876
0.072964 0.260270 0.097400
0.107082 0.264522 0.101652
0.150083 0.268774 0.105904
0.197336 0.273026 0.110156
0.247607 0.277278 0.114408
0.300261 0.281530 0.118660
0.354902 0.285782 0.122912
0.411259 0.290034 0.127164
0.469131 0.294286 0.131416
0.528363 0.298538 0.135668
0.588833 0.302790 0.139920
0.650440 0.307042 0.144172
0.713101 0.311294 0.148424
0.776745 0.315546 0.152676
0.841310 0.319798 0.156928
0.906744 0.324050 0.161180
0.087268 0.320383 0.111704
0.121386 0.324635 0.115956
0.164387 0.328887 0.120208
0.211640 0.333139 0.124460
0.261911 0.337391 0.128712
0.314565 0.341643 0.132964
0.369206 0.345895 0.137216
0.425563 0.350147 0.141468
0.483435 0.354399 0.145720
0.542667 0.358651 0.149972
0.603137 0.362903 0.154224
0.664744 0.367155 0.158476
0.727405 0.371407 0.162728
0.791049 0.375659 0.166980
0.855614 0.379911 0.171232
0.921048 0.384163 0.175484
0.101572 0.382055 0.126008
0.135690 0.386307 0.130260
0.178691 0.390559 0.134512
0.225944 0.394811 0.138764
0.276215 0.399063 0.143016
0.328869 0.403315 0.147268
0.383510 0.407567 0.151520
0.439867 0.411819 0.155772
0.497739 0.416071 0.160024
0.556971 0.420323 0.164276
0.617441 0.424575 0.168528
0.679048 0.428827 0.172780
0.741709 0.433079 0.177032
0.805353 0.437331 0.181284
0.869918 0.441583 0.185536
0.935352 0.445835 0.189788
0.115876 0.445104 0.140312
0.149994 0.449356 0.144564
0.192995 0.453608 0.148816
0.240248 0.457860 0.153068
0.290519 0.462112 0.157320
0.343173 0.466364 0.161572
0.397814 0.470616 0.165824
0.454171 0.474868 0.170076
0.512043 0.479120 0.174328
0.571275 0.483372 0.178580
0.631745 0.487624 0.182832
0.693352 0.491876 0.187084
0.756013 0.496128 0.191336
0.819657 0.500380 0.195588
0.884222 0.504632 0.199840
0.949656 0.508884 0.204092
0.130180 0.509390 0.154616
0.164298 0.513642 0.158868
0.207299 0.517894 0.163120
0.254552 0.522146 0.167372
0.304823 0.526398 0.171624
0.357477 0.530650 0.175876
0.412118 0.534902 0.180128
0.468475 0.539154 0.184380
0.526347 0.543406 0.188632
0.585579 0.547658 0.192884
0.646049 0.551910 0.197136
0.707656 0.556162 0.201388
0.770317 0.560414 0.205640
0.833961 0.564666 0.209892
0.898526 0.568918 0.214144
0.963960 0.573170 0.218396
0.144484 0.574801 0.168920
0.178602 0.579053 0.173172
0.221603 0.583305 0.177424
0.268856 0.587557 0.181676
0.319127 0.591809 0.185928
0.371781 0.596061 0.190180
0.426422 0.600313 0.194432
0.482779 0.604565 0.198684
0.540651 0.608817 0.202936
0.599883 0.613069 0.207188
0.660353 0.617321 0.211440
0.721960 0.621573 0.215692
0.784621 0.625825 0.219944
0.848265 0.630077 0.224196
0.912830 0.634329 0.228448
0.978264 0.638581 0.232700
0.158788 0.641246 0.183224
0.192906 0.645498 0.187476
0.235907 0.649750 0.191728
0.283160 0.654002 0.195980
0.333431 0.658254 0.200232
0.386085 0.662506 0.204484
0.440726 0.666758 0.208736
0.497083 0.671010 0.212988
0.554955 0.675262 0.217240
0.614187 0.679514 0.221492
0.674657 0.683766 0.225744
0.736264 0.688018 0.229996
0.798925 0.692270 0.234248
0.862569 0.696522 0.238500
0.927134 0.700774 0.242752
0.992568 0.705026 0.247004
0.173092 0.708649 0.197528
0.207210 0.712901 0.201780
0.250211 0.717153 0.206032
0.297464 0.721405 0.210284
0.347735 0.725657 0.214536
0.400389 0.729909 0.218788
0.455030 0.734161 0.223040
0.511387 0.738413 0.227292
0.569259 0.742665 0.231544
0.628491 0.746917 0.235796
0.688961 0.751169 0.240048
0.750568 0.755421 0.244300
0.813229 0.759673 0.248552
0.876873 0.763925 0.252804
0.941438 0.768177 0.257056
1.000000 0.772429 0.261308
0.187396 0.776946 0.211832
0.221514 0.781198 0.216084
0.264515 0.785450 0.220336
0.311768 0.789702 0.224588
0.362039 0.793954 0.228840
0.414693 0.798206 0.233092
0.469334 0.802458 0.237344
0.525691 0.806710 0.241596
0.583563 0.810962 0.245848
0.642795 0.815214 0.250100
0.703265 0.819466 0.254352
0.764872 0.823718 0.258604
0.827533 0.827970 0.262856
0.891177 0.832222 0.267108
0.955742 0.836474 0.271360
1.000000 0.840726 0.275612
0.201700 0.846080 0.226136
0.235818 0.850332 0.230388
0.278819 0.854584 0.234640
0.326072 0.858836 0.238892
0.376343 0.863088 0.243144
0.428997 0.867340 0.247396
0.483638 0.871592 0.251648
0.539995 0.875844 0.255900
0.597867 0.880096 0.260152
0.657099 0.884348 0.264404
0.717569 0.888600 0.268656
0.779176 0.892852 0.272908
0.841837 0.897104 0.277160
0.905481 0.901356 0.281412
0.970046 0.905608 0.285664
1.000000 0.909860 0.289916
0.216004 0.916004 0.240440
0.250122 0.920256 0.244692
0.293123 0.924508 0.248944
0.340376 0.928760 0.253196
0.390647 0.933012 0.257448
0.443301 0.937264 0.261700
0.497942 0.941516 0.265952
0.554299 0.945768 0.270204
0.612171 0.950020 0.274456
0.671403 0.954272 0.278708
0.731873 0.958524 0.282960
0.793480 0.962776 0.287212
0.856141 0.967028 0.291464
0.919785 0.971280 0.295716
0.984350 0.975532 0.299968
1.000000 0.979784 0.304220
0.002888 0.002888 0.059027
0.037006 0.007140 0.063279
0.080007 0.011392 0.067531
0.127260 0.015644 0.071783
0.177531 0.019896 0.076035
0.230185 0.024148 0.080287
0.284826 0.028400 0.084539
0.341183 0.032652 0.088791
0.399055 0.036904 0.093043
0.458287 0.041156 0.097295
0.518757 0.045408 0.101547
0.580364 0.049660 0.105799
0.643025 0.053912 0.110051
0.706669 0.058164 0.114303
0.771234 0.062416 0.118555
0.836668 0.066668 0.122807
0.017192 0.044343 0.073331
0.051310 0.048595 0.077583
0.094311 0.052847 0.081835
0.141564 0.057099 0.086087
0.191835 0.061351 0.090339
0.244489 0.065603 0.094591
0.299130 0.069855 0.098843
0.355487 0.074107 0.103095
0.413359 0.078359 0.107347
0.472591 0.082611 0.111599
0.533061 0.086863 0.115851
0.594668 0.091115 0.120103
0.657329 0.095367 0.124355
0.720973 0.099619 0.128607
0.785538 0.103871 0.132859
0.850972 0.108123 0.137111
0.031496 0.093873 0.087635
0.065614 0.098125 0.091887
0.108615 0.102377 0.096139
0.155868 0.106629 0.100391
0.206139 0.110881 0.104643
0.258793 0.115133 0.108895
0.313434 0.119385 0.113147
0.369791 0.123637 0.117399
0.427663 0.127889 0.121651
0.486895 0.132141 0.125903
0.547365 0.136393 0.130155
0.608972 0.140645 0.134407
0.671633 0.144897 0.138659
0.735277 0.149149 0.142911
0.799842 0.153401 0.147163
0.865276 0.157653 0.151415
0.045800 0.147269 0.101939
0.079918 0.151521 0.106191
0.122919 0.155773 0.110443
0.170172 0.160025 0.114695
0.220443 0.164277 0.118947
0.273097 0.168529 0.123199
0.327738 0.172781 0.127451
0.384095 0.177033 0.131703
0.441967 0.181285 0.135955
0.501199 0.185537 0.140207
0.561669 0.189789 0.144459
0.623276 0.194041 0.148711
0.685937 0.198293 0.152963
0.749581 0.202545 0.157215
0.814146 0.206797 0.161467
0.879580 0.211049 0.165719
0.060104 0.203409 0.116243
0.094222 0.207661 0.120495
0.137223 0.211913 0.124747
0.184476 0.216165 0.128999
0.234747 0.220417 0.133251
0.287401 0.224669 0.137503
0.342042 0.228921 0.141755
0.398399 0.233173 0.146007
0.456271 0.237425 0.150259
0.515503 0.241677 0.154511
0.575973 0.245929 0.158763
0.637580 0.250181 0.163015
0.700241 0.254433 0.167267
0.763885 0.258685 0.171519
0.828450 0.262937 0.175771
0.893884 0.267189 0.180023
0.074408 0.261714 0.130547
0.108526 0.265966 0.134799
0.151527 0.270218 0.139051
0.198780 0.274470 0.143303
0.249051 0.278722 0.147555
0.301705 0.282974 0.151807
0.356346 0.287226 0.156059
0.412703 0.291478 0.160311
0.470575 0.295730 0.164563
0.529807 0.299982 0.168815
0.590277 0.304234 0.173067
0.651884 0.308486 0.177319
0.714545 0.312738 0.181571
0.778189 0.316990 0.185823
0.842754 0.321242 0.190075
0.908188 0.325494 0.194327
0.088712 0.321827 0.144851
0.122830 0.326079 0.149103
0.165831 0.330331 0.153355
0.213084 0.334583 0.157607
0.263355 0.338835 0.161859
0.316009 0.343087 0.166111
0.370650 0.347339 0.170363
0.427007 0.351591 0.174615
0.484879 0.355843 0.178867
0.544111 0.360095 0.183119
0.604581 0.364347 0.187371
0.666188 0.368599 0.191623
0.728849 0.372851 0.195875
0.792493 0.377103 0.200127
0.857058 0.381355 0.204379
0.922492 0.385607 0.208631
0.103016 0.383499 0.159155
0.137134 0.387751 0.163407
0.180135 0.392003 0.167659
0.227388 0.396255 0.171911
0.277659 0.400507 0.176163
0.330313 0.404759 0.180415
0.384954 0.409011 0.184667
0.441311 0.413263 0.188919
0.499183 0.417515 0.193171
0.558415 0.421767 0.197423
0.618885 0.426019 0.201675
0.680492 0.430271 0.205927
0.743153 0.434523 0.210179
0.806797 0.438775 0.214431
0.871362 0.443027 0.218683
0.936796 0.447279 0.222935
0.117320 0.446548 0.173459
0.151438 0.450800 0.177711
0.194439 0.455052 0.181963
0.241692 0.459304 0.186215
0.291963 0.463556 0.190467
0.344617 0.467808 0.194719
0.399258 0.472060 0.198971
0.455615 0.476312 0.203223
0.513487 0.480564 0.207475
0.572719 0.484816 0.211727
0.633189 0.489068 0.215979
0.694796 0.493320 0.220231
0.757457 0.497572 0.224483
0.821101 0.501824 0.228735
0.885666 0.506076 0.232987
0.951100 0.510328 0.237239
0.131624 0.510834 0.187763
0.165742 0.515086 0.192015
0.208743 0.519338 0.196267
0.255996 0.523590 0.200519
0.306267 0.527842 0.204771
0.358921 0.532094 0.209023
0.413562 0.536346 0.213275
0.469919 0.540598 0.217527
0.527791 0.544850 0.221779
0.587023 0.549102 0.226031
0.647493 0.553354 0.230283
0.709100 0.557606 0.234535
0.771761 0.561858 0.238787
0.835405 0.566110 0.243039
0.899970 0.570362 0.247291
0.965404 0.574614 0.251543
0.145928 0.576245 0.202067
0.180046 0.580497 0.206319
0.223047 0.584749 0.210571
0.270300 0.589001 0.214823
0.320571 0.593253 0.219075
0.373225 0.597505 0.223327
0.427866 0.601757 0.227579
0.484223 0.606009 0.231831
0.542095 0.610261 0.236083
0.601327 0.614513 0.240335
0.661797 0.618765 0.244587
0.723404 0.623017 0.248839
0.786065 0.627269 0.253091
0.849709 0.631521 0.257343
0.914274 0.635773 0.261595
0.979708 0.640025 0.265847
0.160232 0.642690 0.216371
0.194350 0.646942 0.220623
0.237351 0.651194 0.224875
0.284604 0.655446 0.229127
0.334875 0.659698 0.233379
0.387529 0.663950 0.237631
0.442170 0.668202 0.241883
0.498527 0.672454 0.246135
0.556399 0.676706 0.250387
0.615631 0.680958 0.254639
0.676101 0.685210 0.258891
0.737708 0.689462 0.263143
0.800369 0.693714 0.267395
0.864013 0.697966 0.271647
0.928578 0.702218 0.275899
0.994012 0.706470 0.280151
0.174536 0.710093 0.230675
0.208654 0.714345 0.234927
0.251655 0.718597 0.239179
0.298908 0.722849 0.243431
0.349179 0.727101 0.247683
0.401833 0.731353 0.251935
0.456474 0.735605 0.256187
0.512831 0.739857 0.260439
0.570703 0.744109 0.264691
0.629935 0.748361 0.268943
0.690405 0.752613 0.273195
0.752012 0.756865 0.277447
0.814673 0.761117 0.281699
0.878317 0.765369 0.285951
0.942882 0.769621 0.290203
1.000000 0.773873 0.294455
0.188840 0.778390 0.244979
0.222958 0.782642 0.249231
0.265959 0.786894 0.253483
0.313212 0.791146 0.257735
0.363483 0.795398 0.261987
0.416137 0.799650 0.266239
0.470778 0.803902 0.270491
0.527135 0.808154 0.274743
0.585007 0.812406 0.278995
0.644239 0.816658 0.283247
0.704709 0.820910 0.287499
0.766316 0.825162 0.291751
0.828977 0.829414 0.296003
0.892621 0.833666 0.300255
0.957186 0.837918 0.304507
1.000000 0.842170 0.308759
0.203144 0.847524 0.259283
0.237262 0.851776 0.263535
0.280263 0.856028 0.267787
0.327516 0.860280 0.272039
0.377787 0.864532 0.276291
0.430441 0.868784 0.280543
0.485082 0.873036 0.284795
0.541439 0.877288 0.289047
0.599311 0.881540 0.293299
0.658543 0.885792 0.297551
0.719013 0.890044 0.301803
0.780620 0.894296 0.306055
0.843281 0.898548 0.310307
0.906925 0.902800 0.314559
0.971490 0.907052 0.318811
1.000000 0.911304 0.323063
0.217448 0.917448 0.273587
0.251566 0.921700 0.277839
0.294567 0.925952 0.282091
0.341820 0.930204 0.286343
0.392091 0.934456 0.290595
0.444745 0.938708 0.294847
0.499386 0.942960 0.299099
0.555743 0.947212 0.303351
0.613615 0.951464 0.307603
0.672847 0.955716 0.311855
0.733317 0.959968 0.316107
0.794924 0.964220 0.320359
0.857585 0.968472 0.324611
0.921229 0.972724 0.328863
0.985794 0.976976 0.333115
1.000000 0.981228 0.337367
0.004332 0.004332 0.095654
0.038450 0.008584 0.099906
0.081451 0.012836 0.104158
0.128704 0.017088 0.108410
0.178975 0.021340 0.112662
0.231629 0.025592 0.116914
0.286270 0.029844 0.121166
0.342627 0.034096 0.125418
0.400499 0.038348 0.129670
0.459731 0.042600 0.133922
0.520201 0.046852 0.138174
0.581808 0.051104 0.142426
0.644469 0.055356 0.146678
0.708113 0.059608 0.150930
0.772678 0.063860 0.155182
0.838112 0.068112 0.159434
0.018636 0.045787 0.109958
0.052754 0.050039 0.114210
0.095755 0.054291 0.118462
0.143008 0.058543 0.122714
0.193279 0.062795 0.126966
0.245933 0.067047 0.131218
0.300574 0.071299 0.135470
0.356931 0.075551 0.139722
0.414803 0.079803 0.143974
0.474035 0.084055 0.148226
0.534505 0.088307 0.152478
0.596112 0.092559 0.156730
0.658773 0.096811 0.160982
0.722417 0.101063 0.165234
0.786982 0.105315 0.169486
0.852416 0.109567 0.173738
0.032940 0.095317 0.124262
0.067058 0.099569 0.128514
0.110059 0.103821 0.132766
0.157312 0.108073 0.137018
0.207583 0.112325 0.141270
0.260237 0.116577 0.145522
0.314878 0.120829 0.149774
0.371235 0.125081 0.154026
0.429107 0.129333 0.158278
0.488339 0.133585 0.162530
0.548809 0.137837 0.166782
0.610416 0.142089 0.171034
0.673077 0.146341 0.175286
0.736721 0.150593 0.179538
0.801286 0.154845 0.183790
0.866720 0.159097 0.188042
0.047244 0.148713 0.138566
0.081362 0.152965 0.142818
0.124363 0.157217 0.147070
0.171616 0.161469 0.151322
0.221887 0.165721 0.155574
0.274541 0.169973 0.159826
0.329182 0.174225 0.164078
0.385539 0.178477 0.168330
0.443411 0.182729 0.172582
0.502643 0.186981 0.176834
0.563113 0.191233 0.181086
0.624720 0.195485 0.185338
0.687381 0.199737 0.189590
0.751025 0.203989 0.193842
0.815590 0.208241 0.198094
0.881024 0.212493 0.202346
0.061548 0.204853 0.152870
0.095666 0.209105 0.157122
0.138667 0.213357 0.161374
0.185920 0.217609 0.165626
0.236191 0.221861 0.169878
0.288845 0.226113 0.174130
0.343486 0.230365 0.178382
0.399843 0.234617 0.182634
0.457715 0.238869 0.186886
0.516947 0.243121 0.191138
0.577417 0.247373 0.195390
0.639024 0.251625 0.199642
0.701685 0.255877 0.203894
0.765329 0.260129 0.208146
0.829894 0.264381 0.212398
0.895328 0.268633 0.216650
0.075852 0.263158 0.167174
0.109970 0.267410 0.171426
0.152971 0.271662 0.175678
0.200224 0.275914 0.179930
0.250495 0.280166 0.184182
0.303149 0.284418 0.188434
0.357790 0.288670 0.192686
0.414147 0.292922 0.196938
0.472019 0.297174 0.201190
0.531251 0.301426 0.205442
0.591721 0.305678 0.209694
0.653328 0.309930 0.213946
0.715989 0.314182 0.218198
0.779633 0.318434 0.222450
0.844198 0.322686 0.226702
0.909632 0.326938 0.230954
0.090156 0.323271 0.181478
0.124274 0.327523 0.185730
0.167275 0.331775 0.189982
0.214528 0.336027 0.194234
0.264799 0.340279 0.198486
0.317453 0.344531 0.202738
0.372094 0.348783 0.206990
0.428451 0.353035 0.211242
0.486323 0.357287 0.215494
0.545555 0.361539 0.219746
0.606025 0.365791 0.223998
0.667632 0.370043 0.228250
0.730293 0.374295 0.232502
0.793937 0.378547 0.236754
0.858502 0.382799 0.241006
0.923936 0.387051 0.245258
0.104460 0.384943 0.195782
0.138578 0.389195 0.200034
0.181579 0.393447 0.204286
0.228832 0.397699 0.208538
0.279103 0.401951 0.212790
0.331757 0.406203 0.217042
0.386398 0.410455 0.221294
